;Project circle-d
;Created by Estlcam version 11 build 11.042
;Machining time about 00:04:02 hours

G90
M03 S24000
G00 X0.0000 Y0.0000 Z0.0000 F2100
G00 Z3.0000 F480


;No. 1: Hole 7
G00 X0.2530 Y-17.8875 F2100
G00 Z0.5000 F480
G01 Z-1.5000 F180 S24000
G01 X-14.7658 F900
G01 X-14.7907 Y-16.4565 F900
G01 X5.7821 F900
G01 X-9.8625 F900
G01 Y-15.0255 F900
G01 X-14.7907 F900
G01 Y-13.5945 F900
G01 X-10.4671 F900
G01 Y-12.1635 F900
G01 X-14.7907 F900
G01 Y-10.7325 F900
G01 X-10.4671 F900
G01 Y-9.3015 F900
G01 X-14.7907 F900
G01 Y-7.8705 F900
G01 X-10.4671 F900
G01 Y-6.4395 F900
G01 X-14.7907 F900
G01 Y-5.0085 F900
G01 X-10.4671 F900
G01 Y-3.5775 F900
G01 X-14.7907 F900
G01 Y-2.1465 F900
G01 X-10.4671 F900
G01 Y-0.7155 F900
G01 X-14.7907 F900
G01 Y0.7155 F900
G01 X-10.4671 F900
G01 Y2.1465 F900
G01 X-14.7907 F900
G01 Y3.5775 F900
G01 X-10.4671 F900
G01 Y5.0085 F900
G01 X-14.7907 F900
G01 Y6.4395 F900
G01 X-10.4671 F900
G01 Y7.8705 F900
G01 X-14.7907 F900
G01 Y9.3015 F900
G01 X-10.4671 F900
G01 Y10.7325 F900
G01 X-14.7907 F900
G01 Y12.1635 F900
G01 X-10.4671 F900
G01 Y13.5945 F900
G01 X-14.7907 F900
G01 Y15.0255 F900
G01 X-9.9277 F900
G01 X-14.7907 F900
G01 Y16.4565 F900
G01 X5.9911 F900
G01 Y15.0255 F900
G01 X8.5527 F900
G01 X0.6555 F900
G01 X4.0041 F900
G01 Y13.5945 F900
G01 X10.2529 F900
G01 X11.5159 Y12.1635 F900
G01 X5.8925 F900
G01 X7.1769 Y10.7325 F900
G01 X12.4643 F900
G01 X13.1876 Y9.3015 F900
G01 X8.1223 F900
G01 X8.8169 Y7.8705 F900
G01 X13.7383 F900
G01 X14.1491 Y6.4395 F900
G01 X9.3173 F900
G01 X9.6798 Y5.0085 F900
G01 X14.4430 F900
G01 X14.6395 Y3.5775 F900
G01 X9.9337 F900
G01 X10.0881 Y2.1465 F900
G01 X14.7506 F900
G01 X14.7897 Y0.7155 F900
G01 X10.1527 F900
G01 X10.1396 Y-0.7155 F900
G01 X14.7676 F900
G01 X14.6879 Y-2.1465 F900
G01 X10.0569 F900
G01 X9.8936 Y-3.5775 F900
G01 X14.5417 F900
G01 X14.3183 Y-5.0085 F900
G01 X9.6360 F900
G01 X9.2652 Y-6.4395 F900
G01 X14.0022 F900
G01 X13.5739 Y-7.8705 F900
G01 X8.7655 F900
G01 X8.0843 Y-9.3015 F900
G01 X13.0140 F900
G01 X12.2942 Y-10.7325 F900
G01 X7.1599 F900
G01 X5.8842 Y-12.1635 F900
G01 X11.3586 F900
G01 X10.1094 Y-13.5945 F900
G01 X3.9995 F900
G01 Y-15.0255 F900
G01 X0.4766 F900
G01 X8.3768 F900
G00 Z3.0000 F480
G00 X0.7247 Y16.4565 F2100
G00 Z0.5000 F480
G01 Z-1.5000 F180
G01 Y17.8875 F900
G01 X-14.7648 F900
G00 Z3.0000 F480
G00 X-9.9277 Y15.0255 F2100
G00 Z0.5000 F480
G01 Z-1.5000 F180
G01 X-9.8970 Y14.5552 F900
G03 X-10.1451 Y13.8086 I1.3379 J-0.8591 F900
G01 X-10.1491 Y13.6761 F900
G01 Y-13.6340 F900
G01 X-10.1411 Y-13.7927 F900
G03 X-8.5391 Y-15.2240 I1.5823 J0.1589 F900
G01 X-4.3028 F900
G03 X1.3560 Y-14.4470 I0.3875 J18.1734 F900
G03 X8.2970 Y-8.1609 I-3.3154 J10.6359 F900
G03 X9.7864 Y-1.4789 I-18.0263 J7.5251 F900
G03 X9.0997 Y6.0365 I-22.5012 J1.7332 F900
G03 X4.4797 Y12.9045 I-11.7092 J-2.8886 F900
G03 X-1.4843 Y15.1133 I-7.3064 J-10.5723 F900
G03 X-4.4471 Y15.2861 I-2.8380 J-23.1636 F900
G01 X-8.5591 F900
G03 X-9.8970 Y14.5552 I0.0000 J-1.5900 F900
G01 X-9.9277 Y15.0255 F900
G00 Z3.0000 F480
G00 X-9.9281 Y17.8875 F2100
G00 Z0.5000 F480
G01 Z-1.5000 F180
G01 Y18.5033 F900
G01 X-3.9658 Y18.5039 F900
G02 X3.2015 Y17.7356 I0.4516 J-29.6051 F900
G02 X8.6147 Y15.3711 I-3.8210 J-16.1260 F900
G02 X13.9905 Y8.1201 I-8.0679 J-11.5996 F900
G02 X15.1086 Y0.5807 I-22.1651 J-7.1399 F900
G02 X14.2298 Y-6.8242 I-28.1305 J-0.4158 F900
G02 X11.3701 Y-12.6698 I-15.6105 J4.0144 F900
G02 X4.7588 Y-17.1952 I-11.0577 J9.0624 F900
G02 X-2.1889 Y-18.4347 I-8.0473 J25.0166 F900
G02 X-4.6800 Y-18.5039 I-2.4527 J43.4217 F900
G01 X-14.2724 Y-18.5037 F900
G02 X-14.9803 Y-18.2794 I-0.0938 J0.9331 F900
G02 X-15.1039 Y-17.6998 I1.4093 J0.6034 F900
G01 X-15.1074 Y-17.6108 F900
G01 X-15.1087 Y-17.4961 F900
G01 Y17.4961 F900
G01 X-15.1075 Y17.6086 F900
G02 X-15.0401 Y18.1212 I2.0104 J-0.0034 F900
G02 X-14.7390 Y18.4208 I0.4121 J-0.1130 F900
G02 X-14.3281 Y18.5029 I0.4250 J-1.0586 F900
G01 X-9.9281 Y18.5033 F900
G01 Y17.8875 F900
G00 Z3.0000 F480
G00 X-14.7658 Y-17.8875 F2100
G00 Z-1.0000 F480
G01 Z-3.0000 F180
G01 X0.2530 F900
G01 Y-16.4565 F900
G01 X5.7821 F900
G01 X-14.7907 F900
G01 Y-15.0255 F900
G01 X-9.8625 F900
G01 X-10.4671 Y-13.5945 F900
G01 X-14.7907 F900
G01 Y-12.1635 F900
G01 X-10.4671 F900
G01 Y-10.7325 F900
G01 X-14.7907 F900
G01 Y-9.3015 F900
G01 X-10.4671 F900
G01 Y-7.8705 F900
G01 X-14.7907 F900
G01 Y-6.4395 F900
G01 X-10.4671 F900
G01 Y-5.0085 F900
G01 X-14.7907 F900
G01 Y-3.5775 F900
G01 X-10.4671 F900
G01 Y-2.1465 F900
G01 X-14.7907 F900
G01 Y-0.7155 F900
G01 X-10.4671 F900
G01 Y0.7155 F900
G01 X-14.7907 F900
G01 Y2.1465 F900
G01 X-10.4671 F900
G01 Y3.5775 F900
G01 X-14.7907 F900
G01 Y5.0085 F900
G01 X-10.4671 F900
G01 Y6.4395 F900
G01 X-14.7907 F900
G01 Y7.8705 F900
G01 X-10.4671 F900
G01 Y9.3015 F900
G01 X-14.7907 F900
G01 Y10.7325 F900
G01 X-10.4671 F900
G01 Y12.1635 F900
G01 X-14.7907 F900
G01 Y13.5945 F900
G01 X-10.4671 F900
G01 X-9.9277 Y15.0255 F900
G01 X-14.7907 F900
G01 Y16.4565 F900
G01 X5.9911 F900
G01 Y15.0255 F900
G01 X8.5527 F900
G01 X0.6555 F900
G01 X4.0041 F900
G01 Y13.5945 F900
G01 X10.2529 F900
G01 X11.5159 Y12.1635 F900
G01 X5.8925 F900
G01 X7.1769 Y10.7325 F900
G01 X12.4643 F900
G01 X13.1876 Y9.3015 F900
G01 X8.1223 F900
G01 X8.8169 Y7.8705 F900
G01 X13.7383 F900
G01 X14.1491 Y6.4395 F900
G01 X9.3173 F900
G01 X9.6798 Y5.0085 F900
G01 X14.4430 F900
G01 X14.6395 Y3.5775 F900
G01 X9.9337 F900
G01 X10.0881 Y2.1465 F900
G01 X14.7506 F900
G01 X14.7897 Y0.7155 F900
G01 X10.1527 F900
G01 X10.1396 Y-0.7155 F900
G01 X14.7676 F900
G01 X14.6879 Y-2.1465 F900
G01 X10.0569 F900
G01 X9.8936 Y-3.5775 F900
G01 X14.5417 F900
G01 X14.3183 Y-5.0085 F900
G01 X9.6360 F900
G01 X9.2652 Y-6.4395 F900
G01 X14.0022 F900
G01 X13.5739 Y-7.8705 F900
G01 X8.7655 F900
G01 X8.0843 Y-9.3015 F900
G01 X13.0140 F900
G01 X12.2942 Y-10.7325 F900
G01 X7.1599 F900
G01 X5.8842 Y-12.1635 F900
G01 X11.3586 F900
G01 X10.1094 Y-13.5945 F900
G01 X3.9995 F900
G01 Y-15.0255 F900
G01 X0.4766 F900
G01 X8.3768 F900
G00 Z3.0000 F480
G00 X0.7247 Y16.4565 F2100
G00 Z-1.0000 F480
G01 Z-3.0000 F180
G01 Y17.8875 F900
G01 X-14.7648 F900
G00 Z3.0000 F480
G00 X-9.9277 Y15.0255 F2100
G00 Z-1.0000 F480
G01 Z-3.0000 F180
G01 X-9.8970 Y14.5552 F900
G03 X-10.1451 Y13.8086 I1.3379 J-0.8591 F900
G01 X-10.1491 Y13.6761 F900
G01 Y-13.6340 F900
G01 X-10.1411 Y-13.7927 F900
G03 X-8.5391 Y-15.2240 I1.5823 J0.1589 F900
G01 X-4.3028 F900
G03 X1.3560 Y-14.4470 I0.3875 J18.1734 F900
G03 X8.2970 Y-8.1609 I-3.3154 J10.6359 F900
G03 X9.7864 Y-1.4789 I-18.0263 J7.5251 F900
G03 X9.0997 Y6.0365 I-22.5012 J1.7332 F900
G03 X4.4797 Y12.9045 I-11.7092 J-2.8886 F900
G03 X-1.4843 Y15.1133 I-7.3064 J-10.5723 F900
G03 X-4.4471 Y15.2861 I-2.8380 J-23.1636 F900
G01 X-8.5591 F900
G03 X-9.8970 Y14.5552 I0.0000 J-1.5900 F900
G01 X-9.9277 Y15.0255 F900
G00 Z3.0000 F480
G00 X-9.9281 Y17.8875 F2100
G00 Z-1.0000 F480
G01 Z-3.0000 F180
G01 Y18.5033 F900
G01 X-3.9658 Y18.5039 F900
G02 X3.2015 Y17.7356 I0.4516 J-29.6051 F900
G02 X8.6147 Y15.3711 I-3.8210 J-16.1260 F900
G02 X13.9905 Y8.1201 I-8.0679 J-11.5996 F900
G02 X15.1086 Y0.5807 I-22.1651 J-7.1399 F900
G02 X14.2298 Y-6.8242 I-28.1305 J-0.4158 F900
G02 X11.3701 Y-12.6698 I-15.6105 J4.0144 F900
G02 X4.7588 Y-17.1952 I-11.0577 J9.0624 F900
G02 X-2.1889 Y-18.4347 I-8.0473 J25.0166 F900
G02 X-4.6800 Y-18.5039 I-2.4527 J43.4217 F900
G01 X-14.2724 Y-18.5037 F900
G02 X-14.9803 Y-18.2794 I-0.0938 J0.9331 F900
G02 X-15.1039 Y-17.6998 I1.4093 J0.6034 F900
G01 X-15.1074 Y-17.6108 F900
G01 X-15.1087 Y-17.4961 F900
G01 Y17.4961 F900
G01 X-15.1075 Y17.6086 F900
G02 X-15.0401 Y18.1212 I2.0104 J-0.0034 F900
G02 X-14.7390 Y18.4208 I0.4121 J-0.1130 F900
G02 X-14.3281 Y18.5029 I0.4250 J-1.0586 F900
G01 X-9.9281 Y18.5033 F900
G01 Y17.8875 F900
G00 Z3.0000 F480
G00 X-14.7658 Y-17.8875 F2100
G00 Z-2.5000 F480
G01 Z-3.2000 F180
G01 X0.2530 F900
G01 Y-16.4565 F900
G01 X5.7821 F900
G01 X-14.7907 F900
G01 Y-15.0255 F900
G01 X-9.8625 F900
G01 X-10.4671 Y-13.5945 F900
G01 X-14.7907 F900
G01 Y-12.1635 F900
G01 X-10.4671 F900
G01 Y-10.7325 F900
G01 X-14.7907 F900
G01 Y-9.3015 F900
G01 X-10.4671 F900
G01 Y-7.8705 F900
G01 X-14.7907 F900
G01 Y-6.4395 F900
G01 X-10.4671 F900
G01 Y-5.0085 F900
G01 X-14.7907 F900
G01 Y-3.5775 F900
G01 X-10.4671 F900
G01 Y-2.1465 F900
G01 X-14.7907 F900
G01 Y-0.7155 F900
G01 X-10.4671 F900
G01 Y0.7155 F900
G01 X-14.7907 F900
G01 Y2.1465 F900
G01 X-10.4671 F900
G01 Y3.5775 F900
G01 X-14.7907 F900
G01 Y5.0085 F900
G01 X-10.4671 F900
G01 Y6.4395 F900
G01 X-14.7907 F900
G01 Y7.8705 F900
G01 X-10.4671 F900
G01 Y9.3015 F900
G01 X-14.7907 F900
G01 Y10.7325 F900
G01 X-10.4671 F900
G01 Y12.1635 F900
G01 X-14.7907 F900
G01 Y13.5945 F900
G01 X-10.4671 F900
G01 X-9.9277 Y15.0255 F900
G01 X-14.7907 F900
G01 Y16.4565 F900
G01 X5.9911 F900
G01 Y15.0255 F900
G01 X8.5527 F900
G01 X0.6555 F900
G01 X4.0041 F900
G01 Y13.5945 F900
G01 X10.2529 F900
G01 X11.5159 Y12.1635 F900
G01 X5.8925 F900
G01 X7.1769 Y10.7325 F900
G01 X12.4643 F900
G01 X13.1876 Y9.3015 F900
G01 X8.1223 F900
G01 X8.8169 Y7.8705 F900
G01 X13.7383 F900
G01 X14.1491 Y6.4395 F900
G01 X9.3173 F900
G01 X9.6798 Y5.0085 F900
G01 X14.4430 F900
G01 X14.6395 Y3.5775 F900
G01 X9.9337 F900
G01 X10.0881 Y2.1465 F900
G01 X14.7506 F900
G01 X14.7897 Y0.7155 F900
G01 X10.1527 F900
G01 X10.1396 Y-0.7155 F900
G01 X14.7676 F900
G01 X14.6879 Y-2.1465 F900
G01 X10.0569 F900
G01 X9.8936 Y-3.5775 F900
G01 X14.5417 F900
G01 X14.3183 Y-5.0085 F900
G01 X9.6360 F900
G01 X9.2652 Y-6.4395 F900
G01 X14.0022 F900
G01 X13.5739 Y-7.8705 F900
G01 X8.7655 F900
G01 X8.0843 Y-9.3015 F900
G01 X13.0140 F900
G01 X12.2942 Y-10.7325 F900
G01 X7.1599 F900
G01 X5.8842 Y-12.1635 F900
G01 X11.3586 F900
G01 X10.1094 Y-13.5945 F900
G01 X3.9995 F900
G01 Y-15.0255 F900
G01 X0.4766 F900
G01 X8.3768 F900
G00 Z3.0000 F480
G00 X0.7247 Y16.4565 F2100
G00 Z-2.5000 F480
G01 Z-3.2000 F180
G01 Y17.8875 F900
G01 X-14.7648 F900
G00 Z3.0000 F480
G00 X-9.9277 Y15.0255 F2100
G00 Z-2.5000 F480
G01 Z-3.2000 F180
G01 X-9.8970 Y14.5552 F900
G03 X-10.1451 Y13.8086 I1.3379 J-0.8591 F900
G01 X-10.1491 Y13.6761 F900
G01 Y-13.6340 F900
G01 X-10.1411 Y-13.7927 F900
G03 X-8.5391 Y-15.2240 I1.5823 J0.1589 F900
G01 X-4.3028 F900
G03 X1.3560 Y-14.4470 I0.3875 J18.1734 F900
G03 X8.2970 Y-8.1609 I-3.3154 J10.6359 F900
G03 X9.7864 Y-1.4789 I-18.0263 J7.5251 F900
G03 X9.0997 Y6.0365 I-22.5012 J1.7332 F900
G03 X4.4797 Y12.9045 I-11.7092 J-2.8886 F900
G03 X-1.4843 Y15.1133 I-7.3064 J-10.5723 F900
G03 X-4.4471 Y15.2861 I-2.8380 J-23.1636 F900
G01 X-8.5591 F900
G03 X-9.8970 Y14.5552 I0.0000 J-1.5900 F900
G01 X-9.9277 Y15.0255 F900
G00 Z3.0000 F480
G00 X-9.9281 Y17.8875 F2100
G00 Z-2.5000 F480
G01 Z-3.2000 F180
G01 Y18.5033 F900
G01 X-3.9658 Y18.5039 F900
G02 X3.2015 Y17.7356 I0.4516 J-29.6051 F900
G02 X8.6147 Y15.3711 I-3.8210 J-16.1260 F900
G02 X13.9905 Y8.1201 I-8.0679 J-11.5996 F900
G02 X15.1086 Y0.5807 I-22.1651 J-7.1399 F900
G02 X14.2298 Y-6.8242 I-28.1305 J-0.4158 F900
G02 X11.3701 Y-12.6698 I-15.6105 J4.0144 F900
G02 X4.7588 Y-17.1952 I-11.0577 J9.0624 F900
G02 X-2.1889 Y-18.4347 I-8.0473 J25.0166 F900
G02 X-4.6800 Y-18.5039 I-2.4527 J43.4217 F900
G01 X-14.2724 Y-18.5037 F900
G02 X-14.9803 Y-18.2794 I-0.0938 J0.9331 F900
G02 X-15.1039 Y-17.6998 I1.4093 J0.6034 F900
G01 X-15.1074 Y-17.6108 F900
G01 X-15.1087 Y-17.4961 F900
G01 Y17.4961 F900
G01 X-15.1075 Y17.6086 F900
G02 X-15.0401 Y18.1212 I2.0104 J-0.0034 F900
G02 X-14.7390 Y18.4208 I0.4121 J-0.1130 F900
G02 X-14.3281 Y18.5029 I0.4250 J-1.0586 F900
G01 X-9.9281 Y18.5033 F900
G01 Y17.8875 F900
G00 Z3.0000 F480


;No. 2: Part 1
G00 X-39.3052 Y-3.1986 Z3.0000 F2100
G00 Z0.5000 F480
G01 Z-1.5000 F180
G03 X39.4311 Y0.5394 I39.3053 J3.1936 F900
G03 X39.0795 Y5.2932 I-37.1029 J-0.3545 F900
G03 X-39.4052 Y1.5671 I-39.0797 J-5.2894 F900
G01 X-39.4187 Y1.2896 F900
G01 X-39.4398 Y0.0255 F900
G01 X-39.4203 Y-1.2386 F900
G01 X-39.3604 Y-2.5015 F900
G01 X-39.3555 Y-2.5723 F900
G01 X-39.3052 Y-3.1986 F900
G01 Z-3.0000 F180
G03 X39.4311 Y0.5394 I39.3053 J3.1936 F900
G03 X39.0795 Y5.2932 I-37.1029 J-0.3545 F900
G03 X-39.4052 Y1.5671 I-39.0797 J-5.2894 F900
G01 X-39.4187 Y1.2896 F900
G01 X-39.4398 Y0.0255 F900
G01 X-39.4203 Y-1.2386 F900
G01 X-39.3604 Y-2.5015 F900
G01 X-39.3555 Y-2.5723 F900
G01 X-39.3052 Y-3.1986 F900
G01 Z-4.5000 F180
G03 X39.4311 Y0.5394 I39.3053 J3.1936 F900
G00 Z-4.2800 F480
G03 X39.0795 Y5.2932 I-37.1029 J-0.3545 F900
G01 Z-4.5000 F180
G03 X-39.4052 Y1.5671 I-39.0797 J-5.2894 F900
G00 Z-4.2800 F480
G01 X-39.4187 Y1.2896 F900
G01 X-39.4398 Y0.0255 F900
G01 X-39.4203 Y-1.2386 F900
G01 X-39.3604 Y-2.5015 F900
G01 X-39.3555 Y-2.5723 F900
G01 X-39.3052 Y-3.1986 F900
G01 Z-6.0000 F180
G03 X39.4311 Y0.5394 I39.3053 J3.1936 F900
G00 Z-4.2800 F480
G03 X39.0795 Y5.2932 I-37.1029 J-0.3545 F900
G01 Z-6.0000 F180
G03 X-39.4052 Y1.5671 I-39.0797 J-5.2894 F900
G00 Z-4.2800 F480
G01 X-39.4187 Y1.2896 F900
G01 X-39.4398 Y0.0255 F900
G01 X-39.4203 Y-1.2386 F900
G01 X-39.3604 Y-2.5015 F900
G01 X-39.3555 Y-2.5723 F900
G01 X-39.3052 Y-3.1986 F900
G00 Z-5.5000 F480
G01 Z-6.2800 F180
G03 X39.4311 Y0.5394 I39.3053 J3.1936 F900
G00 Z-4.2800 F480
G03 X39.0795 Y5.2932 I-37.1029 J-0.3545 F900
G00 Z-5.5000 F480
G01 Z-6.2800 F180
G03 X-39.4052 Y1.5671 I-39.0797 J-5.2894 F900
G00 Z-4.2800 F480
G01 X-39.4187 Y1.2896 F900
G01 X-39.4398 Y0.0255 F900
G01 X-39.4203 Y-1.2386 F900
G01 X-39.3604 Y-2.5015 F900
G01 X-39.3555 Y-2.5723 F900
G01 X-39.3052 Y-3.1986 F900
G00 Z3.0000 F480
G00 X0.0000 Y0.0000 F2100

M05
