;Project circle-t
;Created by Estlcam version 11 build 11.042
;Machining time about 00:01:55 hours

G90
M03 S24000
G00 X0.0000 Y0.0000 Z0.0000 F2100
G00 Z3.0000 F480


;No. 1: Hole 1
G00 X34.5117 Y19.3780 F2100
G00 Z0.5000 F480
G01 Z-1.5000 F180 S24000
G01 X34.5074 Y19.3931 F900
G01 Y51.2653 F900
G03 X32.9174 Y52.8753 I-1.5901 J0.0198 F900
G01 X23.3699 F900
G01 X23.3485 Y52.8877 F900
G02 X23.2423 Y53.8334 I4.7658 J1.0136 F900
G01 X23.2333 Y54.1262 F900
G01 X23.2287 Y54.4420 F900
G01 Y54.7809 F900
G02 X23.2597 Y55.7462 I16.4841 J-0.0475 F900
G02 X23.3381 Y56.3297 I3.5433 J-0.1787 F900
G01 X23.3438 Y56.3551 F900
G01 X23.3499 Y56.3725 F900
G01 X50.6682 F900
G01 X50.6801 Y56.3718 F900
G02 X50.6682 Y52.8753 I-11.1807 J-1.7102 F900
G01 X41.1406 F900
G03 X39.5306 Y51.2853 I-0.0198 J-1.5901 F900
G01 Y19.3931 F900
G01 X39.5289 Y19.3794 F900
G02 X36.2876 Y19.1893 I-2.4198 J13.5295 F900
G02 X34.5117 Y19.3780 I0.0639 J9.0540 F900
G01 Z-3.0000 F180
G01 X34.5074 Y19.3931 F900
G01 Y51.2653 F900
G03 X32.9174 Y52.8753 I-1.5901 J0.0198 F900
G01 X23.3699 F900
G01 X23.3485 Y52.8877 F900
G02 X23.2423 Y53.8334 I4.7658 J1.0136 F900
G01 X23.2333 Y54.1262 F900
G01 X23.2287 Y54.4420 F900
G01 Y54.7809 F900
G02 X23.2597 Y55.7462 I16.4841 J-0.0475 F900
G02 X23.3381 Y56.3297 I3.5433 J-0.1787 F900
G01 X23.3438 Y56.3551 F900
G01 X23.3499 Y56.3725 F900
G01 X50.6682 F900
G01 X50.6801 Y56.3718 F900
G02 X50.6682 Y52.8753 I-11.1807 J-1.7102 F900
G01 X41.1406 F900
G03 X39.5306 Y51.2853 I-0.0198 J-1.5901 F900
G01 Y19.3931 F900
G01 X39.5289 Y19.3794 F900
G02 X36.2876 Y19.1893 I-2.4198 J13.5295 F900
G02 X34.5117 Y19.3780 I0.0639 J9.0540 F900
G01 Z-3.2000 F180
G01 X34.5074 Y19.3931 F900
G01 Y51.2653 F900
G03 X32.9174 Y52.8753 I-1.5901 J0.0198 F900
G01 X23.3699 F900
G01 X23.3485 Y52.8877 F900
G02 X23.2423 Y53.8334 I4.7658 J1.0136 F900
G01 X23.2333 Y54.1262 F900
G01 X23.2287 Y54.4420 F900
G01 Y54.7809 F900
G02 X23.2597 Y55.7462 I16.4841 J-0.0475 F900
G02 X23.3381 Y56.3297 I3.5433 J-0.1787 F900
G01 X23.3438 Y56.3551 F900
G01 X23.3499 Y56.3725 F900
G01 X50.6682 F900
G01 X50.6801 Y56.3718 F900
G02 X50.6682 Y52.8753 I-11.1807 J-1.7102 F900
G01 X41.1406 F900
G03 X39.5306 Y51.2853 I-0.0198 J-1.5901 F900
G01 Y19.3931 F900
G01 X39.5289 Y19.3794 F900
G02 X36.2876 Y19.1893 I-2.4198 J13.5295 F900
G02 X34.5117 Y19.3780 I0.0639 J9.0540 F900
G00 Z3.0000 F480


;No. 2: Part 1
G00 X0.7965 Y24.3436 Z3.0000 F2100
G00 Z0.5000 F480
G01 Z-1.5000 F180
G01 X0.8282 Y24.2528 F900
G03 X76.3639 Y46.3294 I37.0206 J13.5950 F900
G01 X76.3066 Y46.6013 F900
G03 X75.0581 Y50.9138 I-36.8197 J-8.3232 F900
G01 X74.8718 Y51.4472 F900
G01 X74.8470 Y51.5137 F900
G03 X-1.5898 Y37.8755 I-36.9972 J-13.6636 F900
G01 X-1.5703 Y36.6114 F900
G01 X-1.5104 Y35.3485 F900
G01 X-1.5055 Y35.2777 F900
G03 X-0.5613 Y28.9133 I38.4904 J2.4582 F900
G01 X-0.3064 Y27.8706 F900
G01 X0.0331 Y26.6527 F900
G01 X0.0536 Y26.5848 F900
G01 X0.4114 Y25.4464 F900
G01 X0.7965 Y24.3436 F900
G01 Z-3.0000 F180
G01 X0.8282 Y24.2528 F900
G03 X76.3639 Y46.3294 I37.0206 J13.5950 F900
G01 X76.3066 Y46.6013 F900
G03 X75.0581 Y50.9138 I-36.8197 J-8.3232 F900
G01 X74.8718 Y51.4472 F900
G01 X74.8470 Y51.5137 F900
G03 X-1.5898 Y37.8755 I-36.9972 J-13.6636 F900
G01 X-1.5703 Y36.6114 F900
G01 X-1.5104 Y35.3485 F900
G01 X-1.5055 Y35.2777 F900
G03 X-0.5613 Y28.9133 I38.4904 J2.4582 F900
G01 X-0.3064 Y27.8706 F900
G01 X0.0331 Y26.6527 F900
G01 X0.0536 Y26.5848 F900
G01 X0.4114 Y25.4464 F900
G01 X0.7965 Y24.3436 F900
G01 Z-4.5000 F180
G01 X0.8282 Y24.2528 F900
G03 X76.3639 Y46.3294 I37.0206 J13.5950 F900
G01 X76.3066 Y46.6013 F900
G03 X75.0581 Y50.9138 I-36.8197 J-8.3232 F900
G01 X74.8718 Y51.4472 F900
G01 X74.8470 Y51.5137 F900
G03 X-1.5898 Y37.8755 I-36.9972 J-13.6636 F900
G01 X-1.5703 Y36.6114 F900
G01 X-1.5104 Y35.3485 F900
G01 X-1.5055 Y35.2777 F900
G03 X-0.5613 Y28.9133 I38.4904 J2.4582 F900
G01 X-0.3064 Y27.8706 F900
G01 X0.0331 Y26.6527 F900
G01 X0.0536 Y26.5848 F900
G01 X0.4114 Y25.4464 F900
G01 X0.7965 Y24.3436 F900
G01 Z-6.0000 F180
G01 X0.8282 Y24.2528 F900
G03 X76.3639 Y46.3294 I37.0206 J13.5950 F900
G00 Z-4.5000 F480
G01 X76.3066 Y46.6013 F900
G03 X75.0581 Y50.9138 I-36.8197 J-8.3232 F900
G01 Z-6.0000 F180
G01 X74.8718 Y51.4472 F900
G01 X74.8470 Y51.5137 F900
G03 X-1.5898 Y37.8755 I-36.9972 J-13.6636 F900
G01 X-1.5703 Y36.6114 F900
G01 X-1.5104 Y35.3485 F900
G01 X-1.5055 Y35.2777 F900
G03 X-0.5613 Y28.9133 I38.4904 J2.4582 F900
G00 Z-4.5000 F480
G01 X-0.3064 Y27.8706 F900
G01 X0.0331 Y26.6527 F900
G01 X0.0536 Y26.5848 F900
G01 X0.4114 Y25.4464 F900
G01 X0.7965 Y24.3436 F900
G00 Z-5.5000 F480
G01 Z-6.5000 F180
G01 X0.8282 Y24.2528 F900
G03 X76.3639 Y46.3294 I37.0206 J13.5950 F900
G00 Z-4.5000 F480
G01 X76.3066 Y46.6013 F900
G03 X75.0581 Y50.9138 I-36.8197 J-8.3232 F900
G00 Z-5.5000 F480
G01 Z-6.5000 F180
G01 X74.8718 Y51.4472 F900
G01 X74.8470 Y51.5137 F900
G03 X-1.5898 Y37.8755 I-36.9972 J-13.6636 F900
G01 X-1.5703 Y36.6114 F900
G01 X-1.5104 Y35.3485 F900
G01 X-1.5055 Y35.2777 F900
G03 X-0.5613 Y28.9133 I38.4904 J2.4582 F900
G00 Z-4.5000 F480
G01 X-0.3064 Y27.8706 F900
G01 X0.0331 Y26.6527 F900
G01 X0.0536 Y26.5848 F900
G01 X0.4114 Y25.4464 F900
G01 X0.7965 Y24.3436 F900
G00 Z3.0000 F480
G00 X0.0000 Y0.0000 F2100

M05
