;Project circle-d
;Created by Estlcam version 11 build 11.042
;Machining time about 00:04:01 hours

G90
M03 S24000
G00 X0.0000 Y0.0000 Z0.0000 F2100
G00 Z3.0000 F480


;No. 1: Hole 7
G00 X23.0842 Y19.9625 F2100
G00 Z0.5000 F480
G01 Z-1.5000 F180 S24000
G01 X38.1030 F900
G01 Y21.3935 F900
G01 X43.6321 F900
G01 X23.0593 F900
G01 Y22.8245 F900
G01 X27.9875 F900
G01 X27.3829 Y24.2555 F900
G01 X23.0593 F900
G01 Y25.6865 F900
G01 X27.3829 F900
G01 Y27.1175 F900
G01 X23.0593 F900
G01 Y28.5485 F900
G01 X27.3829 F900
G01 Y29.9795 F900
G01 X23.0593 F900
G01 Y31.4105 F900
G01 X27.3829 F900
G01 Y32.8415 F900
G01 X23.0593 F900
G01 Y34.2725 F900
G01 X27.3829 F900
G01 Y35.7035 F900
G01 X23.0593 F900
G01 Y37.1345 F900
G01 X27.3829 F900
G01 Y38.5655 F900
G01 X23.0593 F900
G01 Y39.9965 F900
G01 X27.3829 F900
G01 Y41.4275 F900
G01 X23.0593 F900
G01 Y42.8585 F900
G01 X27.3829 F900
G01 Y44.2895 F900
G01 X23.0593 F900
G01 Y45.7205 F900
G01 X27.3829 F900
G01 Y47.1515 F900
G01 X23.0593 F900
G01 Y48.5825 F900
G01 X27.3829 F900
G01 Y50.0135 F900
G01 X23.0593 F900
G01 Y51.4445 F900
G01 X27.3829 F900
G01 X27.9223 Y52.8755 F900
G01 X23.0593 F900
G01 Y54.3065 F900
G01 X43.8411 F900
G01 Y52.8755 F900
G01 X46.4027 F900
G01 X38.5055 F900
G01 X41.8541 F900
G01 Y51.4445 F900
G01 X48.1029 F900
G01 X49.3659 Y50.0135 F900
G01 X43.7425 F900
G01 X45.0269 Y48.5825 F900
G01 X50.3143 F900
G01 X51.0376 Y47.1515 F900
G01 X45.9723 F900
G01 X46.6669 Y45.7205 F900
G01 X51.5883 F900
G01 X51.9991 Y44.2895 F900
G01 X47.1673 F900
G01 X47.5298 Y42.8585 F900
G01 X52.2930 F900
G01 X52.4895 Y41.4275 F900
G01 X47.7837 F900
G01 X47.9381 Y39.9965 F900
G01 X52.6006 F900
G01 X52.6397 Y38.5655 F900
G01 X48.0027 F900
G01 X47.9896 Y37.1345 F900
G01 X52.6176 F900
G01 X52.5379 Y35.7035 F900
G01 X47.9069 F900
G01 X47.7436 Y34.2725 F900
G01 X52.3917 F900
G01 X52.1683 Y32.8415 F900
G01 X47.4860 F900
G01 X47.1152 Y31.4105 F900
G01 X51.8522 F900
G01 X51.4239 Y29.9795 F900
G01 X46.6155 F900
G01 X45.9343 Y28.5485 F900
G01 X50.8640 F900
G01 X50.1442 Y27.1175 F900
G01 X45.0099 F900
G01 X43.7342 Y25.6865 F900
G01 X49.2086 F900
G01 X47.9594 Y24.2555 F900
G01 X41.8495 F900
G01 Y22.8245 F900
G01 X38.3266 F900
G01 X46.2268 F900
G00 Z3.0000 F480
G00 X38.5747 Y54.3065 F2100
G00 Z0.5000 F480
G01 Z-1.5000 F180
G01 Y55.7375 F900
G01 X23.0851 F900
G00 Z3.0000 F480
G00 X27.9223 Y52.8755 F2100
G00 Z0.5000 F480
G01 Z-1.5000 F180
G01 X27.9530 Y52.4052 F900
G03 X27.7049 Y51.6586 I1.3379 J-0.8591 F900
G01 X27.7009 Y51.5261 F900
G01 Y24.2160 F900
G01 X27.7089 Y24.0573 F900
G03 X29.3109 Y22.6260 I1.5823 J0.1589 F900
G01 X33.5472 F900
G03 X39.2060 Y23.4030 I0.3875 J18.1734 F900
G03 X46.1470 Y29.6891 I-3.3154 J10.6359 F900
G03 X47.6364 Y36.3711 I-18.0263 J7.5251 F900
G03 X46.9497 Y43.8865 I-22.5012 J1.7332 F900
G03 X42.3297 Y50.7545 I-11.7092 J-2.8886 F900
G03 X36.3657 Y52.9633 I-7.3064 J-10.5723 F900
G03 X33.4029 Y53.1361 I-2.8380 J-23.1636 F900
G01 X29.2909 F900
G03 X27.9530 Y52.4052 I0.0000 J-1.5900 F900
G01 X27.9223 Y52.8755 F900
G00 Z3.0000 F480
G00 X27.9219 Y55.7375 F2100
G00 Z0.5000 F480
G01 Z-1.5000 F180
G01 Y56.3533 F900
G01 X33.8842 Y56.3539 F900
G02 X41.0515 Y55.5856 I0.4516 J-29.6051 F900
G02 X46.4647 Y53.2211 I-3.8210 J-16.1260 F900
G02 X51.8404 Y45.9701 I-8.0679 J-11.5996 F900
G02 X52.9586 Y38.4307 I-22.1651 J-7.1399 F900
G02 X52.0798 Y31.0258 I-28.1305 J-0.4158 F900
G02 X49.2201 Y25.1802 I-15.6105 J4.0144 F900
G02 X42.6088 Y20.6548 I-11.0577 J9.0624 F900
G02 X35.6611 Y19.4153 I-8.0473 J25.0166 F900
G02 X33.1700 Y19.3461 I-2.4527 J43.4217 F900
G01 X23.5776 Y19.3463 F900
G02 X22.8697 Y19.5706 I-0.0938 J0.9331 F900
G02 X22.7461 Y20.1502 I1.4093 J0.6034 F900
G01 X22.7426 Y20.2392 F900
G01 X22.7413 Y20.3539 F900
G01 Y55.3461 F900
G01 X22.7425 Y55.4586 F900
G02 X22.8099 Y55.9712 I2.0104 J-0.0034 F900
G02 X23.1110 Y56.2708 I0.4121 J-0.1130 F900
G02 X23.5219 Y56.3529 I0.4250 J-1.0586 F900
G01 X27.9219 Y56.3533 F900
G01 Y55.7375 F900
G00 Z3.0000 F480
G00 X23.0842 Y19.9625 F2100
G00 Z-1.0000 F480
G01 Z-3.0000 F180
G01 X38.1030 F900
G01 Y21.3935 F900
G01 X43.6321 F900
G01 X23.0593 F900
G01 Y22.8245 F900
G01 X27.9875 F900
G01 X27.3829 Y24.2555 F900
G01 X23.0593 F900
G01 Y25.6865 F900
G01 X27.3829 F900
G01 Y27.1175 F900
G01 X23.0593 F900
G01 Y28.5485 F900
G01 X27.3829 F900
G01 Y29.9795 F900
G01 X23.0593 F900
G01 Y31.4105 F900
G01 X27.3829 F900
G01 Y32.8415 F900
G01 X23.0593 F900
G01 Y34.2725 F900
G01 X27.3829 F900
G01 Y35.7035 F900
G01 X23.0593 F900
G01 Y37.1345 F900
G01 X27.3829 F900
G01 Y38.5655 F900
G01 X23.0593 F900
G01 Y39.9965 F900
G01 X27.3829 F900
G01 Y41.4275 F900
G01 X23.0593 F900
G01 Y42.8585 F900
G01 X27.3829 F900
G01 Y44.2895 F900
G01 X23.0593 F900
G01 Y45.7205 F900
G01 X27.3829 F900
G01 Y47.1515 F900
G01 X23.0593 F900
G01 Y48.5825 F900
G01 X27.3829 F900
G01 Y50.0135 F900
G01 X23.0593 F900
G01 Y51.4445 F900
G01 X27.3829 F900
G01 X27.9223 Y52.8755 F900
G01 X23.0593 F900
G01 Y54.3065 F900
G01 X43.8411 F900
G01 Y52.8755 F900
G01 X46.4027 F900
G01 X38.5055 F900
G01 X41.8541 F900
G01 Y51.4445 F900
G01 X48.1029 F900
G01 X49.3659 Y50.0135 F900
G01 X43.7425 F900
G01 X45.0269 Y48.5825 F900
G01 X50.3143 F900
G01 X51.0376 Y47.1515 F900
G01 X45.9723 F900
G01 X46.6669 Y45.7205 F900
G01 X51.5883 F900
G01 X51.9991 Y44.2895 F900
G01 X47.1673 F900
G01 X47.5298 Y42.8585 F900
G01 X52.2930 F900
G01 X52.4895 Y41.4275 F900
G01 X47.7837 F900
G01 X47.9381 Y39.9965 F900
G01 X52.6006 F900
G01 X52.6397 Y38.5655 F900
G01 X48.0027 F900
G01 X47.9896 Y37.1345 F900
G01 X52.6176 F900
G01 X52.5379 Y35.7035 F900
G01 X47.9069 F900
G01 X47.7436 Y34.2725 F900
G01 X52.3917 F900
G01 X52.1683 Y32.8415 F900
G01 X47.4860 F900
G01 X47.1152 Y31.4105 F900
G01 X51.8522 F900
G01 X51.4239 Y29.9795 F900
G01 X46.6155 F900
G01 X45.9343 Y28.5485 F900
G01 X50.8640 F900
G01 X50.1442 Y27.1175 F900
G01 X45.0099 F900
G01 X43.7342 Y25.6865 F900
G01 X49.2086 F900
G01 X47.9594 Y24.2555 F900
G01 X41.8495 F900
G01 Y22.8245 F900
G01 X38.3266 F900
G01 X46.2268 F900
G00 Z3.0000 F480
G00 X38.5747 Y54.3065 F2100
G00 Z-1.0000 F480
G01 Z-3.0000 F180
G01 Y55.7375 F900
G01 X23.0851 F900
G00 Z3.0000 F480
G00 X27.9223 Y52.8755 F2100
G00 Z-1.0000 F480
G01 Z-3.0000 F180
G01 X27.9530 Y52.4052 F900
G03 X27.7049 Y51.6586 I1.3379 J-0.8591 F900
G01 X27.7009 Y51.5261 F900
G01 Y24.2160 F900
G01 X27.7089 Y24.0573 F900
G03 X29.3109 Y22.6260 I1.5823 J0.1589 F900
G01 X33.5472 F900
G03 X39.2060 Y23.4030 I0.3875 J18.1734 F900
G03 X46.1470 Y29.6891 I-3.3154 J10.6359 F900
G03 X47.6364 Y36.3711 I-18.0263 J7.5251 F900
G03 X46.9497 Y43.8865 I-22.5012 J1.7332 F900
G03 X42.3297 Y50.7545 I-11.7092 J-2.8886 F900
G03 X36.3657 Y52.9633 I-7.3064 J-10.5723 F900
G03 X33.4029 Y53.1361 I-2.8380 J-23.1636 F900
G01 X29.2909 F900
G03 X27.9530 Y52.4052 I0.0000 J-1.5900 F900
G01 X27.9223 Y52.8755 F900
G00 Z3.0000 F480
G00 X27.9219 Y55.7375 F2100
G00 Z-1.0000 F480
G01 Z-3.0000 F180
G01 Y56.3533 F900
G01 X33.8842 Y56.3539 F900
G02 X41.0515 Y55.5856 I0.4516 J-29.6051 F900
G02 X46.4647 Y53.2211 I-3.8210 J-16.1260 F900
G02 X51.8404 Y45.9701 I-8.0679 J-11.5996 F900
G02 X52.9586 Y38.4307 I-22.1651 J-7.1399 F900
G02 X52.0798 Y31.0258 I-28.1305 J-0.4158 F900
G02 X49.2201 Y25.1802 I-15.6105 J4.0144 F900
G02 X42.6088 Y20.6548 I-11.0577 J9.0624 F900
G02 X35.6611 Y19.4153 I-8.0473 J25.0166 F900
G02 X33.1700 Y19.3461 I-2.4527 J43.4217 F900
G01 X23.5776 Y19.3463 F900
G02 X22.8697 Y19.5706 I-0.0938 J0.9331 F900
G02 X22.7461 Y20.1502 I1.4093 J0.6034 F900
G01 X22.7426 Y20.2392 F900
G01 X22.7413 Y20.3539 F900
G01 Y55.3461 F900
G01 X22.7425 Y55.4586 F900
G02 X22.8099 Y55.9712 I2.0104 J-0.0034 F900
G02 X23.1110 Y56.2708 I0.4121 J-0.1130 F900
G02 X23.5219 Y56.3529 I0.4250 J-1.0586 F900
G01 X27.9219 Y56.3533 F900
G01 Y55.7375 F900
G00 Z3.0000 F480
G00 X23.0842 Y19.9625 F2100
G00 Z-2.5000 F480
G01 Z-3.2000 F180
G01 X38.1030 F900
G01 Y21.3935 F900
G01 X43.6321 F900
G01 X23.0593 F900
G01 Y22.8245 F900
G01 X27.9875 F900
G01 X27.3829 Y24.2555 F900
G01 X23.0593 F900
G01 Y25.6865 F900
G01 X27.3829 F900
G01 Y27.1175 F900
G01 X23.0593 F900
G01 Y28.5485 F900
G01 X27.3829 F900
G01 Y29.9795 F900
G01 X23.0593 F900
G01 Y31.4105 F900
G01 X27.3829 F900
G01 Y32.8415 F900
G01 X23.0593 F900
G01 Y34.2725 F900
G01 X27.3829 F900
G01 Y35.7035 F900
G01 X23.0593 F900
G01 Y37.1345 F900
G01 X27.3829 F900
G01 Y38.5655 F900
G01 X23.0593 F900
G01 Y39.9965 F900
G01 X27.3829 F900
G01 Y41.4275 F900
G01 X23.0593 F900
G01 Y42.8585 F900
G01 X27.3829 F900
G01 Y44.2895 F900
G01 X23.0593 F900
G01 Y45.7205 F900
G01 X27.3829 F900
G01 Y47.1515 F900
G01 X23.0593 F900
G01 Y48.5825 F900
G01 X27.3829 F900
G01 Y50.0135 F900
G01 X23.0593 F900
G01 Y51.4445 F900
G01 X27.3829 F900
G01 X27.9223 Y52.8755 F900
G01 X23.0593 F900
G01 Y54.3065 F900
G01 X43.8411 F900
G01 Y52.8755 F900
G01 X46.4027 F900
G01 X38.5055 F900
G01 X41.8541 F900
G01 Y51.4445 F900
G01 X48.1029 F900
G01 X49.3659 Y50.0135 F900
G01 X43.7425 F900
G01 X45.0269 Y48.5825 F900
G01 X50.3143 F900
G01 X51.0376 Y47.1515 F900
G01 X45.9723 F900
G01 X46.6669 Y45.7205 F900
G01 X51.5883 F900
G01 X51.9991 Y44.2895 F900
G01 X47.1673 F900
G01 X47.5298 Y42.8585 F900
G01 X52.2930 F900
G01 X52.4895 Y41.4275 F900
G01 X47.7837 F900
G01 X47.9381 Y39.9965 F900
G01 X52.6006 F900
G01 X52.6397 Y38.5655 F900
G01 X48.0027 F900
G01 X47.9896 Y37.1345 F900
G01 X52.6176 F900
G01 X52.5379 Y35.7035 F900
G01 X47.9069 F900
G01 X47.7436 Y34.2725 F900
G01 X52.3917 F900
G01 X52.1683 Y32.8415 F900
G01 X47.4860 F900
G01 X47.1152 Y31.4105 F900
G01 X51.8522 F900
G01 X51.4239 Y29.9795 F900
G01 X46.6155 F900
G01 X45.9343 Y28.5485 F900
G01 X50.8640 F900
G01 X50.1442 Y27.1175 F900
G01 X45.0099 F900
G01 X43.7342 Y25.6865 F900
G01 X49.2086 F900
G01 X47.9594 Y24.2555 F900
G01 X41.8495 F900
G01 Y22.8245 F900
G01 X38.3266 F900
G01 X46.2268 F900
G00 Z3.0000 F480
G00 X38.5747 Y54.3065 F2100
G00 Z-2.5000 F480
G01 Z-3.2000 F180
G01 Y55.7375 F900
G01 X23.0851 F900
G00 Z3.0000 F480
G00 X27.9223 Y52.8755 F2100
G00 Z-2.5000 F480
G01 Z-3.2000 F180
G01 X27.9530 Y52.4052 F900
G03 X27.7049 Y51.6586 I1.3379 J-0.8591 F900
G01 X27.7009 Y51.5261 F900
G01 Y24.2160 F900
G01 X27.7089 Y24.0573 F900
G03 X29.3109 Y22.6260 I1.5823 J0.1589 F900
G01 X33.5472 F900
G03 X39.2060 Y23.4030 I0.3875 J18.1734 F900
G03 X46.1470 Y29.6891 I-3.3154 J10.6359 F900
G03 X47.6364 Y36.3711 I-18.0263 J7.5251 F900
G03 X46.9497 Y43.8865 I-22.5012 J1.7332 F900
G03 X42.3297 Y50.7545 I-11.7092 J-2.8886 F900
G03 X36.3657 Y52.9633 I-7.3064 J-10.5723 F900
G03 X33.4029 Y53.1361 I-2.8380 J-23.1636 F900
G01 X29.2909 F900
G03 X27.9530 Y52.4052 I0.0000 J-1.5900 F900
G01 X27.9223 Y52.8755 F900
G00 Z3.0000 F480
G00 X27.9219 Y55.7375 F2100
G00 Z-2.5000 F480
G01 Z-3.2000 F180
G01 Y56.3533 F900
G01 X33.8842 Y56.3539 F900
G02 X41.0515 Y55.5856 I0.4516 J-29.6051 F900
G02 X46.4647 Y53.2211 I-3.8210 J-16.1260 F900
G02 X51.8404 Y45.9701 I-8.0679 J-11.5996 F900
G02 X52.9586 Y38.4307 I-22.1651 J-7.1399 F900
G02 X52.0798 Y31.0258 I-28.1305 J-0.4158 F900
G02 X49.2201 Y25.1802 I-15.6105 J4.0144 F900
G02 X42.6088 Y20.6548 I-11.0577 J9.0624 F900
G02 X35.6611 Y19.4153 I-8.0473 J25.0166 F900
G02 X33.1700 Y19.3461 I-2.4527 J43.4217 F900
G01 X23.5776 Y19.3463 F900
G02 X22.8697 Y19.5706 I-0.0938 J0.9331 F900
G02 X22.7461 Y20.1502 I1.4093 J0.6034 F900
G01 X22.7426 Y20.2392 F900
G01 X22.7413 Y20.3539 F900
G01 Y55.3461 F900
G01 X22.7425 Y55.4586 F900
G02 X22.8099 Y55.9712 I2.0104 J-0.0034 F900
G02 X23.1110 Y56.2708 I0.4121 J-0.1130 F900
G02 X23.5219 Y56.3529 I0.4250 J-1.0586 F900
G01 X27.9219 Y56.3533 F900
G01 Y55.7375 F900
G00 Z3.0000 F480


;No. 2: Part 1
G00 X-1.4552 Y34.6514 Z3.0000 F2100
G00 Z0.5000 F480
G01 Z-1.5000 F180
G03 X77.2811 Y38.3894 I39.3053 J3.1936 F900
G03 X76.9295 Y43.1432 I-37.1029 J-0.3545 F900
G03 X-1.5552 Y39.4171 I-39.0797 J-5.2894 F900
G01 X-1.5687 Y39.1396 F900
G01 X-1.5898 Y37.8755 F900
G01 X-1.5703 Y36.6114 F900
G01 X-1.5104 Y35.3485 F900
G01 X-1.5055 Y35.2777 F900
G01 X-1.4552 Y34.6514 F900
G01 Z-3.0000 F180
G03 X77.2811 Y38.3894 I39.3053 J3.1936 F900
G03 X76.9295 Y43.1432 I-37.1029 J-0.3545 F900
G03 X-1.5552 Y39.4171 I-39.0797 J-5.2894 F900
G01 X-1.5687 Y39.1396 F900
G01 X-1.5898 Y37.8755 F900
G01 X-1.5703 Y36.6114 F900
G01 X-1.5104 Y35.3485 F900
G01 X-1.5055 Y35.2777 F900
G01 X-1.4552 Y34.6514 F900
G01 Z-4.5000 F180
G03 X77.2811 Y38.3894 I39.3053 J3.1936 F900
G03 X76.9295 Y43.1432 I-37.1029 J-0.3545 F900
G03 X-1.5552 Y39.4171 I-39.0797 J-5.2894 F900
G01 X-1.5687 Y39.1396 F900
G01 X-1.5898 Y37.8755 F900
G01 X-1.5703 Y36.6114 F900
G01 X-1.5104 Y35.3485 F900
G01 X-1.5055 Y35.2777 F900
G01 X-1.4552 Y34.6514 F900
G01 Z-6.0000 F180
G03 X77.2811 Y38.3894 I39.3053 J3.1936 F900
G00 Z-4.5000 F480
G03 X76.9295 Y43.1432 I-37.1029 J-0.3545 F900
G01 Z-6.0000 F180
G03 X-1.5552 Y39.4171 I-39.0797 J-5.2894 F900
G00 Z-4.5000 F480
G01 X-1.5687 Y39.1396 F900
G01 X-1.5898 Y37.8755 F900
G01 X-1.5703 Y36.6114 F900
G01 X-1.5104 Y35.3485 F900
G01 X-1.5055 Y35.2777 F900
G01 X-1.4552 Y34.6514 F900
G00 Z-5.5000 F480
G01 Z-6.5000 F180
G03 X77.2811 Y38.3894 I39.3053 J3.1936 F900
G00 Z-4.5000 F480
G03 X76.9295 Y43.1432 I-37.1029 J-0.3545 F900
G00 Z-5.5000 F480
G01 Z-6.5000 F180
G03 X-1.5552 Y39.4171 I-39.0797 J-5.2894 F900
G00 Z-4.5000 F480
G01 X-1.5687 Y39.1396 F900
G01 X-1.5898 Y37.8755 F900
G01 X-1.5703 Y36.6114 F900
G01 X-1.5104 Y35.3485 F900
G01 X-1.5055 Y35.2777 F900
G01 X-1.4552 Y34.6514 F900
G00 Z3.0000 F480
G00 X0.0000 Y0.0000 F2100

M05
