;Project circle-c
;Created by Estlcam version 11 build 11.042
;Machining time about 00:01:58 hours

G90
M03 S24000
G00 X0.0000 Y0.0000 Z0.0000 F2100
G00 Z3.0000 F480


;No. 1: Hole 1
G00 X28.3426 Y23.4712 F2100
G00 Z-2.7000 F480
G01 Z-4.7000 F180 S24000
G02 X25.0933 Y29.7145 I12.4313 J10.4370 F900
G02 X24.1522 Y36.8321 I26.4657 J7.1203 F900
G01 X24.1491 Y37.3119 F900
G01 X24.1525 Y37.8192 F900
G02 X25.1905 Y45.1611 I26.5826 J-0.0141 F900
G02 X28.7078 Y51.7840 I17.2146 J-4.8971 F900
G02 X37.1875 Y56.6153 I11.2133 J-9.8238 F900
G02 X45.1291 Y56.5492 I3.8198 J-18.1753 F900
G02 X49.0948 Y55.0533 I-3.1697 J-14.4074 F900
G02 X49.6600 Y54.6977 I-3.6167 J-6.3765 F900
G02 X50.3634 Y54.0316 I-2.0609 J-2.8807 F900
G02 X50.4265 Y53.8161 I-1.4661 J-0.5462 F900
G02 X50.5216 Y50.2295 I-15.0259 J-2.1930 F900
G03 X46.2764 Y52.5076 I-10.2459 J-13.9991 F900
G03 X40.4534 Y53.2744 I-4.6045 J-12.4721 F900
G03 X32.4667 Y48.4383 I0.8808 J-10.4676 F900
G03 X30.1506 Y42.2184 I13.7766 J-8.6713 F900
G03 X29.7960 Y38.0866 I25.7494 J-4.2908 F900
G01 X29.7943 Y37.7488 F900
G01 X29.7962 Y37.3806 F900
G03 X30.3509 Y32.0558 I25.9512 J0.0121 F900
G03 X32.9597 Y26.3352 I13.7894 J2.8333 F900
G03 X39.7086 Y22.5842 I7.9793 J6.4095 F900
G03 X45.8243 Y22.9571 I2.1368 J15.2917 F900
G03 X50.6695 Y25.2574 I-5.9378 J18.7598 F900
G02 X50.5675 Y21.9590 I-14.2838 J-1.2091 F900
G02 X49.8597 Y21.1214 I-1.3120 J0.3908 F900
G02 X44.6235 Y19.1098 I-7.9404 J12.8480 F900
G02 X34.8355 Y19.4474 I-4.1807 J20.8504 F900
G02 X28.3426 Y23.4712 I3.5461 J12.9727 F900
G01 Z-6.2000 F180
G02 X25.0933 Y29.7145 I12.4313 J10.4370 F900
G02 X24.1522 Y36.8321 I26.4657 J7.1203 F900
G01 X24.1491 Y37.3119 F900
G01 X24.1525 Y37.8192 F900
G02 X25.1905 Y45.1611 I26.5826 J-0.0141 F900
G02 X28.7078 Y51.7840 I17.2146 J-4.8971 F900
G02 X37.1875 Y56.6153 I11.2133 J-9.8238 F900
G02 X45.1291 Y56.5492 I3.8198 J-18.1753 F900
G02 X49.0948 Y55.0533 I-3.1697 J-14.4074 F900
G02 X49.6600 Y54.6977 I-3.6167 J-6.3765 F900
G02 X50.3634 Y54.0316 I-2.0609 J-2.8807 F900
G02 X50.4265 Y53.8161 I-1.4661 J-0.5462 F900
G02 X50.5216 Y50.2295 I-15.0259 J-2.1930 F900
G03 X46.2764 Y52.5076 I-10.2459 J-13.9991 F900
G03 X40.4534 Y53.2744 I-4.6045 J-12.4721 F900
G03 X32.4667 Y48.4383 I0.8808 J-10.4676 F900
G03 X30.1506 Y42.2184 I13.7766 J-8.6713 F900
G03 X29.7960 Y38.0866 I25.7494 J-4.2908 F900
G01 X29.7943 Y37.7488 F900
G01 X29.7962 Y37.3806 F900
G03 X30.3509 Y32.0558 I25.9512 J0.0121 F900
G03 X32.9597 Y26.3352 I13.7894 J2.8333 F900
G03 X39.7086 Y22.5842 I7.9793 J6.4095 F900
G03 X45.8243 Y22.9571 I2.1368 J15.2917 F900
G03 X50.6695 Y25.2574 I-5.9378 J18.7598 F900
G02 X50.5675 Y21.9590 I-14.2838 J-1.2091 F900
G02 X49.8597 Y21.1214 I-1.3120 J0.3908 F900
G02 X44.6235 Y19.1098 I-7.9404 J12.8480 F900
G02 X34.8355 Y19.4474 I-4.1807 J20.8504 F900
G02 X28.3426 Y23.4712 I3.5461 J12.9727 F900
G01 Z-6.4000 F180
G02 X25.0933 Y29.7145 I12.4313 J10.4370 F900
G02 X24.1522 Y36.8321 I26.4657 J7.1203 F900
G01 X24.1491 Y37.3119 F900
G01 X24.1525 Y37.8192 F900
G02 X25.1905 Y45.1611 I26.5826 J-0.0141 F900
G02 X28.7078 Y51.7840 I17.2146 J-4.8971 F900
G02 X37.1875 Y56.6153 I11.2133 J-9.8238 F900
G02 X45.1291 Y56.5492 I3.8198 J-18.1753 F900
G02 X49.0948 Y55.0533 I-3.1697 J-14.4074 F900
G02 X49.6600 Y54.6977 I-3.6167 J-6.3765 F900
G02 X50.3634 Y54.0316 I-2.0609 J-2.8807 F900
G02 X50.4265 Y53.8161 I-1.4661 J-0.5462 F900
G02 X50.5216 Y50.2295 I-15.0259 J-2.1930 F900
G03 X46.2764 Y52.5076 I-10.2459 J-13.9991 F900
G03 X40.4534 Y53.2744 I-4.6045 J-12.4721 F900
G03 X32.4667 Y48.4383 I0.8808 J-10.4676 F900
G03 X30.1506 Y42.2184 I13.7766 J-8.6713 F900
G03 X29.7960 Y38.0866 I25.7494 J-4.2908 F900
G01 X29.7943 Y37.7488 F900
G01 X29.7962 Y37.3806 F900
G03 X30.3509 Y32.0558 I25.9512 J0.0121 F900
G03 X32.9597 Y26.3352 I13.7894 J2.8333 F900
G03 X39.7086 Y22.5842 I7.9793 J6.4095 F900
G03 X45.8243 Y22.9571 I2.1368 J15.2917 F900
G03 X50.6695 Y25.2574 I-5.9378 J18.7598 F900
G02 X50.5675 Y21.9590 I-14.2838 J-1.2091 F900
G02 X49.8597 Y21.1214 I-1.3120 J0.3908 F900
G02 X44.6235 Y19.1098 I-7.9404 J12.8480 F900
G02 X34.8355 Y19.4474 I-4.1807 J20.8504 F900
G02 X28.3426 Y23.4712 I3.5461 J12.9727 F900
G00 Z3.0000 F480


;No. 2: Part 1
G00 X1.4733 Y22.6232 Z3.0000 F2100
G00 Z0.5000 F480
G01 Z-1.5000 F180
G03 X76.0724 Y47.5595 I36.3787 J15.2228 F900
G01 X76.0064 Y47.8294 F900
G03 X74.8718 Y51.4472 I-38.1564 J-9.9794 F900
G01 X74.8470 Y51.5137 F900
G01 X74.6206 Y52.0998 F900
G03 X-1.5898 Y37.8755 I-36.7734 J-14.2476 F900
G01 X-1.5703 Y36.6114 F900
G01 X-1.5104 Y35.3485 F900
G01 X-1.5055 Y35.2777 F900
G03 X-0.0981 Y27.1234 I38.7990 J2.4980 F900
G01 X0.0331 Y26.6527 F900
G01 X0.0536 Y26.5848 F900
G03 X1.4733 Y22.6232 I35.8909 J10.6271 F900
G01 Z-3.0000 F180
G03 X76.0724 Y47.5595 I36.3787 J15.2228 F900
G01 X76.0064 Y47.8294 F900
G03 X74.8718 Y51.4472 I-38.1564 J-9.9794 F900
G01 X74.8470 Y51.5137 F900
G01 X74.6206 Y52.0998 F900
G03 X-1.5898 Y37.8755 I-36.7734 J-14.2476 F900
G01 X-1.5703 Y36.6114 F900
G01 X-1.5104 Y35.3485 F900
G01 X-1.5055 Y35.2777 F900
G03 X-0.0981 Y27.1234 I38.7990 J2.4980 F900
G01 X0.0331 Y26.6527 F900
G01 X0.0536 Y26.5848 F900
G03 X1.4733 Y22.6232 I35.8909 J10.6271 F900
G01 Z-4.5000 F180
G03 X76.0724 Y47.5595 I36.3787 J15.2228 F900
G01 X76.0064 Y47.8294 F900
G03 X74.8718 Y51.4472 I-38.1564 J-9.9794 F900
G01 X74.8470 Y51.5137 F900
G01 X74.6206 Y52.0998 F900
G03 X-1.5898 Y37.8755 I-36.7734 J-14.2476 F900
G01 X-1.5703 Y36.6114 F900
G01 X-1.5104 Y35.3485 F900
G01 X-1.5055 Y35.2777 F900
G03 X-0.0981 Y27.1234 I38.7990 J2.4980 F900
G01 X0.0331 Y26.6527 F900
G01 X0.0536 Y26.5848 F900
G03 X1.4733 Y22.6232 I35.8909 J10.6271 F900
G01 Z-6.0000 F180
G03 X76.0724 Y47.5595 I36.3787 J15.2228 F900
G00 Z-4.5000 F480
G01 X76.0064 Y47.8294 F900
G03 X74.8718 Y51.4472 I-38.1564 J-9.9794 F900
G01 X74.8470 Y51.5137 F900
G01 X74.6206 Y52.0998 F900
G01 Z-6.0000 F180
G03 X-1.5898 Y37.8755 I-36.7734 J-14.2476 F900
G01 X-1.5703 Y36.6114 F900
G01 X-1.5104 Y35.3485 F900
G01 X-1.5055 Y35.2777 F900
G03 X-0.0981 Y27.1234 I38.7990 J2.4980 F900
G00 Z-4.5000 F480
G01 X0.0331 Y26.6527 F900
G01 X0.0536 Y26.5848 F900
G03 X1.4733 Y22.6232 I35.8909 J10.6271 F900
G00 Z-5.5000 F480
G01 Z-6.5000 F180
G03 X76.0724 Y47.5595 I36.3787 J15.2228 F900
G00 Z-4.5000 F480
G01 X76.0064 Y47.8294 F900
G03 X74.8718 Y51.4472 I-38.1564 J-9.9794 F900
G01 X74.8470 Y51.5137 F900
G01 X74.6206 Y52.0998 F900
G00 Z-5.5000 F480
G01 Z-6.5000 F180
G03 X-1.5898 Y37.8755 I-36.7734 J-14.2476 F900
G01 X-1.5703 Y36.6114 F900
G01 X-1.5104 Y35.3485 F900
G01 X-1.5055 Y35.2777 F900
G03 X-0.0981 Y27.1234 I38.7990 J2.4980 F900
G00 Z-4.5000 F480
G01 X0.0331 Y26.6527 F900
G01 X0.0536 Y26.5848 F900
G03 X1.4733 Y22.6232 I35.8909 J10.6271 F900
G00 Z3.0000 F480
G00 X0.0000 Y0.0000 F2100

M05
