;Project thickbase
;Created by Estlcam version 11 build 11.042
;Machining time about 00:15:24 hours

G90
M03 S24000
G00 X0.0000 Y0.0000 Z0.0000 F2100
G00 Z2.0000 F480


;No. 1: Hole 1
G00 X28.9460 Y26.6283 F2100
G00 Z0.5000 F480
G01 Z-1.5000 F180 S24000
G02 X57.0869 Y142.6188 I47.5540 J49.8717 F900
G02 X143.4672 Y60.2528 I19.4131 J-66.1188 F900
G02 X28.9460 Y26.6283 I-66.9672 J16.2472 F900
G01 Z-3.0000 F180
G02 X57.0869 Y142.6188 I47.5540 J49.8717 F900
G02 X143.4672 Y60.2528 I19.4131 J-66.1188 F900
G02 X28.9460 Y26.6283 I-66.9672 J16.2472 F900
G01 Z-4.5000 F180
G02 X57.0869 Y142.6188 I47.5540 J49.8717 F900
G02 X143.4672 Y60.2528 I19.4131 J-66.1188 F900
G02 X28.9460 Y26.6283 I-66.9672 J16.2472 F900
G01 Z-6.0000 F180
G02 X57.0869 Y142.6188 I47.5540 J49.8717 F900
G02 X143.4672 Y60.2528 I19.4131 J-66.1188 F900
G02 X28.9460 Y26.6283 I-66.9672 J16.2472 F900
G01 Z-7.5000 F180
G02 X57.0869 Y142.6188 I47.5540 J49.8717 F900
G02 X143.4672 Y60.2528 I19.4131 J-66.1188 F900
G02 X28.9460 Y26.6283 I-66.9672 J16.2472 F900
G01 Z-9.0000 F180
G02 X57.0869 Y142.6188 I47.5540 J49.8717 F900
G02 X143.4672 Y60.2528 I19.4131 J-66.1188 F900
G02 X28.9460 Y26.6283 I-66.9672 J16.2472 F900
G01 Z-10.5000 F180
G02 X57.0869 Y142.6188 I47.5540 J49.8717 F900
G02 X143.4672 Y60.2528 I19.4131 J-66.1188 F900
G02 X28.9460 Y26.6283 I-66.9672 J16.2472 F900
G01 Z-12.0000 F180
G02 X57.0869 Y142.6188 I47.5540 J49.8717 F900
G02 X143.4672 Y60.2528 I19.4131 J-66.1188 F900
G02 X28.9460 Y26.6283 I-66.9672 J16.2472 F900
G01 Z-13.5000 F180
G02 X57.0869 Y142.6188 I47.5540 J49.8717 F900
G02 X143.4672 Y60.2528 I19.4131 J-66.1188 F900
G02 X28.9460 Y26.6283 I-66.9672 J16.2472 F900
G01 Z-15.0000 F180
G02 X57.0869 Y142.6188 I47.5540 J49.8717 F900
G02 X143.4672 Y60.2528 I19.4131 J-66.1188 F900
G02 X28.9460 Y26.6283 I-66.9672 J16.2472 F900
G01 Z-16.5000 F180
G02 X57.0869 Y142.6188 I47.5540 J49.8717 F900
G02 X143.4672 Y60.2528 I19.4131 J-66.1188 F900
G02 X28.9460 Y26.6283 I-66.9672 J16.2472 F900
G01 Z-18.0000 F180
G02 X57.0869 Y142.6188 I47.5540 J49.8717 F900
G02 X143.4672 Y60.2528 I19.4131 J-66.1188 F900
G02 X28.9460 Y26.6283 I-66.9672 J16.2472 F900
G00 Z2.0000 F480


;No. 2: Hole 3
G00 X69.1306 Y68.2537 Z2.0000 F2100
G00 Z0.5000 F480
G01 Z-1.5000 F180
G02 X73.0432 Y87.0052 I7.3694 J8.2463 F900
G02 X87.3262 Y74.2411 I3.4568 J-10.5052 F900
G02 X69.1306 Y68.2537 I-10.8262 J2.2589 F900
G01 Z-3.0000 F180
G02 X73.0432 Y87.0052 I7.3694 J8.2463 F900
G02 X87.3262 Y74.2411 I3.4568 J-10.5052 F900
G02 X69.1306 Y68.2537 I-10.8262 J2.2589 F900
G01 Z-4.5000 F180
G02 X73.0432 Y87.0052 I7.3694 J8.2463 F900
G02 X87.3262 Y74.2411 I3.4568 J-10.5052 F900
G02 X69.1306 Y68.2537 I-10.8262 J2.2589 F900
G01 Z-6.0000 F180
G02 X73.0432 Y87.0052 I7.3694 J8.2463 F900
G02 X87.3262 Y74.2411 I3.4568 J-10.5052 F900
G02 X69.1306 Y68.2537 I-10.8262 J2.2589 F900
G01 Z-7.5000 F180
G02 X73.0432 Y87.0052 I7.3694 J8.2463 F900
G02 X87.3262 Y74.2411 I3.4568 J-10.5052 F900
G02 X69.1306 Y68.2537 I-10.8262 J2.2589 F900
G01 Z-9.0000 F180
G02 X73.0432 Y87.0052 I7.3694 J8.2463 F900
G02 X87.3262 Y74.2411 I3.4568 J-10.5052 F900
G02 X69.1306 Y68.2537 I-10.8262 J2.2589 F900
G01 Z-10.5000 F180
G02 X73.0432 Y87.0052 I7.3694 J8.2463 F900
G02 X87.3262 Y74.2411 I3.4568 J-10.5052 F900
G02 X69.1306 Y68.2537 I-10.8262 J2.2589 F900
G01 Z-12.0000 F180
G02 X73.0432 Y87.0052 I7.3694 J8.2463 F900
G02 X87.3262 Y74.2411 I3.4568 J-10.5052 F900
G02 X69.1306 Y68.2537 I-10.8262 J2.2589 F900
G01 Z-13.5000 F180
G02 X73.0432 Y87.0052 I7.3694 J8.2463 F900
G02 X87.3262 Y74.2411 I3.4568 J-10.5052 F900
G02 X69.1306 Y68.2537 I-10.8262 J2.2589 F900
G01 Z-15.0000 F180
G02 X73.0432 Y87.0052 I7.3694 J8.2463 F900
G02 X87.3262 Y74.2411 I3.4568 J-10.5052 F900
G02 X69.1306 Y68.2537 I-10.8262 J2.2589 F900
G01 Z-16.5000 F180
G02 X73.0432 Y87.0052 I7.3694 J8.2463 F900
G02 X87.3262 Y74.2411 I3.4568 J-10.5052 F900
G02 X69.1306 Y68.2537 I-10.8262 J2.2589 F900
G01 Z-18.0000 F180
G02 X73.0432 Y87.0052 I7.3694 J8.2463 F900
G02 X87.3262 Y74.2411 I3.4568 J-10.5052 F900
G02 X69.1306 Y68.2537 I-10.8262 J2.2589 F900
G00 Z2.0000 F480


;No. 3: Part 2
G00 X59.3854 Y87.2997 Z2.0000 F2100
G00 Z0.5000 F480
G01 Z-1.5000 F180
G01 X59.3113 Y87.1860 F900
G01 X59.2625 Y87.1063 F900
G01 X58.8361 Y86.3808 F900
G01 X58.7911 Y86.2989 F900
G01 X58.3986 Y85.5544 F900
G01 X58.3574 Y85.4706 F900
G01 X57.9998 Y84.7088 F900
G01 X57.9625 Y84.6231 F900
G01 X57.6404 Y83.8456 F900
G01 X57.6071 Y83.7583 F900
G01 X57.3213 Y82.9668 F900
G01 X57.2920 Y82.8780 F900
G01 X57.0431 Y82.0741 F900
G01 X57.0180 Y81.9841 F900
G01 X56.8064 Y81.1696 F900
G01 X56.7855 Y81.0785 F900
G01 X56.6118 Y80.2551 F900
G01 X56.5951 Y80.1632 F900
G01 X56.4596 Y79.3326 F900
G01 X56.4471 Y79.2400 F900
G01 X56.3502 Y78.4040 F900
G01 X56.3420 Y78.3110 F900
G01 X56.2837 Y77.4714 F900
G01 X56.2799 Y77.3781 F900
G01 X56.2604 Y76.5367 F900
G01 X56.2609 Y76.4433 F900
G01 X56.2803 Y75.6020 F900
G01 X56.2851 Y75.5086 F900
G01 X56.3434 Y74.6691 F900
G01 X56.3525 Y74.5761 F900
G01 X56.4494 Y73.7401 F900
G01 X56.4628 Y73.6477 F900
G01 X56.5983 Y72.8171 F900
G01 X56.6159 Y72.7253 F900
G01 X56.7896 Y71.9019 F900
G01 X56.8115 Y71.8110 F900
G01 X57.0230 Y70.9965 F900
G01 X57.0490 Y70.9067 F900
G01 X57.2980 Y70.1029 F900
G01 X57.3281 Y70.0144 F900
G01 X57.6139 Y69.2229 F900
G01 X57.6481 Y69.1359 F900
G01 X57.9701 Y68.3584 F900
G01 X58.0083 Y68.2731 F900
G01 X58.3659 Y67.5113 F900
G01 X58.4080 Y67.4279 F900
G01 X58.8004 Y66.6834 F900
G01 X58.8463 Y66.6020 F900
G01 X59.2726 Y65.8765 F900
G01 X59.3222 Y65.7973 F900
G01 X59.7816 Y65.0922 F900
G01 X59.8348 Y65.0153 F900
G01 X60.3263 Y64.3322 F900
G01 X60.3830 Y64.2579 F900
G01 X60.9055 Y63.5983 F900
G01 X60.9656 Y63.5267 F900
G01 X61.5180 Y62.8918 F900
G01 X61.5813 Y62.8231 F900
G01 X62.1625 Y62.2144 F900
G01 X62.2289 Y62.1487 F900
G01 X62.8375 Y61.5675 F900
G01 X62.9069 Y61.5049 F900
G01 X63.5418 Y60.9525 F900
G01 X63.6139 Y60.8931 F900
G01 X64.2736 Y60.3706 F900
G01 X64.3485 Y60.3147 F900
G01 X65.0316 Y59.8232 F900
G01 X65.1089 Y59.7707 F900
G01 X65.8140 Y59.3113 F900
G01 X65.8937 Y59.2625 F900
G01 X66.6192 Y58.8361 F900
G01 X66.7011 Y58.7911 F900
G01 X67.4456 Y58.3986 F900
G01 X67.5294 Y58.3574 F900
G01 X68.2912 Y57.9998 F900
G01 X68.3769 Y57.9625 F900
G01 X69.1544 Y57.6404 F900
G01 X69.2417 Y57.6071 F900
G01 X70.0332 Y57.3213 F900
G01 X70.1220 Y57.2920 F900
G01 X70.9259 Y57.0431 F900
G01 X71.0159 Y57.0180 F900
G01 X71.8304 Y56.8064 F900
G01 X71.9215 Y56.7855 F900
G01 X72.7449 Y56.6118 F900
G01 X72.8368 Y56.5951 F900
G01 X73.6674 Y56.4596 F900
G01 X73.7600 Y56.4471 F900
G01 X74.5960 Y56.3502 F900
G01 X74.6890 Y56.3420 F900
G01 X75.5286 Y56.2837 F900
G01 X75.6219 Y56.2799 F900
G01 X76.4633 Y56.2604 F900
G01 X76.5567 Y56.2609 F900
G01 X77.3980 Y56.2803 F900
G01 X77.4914 Y56.2851 F900
G01 X78.3309 Y56.3434 F900
G01 X78.4239 Y56.3525 F900
G01 X79.2599 Y56.4494 F900
G01 X79.3523 Y56.4628 F900
G01 X80.1829 Y56.5983 F900
G01 X80.2747 Y56.6159 F900
G01 X81.0981 Y56.7896 F900
G01 X81.1890 Y56.8115 F900
G01 X82.0035 Y57.0230 F900
G01 X82.0933 Y57.0490 F900
G01 X82.8971 Y57.2980 F900
G01 X82.9856 Y57.3281 F900
G01 X83.7771 Y57.6139 F900
G01 X83.8641 Y57.6481 F900
G01 X84.6416 Y57.9701 F900
G01 X84.7269 Y58.0083 F900
G01 X85.4887 Y58.3659 F900
G01 X85.5721 Y58.4080 F900
G01 X86.3166 Y58.8004 F900
G01 X86.3980 Y58.8463 F900
G01 X87.1235 Y59.2726 F900
G01 X87.2027 Y59.3222 F900
G01 X87.9078 Y59.7816 F900
G01 X87.9847 Y59.8348 F900
G01 X88.6678 Y60.3263 F900
G01 X88.7421 Y60.3830 F900
G01 X89.4017 Y60.9055 F900
G01 X89.4733 Y60.9656 F900
G01 X90.1082 Y61.5180 F900
G01 X90.1736 Y61.5783 F900
G01 X90.7856 Y62.1625 F900
G01 X90.8513 Y62.2289 F900
G01 X91.4325 Y62.8375 F900
G01 X91.4951 Y62.9069 F900
G01 X92.0475 Y63.5418 F900
G01 X92.1069 Y63.6139 F900
G01 X92.6294 Y64.2736 F900
G01 X92.6853 Y64.3485 F900
G01 X93.1768 Y65.0316 F900
G01 X93.2293 Y65.1089 F900
G01 X93.6887 Y65.8140 F900
G01 X93.7375 Y65.8937 F900
G01 X94.0240 Y66.3813 F900
G01 X94.1639 Y66.6192 F900
G01 X94.2089 Y66.7011 F900
G01 X94.6014 Y67.4456 F900
G01 X94.6426 Y67.5294 F900
G01 X95.0002 Y68.2912 F900
G01 X95.0375 Y68.3769 F900
G01 X95.3596 Y69.1544 F900
G01 X95.3929 Y69.2417 F900
G01 X95.6787 Y70.0332 F900
G01 X95.7080 Y70.1220 F900
G01 X95.9569 Y70.9259 F900
G01 X95.9820 Y71.0159 F900
G01 X96.1936 Y71.8304 F900
G01 X96.2145 Y71.9215 F900
G01 X96.3882 Y72.7449 F900
G01 X96.4049 Y72.8368 F900
G01 X96.5404 Y73.6674 F900
G01 X96.5529 Y73.7600 F900
G01 X96.6498 Y74.5960 F900
G01 X96.6580 Y74.6890 F900
G01 X96.7163 Y75.5286 F900
G01 X96.7201 Y75.6219 F900
G01 X96.7396 Y76.4633 F900
G01 X96.7391 Y76.5567 F900
G01 X96.7197 Y77.3980 F900
G01 X96.7149 Y77.4914 F900
G01 X96.6566 Y78.3309 F900
G01 X96.6475 Y78.4239 F900
G01 X96.5506 Y79.2599 F900
G01 X96.5372 Y79.3523 F900
G01 X96.4017 Y80.1829 F900
G01 X96.3841 Y80.2747 F900
G01 X96.2104 Y81.0981 F900
G01 X96.1885 Y81.1890 F900
G01 X95.9770 Y82.0035 F900
G01 X95.9510 Y82.0933 F900
G01 X95.7020 Y82.8971 F900
G01 X95.6719 Y82.9856 F900
G01 X95.3861 Y83.7771 F900
G01 X95.3519 Y83.8641 F900
G01 X95.0299 Y84.6416 F900
G01 X94.9917 Y84.7269 F900
G01 X94.6341 Y85.4887 F900
G01 X94.5920 Y85.5721 F900
G01 X94.1996 Y86.3166 F900
G01 X94.1537 Y86.3980 F900
G01 X93.7274 Y87.1235 F900
G01 X93.6778 Y87.2027 F900
G01 X93.2184 Y87.9078 F900
G01 X93.1652 Y87.9847 F900
G01 X92.6737 Y88.6678 F900
G01 X92.6170 Y88.7421 F900
G01 X92.0945 Y89.4017 F900
G01 X92.0344 Y89.4733 F900
G01 X91.4820 Y90.1082 F900
G01 X91.4187 Y90.1769 F900
G01 X90.8375 Y90.7856 F900
G01 X90.7711 Y90.8513 F900
G01 X90.1625 Y91.4325 F900
G01 X90.0931 Y91.4951 F900
G01 X89.4582 Y92.0475 F900
G01 X89.3861 Y92.1069 F900
G01 X88.7264 Y92.6294 F900
G01 X88.6515 Y92.6853 F900
G01 X87.9684 Y93.1768 F900
G01 X87.8911 Y93.2293 F900
G01 X87.1860 Y93.6887 F900
G01 X87.1063 Y93.7375 F900
G01 X86.3808 Y94.1639 F900
G01 X86.2989 Y94.2089 F900
G01 X85.5544 Y94.6014 F900
G01 X85.4706 Y94.6426 F900
G01 X84.7088 Y95.0002 F900
G01 X84.6231 Y95.0375 F900
G01 X83.8456 Y95.3596 F900
G01 X83.7583 Y95.3929 F900
G01 X82.9668 Y95.6787 F900
G01 X82.8780 Y95.7080 F900
G01 X82.0741 Y95.9569 F900
G01 X81.9841 Y95.9820 F900
G01 X81.1696 Y96.1936 F900
G01 X81.0785 Y96.2145 F900
G01 X80.2551 Y96.3882 F900
G01 X80.1632 Y96.4049 F900
G01 X79.3326 Y96.5404 F900
G01 X79.2400 Y96.5529 F900
G01 X78.4040 Y96.6498 F900
G01 X78.3110 Y96.6580 F900
G01 X77.4714 Y96.7163 F900
G01 X77.3781 Y96.7201 F900
G01 X76.5367 Y96.7396 F900
G01 X76.4433 Y96.7391 F900
G01 X75.6020 Y96.7197 F900
G01 X75.5086 Y96.7149 F900
G01 X74.6691 Y96.6566 F900
G01 X74.5761 Y96.6475 F900
G01 X73.7401 Y96.5506 F900
G01 X73.6477 Y96.5372 F900
G01 X72.8171 Y96.4017 F900
G01 X72.7253 Y96.3841 F900
G01 X71.9019 Y96.2104 F900
G01 X71.8110 Y96.1885 F900
G01 X70.9965 Y95.9770 F900
G01 X70.9067 Y95.9510 F900
G01 X70.1029 Y95.7020 F900
G01 X70.0144 Y95.6719 F900
G01 X69.2229 Y95.3861 F900
G01 X69.1359 Y95.3519 F900
G01 X68.3584 Y95.0299 F900
G01 X68.2731 Y94.9917 F900
G01 X67.5113 Y94.6341 F900
G01 X67.4279 Y94.5920 F900
G01 X66.6834 Y94.1996 F900
G01 X66.6020 Y94.1537 F900
G01 X65.8765 Y93.7274 F900
G01 X65.7973 Y93.6778 F900
G01 X65.0922 Y93.2184 F900
G01 X65.0153 Y93.1652 F900
G01 X64.3322 Y92.6737 F900
G01 X64.2579 Y92.6170 F900
G01 X63.5983 Y92.0945 F900
G01 X63.5267 Y92.0344 F900
G01 X63.4242 Y91.9453 F900
G01 X62.8918 Y91.4820 F900
G01 X62.8231 Y91.4187 F900
G01 X62.2144 Y90.8375 F900
G01 X62.1487 Y90.7711 F900
G01 X61.5675 Y90.1625 F900
G01 X61.5049 Y90.0931 F900
G01 X60.9525 Y89.4582 F900
G01 X60.8931 Y89.3861 F900
G01 X60.3706 Y88.7264 F900
G01 X60.3147 Y88.6515 F900
G01 X59.8232 Y87.9684 F900
G01 X59.7707 Y87.8911 F900
G01 X59.3854 Y87.2997 F900
G01 Z-3.0000 F180
G01 X59.3113 Y87.1860 F900
G01 X59.2625 Y87.1063 F900
G01 X58.8361 Y86.3808 F900
G01 X58.7911 Y86.2989 F900
G01 X58.3986 Y85.5544 F900
G01 X58.3574 Y85.4706 F900
G01 X57.9998 Y84.7088 F900
G01 X57.9625 Y84.6231 F900
G01 X57.6404 Y83.8456 F900
G01 X57.6071 Y83.7583 F900
G01 X57.3213 Y82.9668 F900
G01 X57.2920 Y82.8780 F900
G01 X57.0431 Y82.0741 F900
G01 X57.0180 Y81.9841 F900
G01 X56.8064 Y81.1696 F900
G01 X56.7855 Y81.0785 F900
G01 X56.6118 Y80.2551 F900
G01 X56.5951 Y80.1632 F900
G01 X56.4596 Y79.3326 F900
G01 X56.4471 Y79.2400 F900
G01 X56.3502 Y78.4040 F900
G01 X56.3420 Y78.3110 F900
G01 X56.2837 Y77.4714 F900
G01 X56.2799 Y77.3781 F900
G01 X56.2604 Y76.5367 F900
G01 X56.2609 Y76.4433 F900
G01 X56.2803 Y75.6020 F900
G01 X56.2851 Y75.5086 F900
G01 X56.3434 Y74.6691 F900
G01 X56.3525 Y74.5761 F900
G01 X56.4494 Y73.7401 F900
G01 X56.4628 Y73.6477 F900
G01 X56.5983 Y72.8171 F900
G01 X56.6159 Y72.7253 F900
G01 X56.7896 Y71.9019 F900
G01 X56.8115 Y71.8110 F900
G01 X57.0230 Y70.9965 F900
G01 X57.0490 Y70.9067 F900
G01 X57.2980 Y70.1029 F900
G01 X57.3281 Y70.0144 F900
G01 X57.6139 Y69.2229 F900
G01 X57.6481 Y69.1359 F900
G01 X57.9701 Y68.3584 F900
G01 X58.0083 Y68.2731 F900
G01 X58.3659 Y67.5113 F900
G01 X58.4080 Y67.4279 F900
G01 X58.8004 Y66.6834 F900
G01 X58.8463 Y66.6020 F900
G01 X59.2726 Y65.8765 F900
G01 X59.3222 Y65.7973 F900
G01 X59.7816 Y65.0922 F900
G01 X59.8348 Y65.0153 F900
G01 X60.3263 Y64.3322 F900
G01 X60.3830 Y64.2579 F900
G01 X60.9055 Y63.5983 F900
G01 X60.9656 Y63.5267 F900
G01 X61.5180 Y62.8918 F900
G01 X61.5813 Y62.8231 F900
G01 X62.1625 Y62.2144 F900
G01 X62.2289 Y62.1487 F900
G01 X62.8375 Y61.5675 F900
G01 X62.9069 Y61.5049 F900
G01 X63.5418 Y60.9525 F900
G01 X63.6139 Y60.8931 F900
G01 X64.2736 Y60.3706 F900
G01 X64.3485 Y60.3147 F900
G01 X65.0316 Y59.8232 F900
G01 X65.1089 Y59.7707 F900
G01 X65.8140 Y59.3113 F900
G01 X65.8937 Y59.2625 F900
G01 X66.6192 Y58.8361 F900
G01 X66.7011 Y58.7911 F900
G01 X67.4456 Y58.3986 F900
G01 X67.5294 Y58.3574 F900
G01 X68.2912 Y57.9998 F900
G01 X68.3769 Y57.9625 F900
G01 X69.1544 Y57.6404 F900
G01 X69.2417 Y57.6071 F900
G01 X70.0332 Y57.3213 F900
G01 X70.1220 Y57.2920 F900
G01 X70.9259 Y57.0431 F900
G01 X71.0159 Y57.0180 F900
G01 X71.8304 Y56.8064 F900
G01 X71.9215 Y56.7855 F900
G01 X72.7449 Y56.6118 F900
G01 X72.8368 Y56.5951 F900
G01 X73.6674 Y56.4596 F900
G01 X73.7600 Y56.4471 F900
G01 X74.5960 Y56.3502 F900
G01 X74.6890 Y56.3420 F900
G01 X75.5286 Y56.2837 F900
G01 X75.6219 Y56.2799 F900
G01 X76.4633 Y56.2604 F900
G01 X76.5567 Y56.2609 F900
G01 X77.3980 Y56.2803 F900
G01 X77.4914 Y56.2851 F900
G01 X78.3309 Y56.3434 F900
G01 X78.4239 Y56.3525 F900
G01 X79.2599 Y56.4494 F900
G01 X79.3523 Y56.4628 F900
G01 X80.1829 Y56.5983 F900
G01 X80.2747 Y56.6159 F900
G01 X81.0981 Y56.7896 F900
G01 X81.1890 Y56.8115 F900
G01 X82.0035 Y57.0230 F900
G01 X82.0933 Y57.0490 F900
G01 X82.8971 Y57.2980 F900
G01 X82.9856 Y57.3281 F900
G01 X83.7771 Y57.6139 F900
G01 X83.8641 Y57.6481 F900
G01 X84.6416 Y57.9701 F900
G01 X84.7269 Y58.0083 F900
G01 X85.4887 Y58.3659 F900
G01 X85.5721 Y58.4080 F900
G01 X86.3166 Y58.8004 F900
G01 X86.3980 Y58.8463 F900
G01 X87.1235 Y59.2726 F900
G01 X87.2027 Y59.3222 F900
G01 X87.9078 Y59.7816 F900
G01 X87.9847 Y59.8348 F900
G01 X88.6678 Y60.3263 F900
G01 X88.7421 Y60.3830 F900
G01 X89.4017 Y60.9055 F900
G01 X89.4733 Y60.9656 F900
G01 X90.1082 Y61.5180 F900
G01 X90.1736 Y61.5783 F900
G01 X90.7856 Y62.1625 F900
G01 X90.8513 Y62.2289 F900
G01 X91.4325 Y62.8375 F900
G01 X91.4951 Y62.9069 F900
G01 X92.0475 Y63.5418 F900
G01 X92.1069 Y63.6139 F900
G01 X92.6294 Y64.2736 F900
G01 X92.6853 Y64.3485 F900
G01 X93.1768 Y65.0316 F900
G01 X93.2293 Y65.1089 F900
G01 X93.6887 Y65.8140 F900
G01 X93.7375 Y65.8937 F900
G01 X94.0240 Y66.3813 F900
G01 X94.1639 Y66.6192 F900
G01 X94.2089 Y66.7011 F900
G01 X94.6014 Y67.4456 F900
G01 X94.6426 Y67.5294 F900
G01 X95.0002 Y68.2912 F900
G01 X95.0375 Y68.3769 F900
G01 X95.3596 Y69.1544 F900
G01 X95.3929 Y69.2417 F900
G01 X95.6787 Y70.0332 F900
G01 X95.7080 Y70.1220 F900
G01 X95.9569 Y70.9259 F900
G01 X95.9820 Y71.0159 F900
G01 X96.1936 Y71.8304 F900
G01 X96.2145 Y71.9215 F900
G01 X96.3882 Y72.7449 F900
G01 X96.4049 Y72.8368 F900
G01 X96.5404 Y73.6674 F900
G01 X96.5529 Y73.7600 F900
G01 X96.6498 Y74.5960 F900
G01 X96.6580 Y74.6890 F900
G01 X96.7163 Y75.5286 F900
G01 X96.7201 Y75.6219 F900
G01 X96.7396 Y76.4633 F900
G01 X96.7391 Y76.5567 F900
G01 X96.7197 Y77.3980 F900
G01 X96.7149 Y77.4914 F900
G01 X96.6566 Y78.3309 F900
G01 X96.6475 Y78.4239 F900
G01 X96.5506 Y79.2599 F900
G01 X96.5372 Y79.3523 F900
G01 X96.4017 Y80.1829 F900
G01 X96.3841 Y80.2747 F900
G01 X96.2104 Y81.0981 F900
G01 X96.1885 Y81.1890 F900
G01 X95.9770 Y82.0035 F900
G01 X95.9510 Y82.0933 F900
G01 X95.7020 Y82.8971 F900
G01 X95.6719 Y82.9856 F900
G01 X95.3861 Y83.7771 F900
G01 X95.3519 Y83.8641 F900
G01 X95.0299 Y84.6416 F900
G01 X94.9917 Y84.7269 F900
G01 X94.6341 Y85.4887 F900
G01 X94.5920 Y85.5721 F900
G01 X94.1996 Y86.3166 F900
G01 X94.1537 Y86.3980 F900
G01 X93.7274 Y87.1235 F900
G01 X93.6778 Y87.2027 F900
G01 X93.2184 Y87.9078 F900
G01 X93.1652 Y87.9847 F900
G01 X92.6737 Y88.6678 F900
G01 X92.6170 Y88.7421 F900
G01 X92.0945 Y89.4017 F900
G01 X92.0344 Y89.4733 F900
G01 X91.4820 Y90.1082 F900
G01 X91.4187 Y90.1769 F900
G01 X90.8375 Y90.7856 F900
G01 X90.7711 Y90.8513 F900
G01 X90.1625 Y91.4325 F900
G01 X90.0931 Y91.4951 F900
G01 X89.4582 Y92.0475 F900
G01 X89.3861 Y92.1069 F900
G01 X88.7264 Y92.6294 F900
G01 X88.6515 Y92.6853 F900
G01 X87.9684 Y93.1768 F900
G01 X87.8911 Y93.2293 F900
G01 X87.1860 Y93.6887 F900
G01 X87.1063 Y93.7375 F900
G01 X86.3808 Y94.1639 F900
G01 X86.2989 Y94.2089 F900
G01 X85.5544 Y94.6014 F900
G01 X85.4706 Y94.6426 F900
G01 X84.7088 Y95.0002 F900
G01 X84.6231 Y95.0375 F900
G01 X83.8456 Y95.3596 F900
G01 X83.7583 Y95.3929 F900
G01 X82.9668 Y95.6787 F900
G01 X82.8780 Y95.7080 F900
G01 X82.0741 Y95.9569 F900
G01 X81.9841 Y95.9820 F900
G01 X81.1696 Y96.1936 F900
G01 X81.0785 Y96.2145 F900
G01 X80.2551 Y96.3882 F900
G01 X80.1632 Y96.4049 F900
G01 X79.3326 Y96.5404 F900
G01 X79.2400 Y96.5529 F900
G01 X78.4040 Y96.6498 F900
G01 X78.3110 Y96.6580 F900
G01 X77.4714 Y96.7163 F900
G01 X77.3781 Y96.7201 F900
G01 X76.5367 Y96.7396 F900
G01 X76.4433 Y96.7391 F900
G01 X75.6020 Y96.7197 F900
G01 X75.5086 Y96.7149 F900
G01 X74.6691 Y96.6566 F900
G01 X74.5761 Y96.6475 F900
G01 X73.7401 Y96.5506 F900
G01 X73.6477 Y96.5372 F900
G01 X72.8171 Y96.4017 F900
G01 X72.7253 Y96.3841 F900
G01 X71.9019 Y96.2104 F900
G01 X71.8110 Y96.1885 F900
G01 X70.9965 Y95.9770 F900
G01 X70.9067 Y95.9510 F900
G01 X70.1029 Y95.7020 F900
G01 X70.0144 Y95.6719 F900
G01 X69.2229 Y95.3861 F900
G01 X69.1359 Y95.3519 F900
G01 X68.3584 Y95.0299 F900
G01 X68.2731 Y94.9917 F900
G01 X67.5113 Y94.6341 F900
G01 X67.4279 Y94.5920 F900
G01 X66.6834 Y94.1996 F900
G01 X66.6020 Y94.1537 F900
G01 X65.8765 Y93.7274 F900
G01 X65.7973 Y93.6778 F900
G01 X65.0922 Y93.2184 F900
G01 X65.0153 Y93.1652 F900
G01 X64.3322 Y92.6737 F900
G01 X64.2579 Y92.6170 F900
G01 X63.5983 Y92.0945 F900
G01 X63.5267 Y92.0344 F900
G01 X63.4242 Y91.9453 F900
G01 X62.8918 Y91.4820 F900
G01 X62.8231 Y91.4187 F900
G01 X62.2144 Y90.8375 F900
G01 X62.1487 Y90.7711 F900
G01 X61.5675 Y90.1625 F900
G01 X61.5049 Y90.0931 F900
G01 X60.9525 Y89.4582 F900
G01 X60.8931 Y89.3861 F900
G01 X60.3706 Y88.7264 F900
G01 X60.3147 Y88.6515 F900
G01 X59.8232 Y87.9684 F900
G01 X59.7707 Y87.8911 F900
G01 X59.3854 Y87.2997 F900
G01 Z-4.5000 F180
G01 X59.3113 Y87.1860 F900
G01 X59.2625 Y87.1063 F900
G01 X58.8361 Y86.3808 F900
G01 X58.7911 Y86.2989 F900
G01 X58.3986 Y85.5544 F900
G01 X58.3574 Y85.4706 F900
G01 X57.9998 Y84.7088 F900
G01 X57.9625 Y84.6231 F900
G01 X57.6404 Y83.8456 F900
G01 X57.6071 Y83.7583 F900
G01 X57.3213 Y82.9668 F900
G01 X57.2920 Y82.8780 F900
G01 X57.0431 Y82.0741 F900
G01 X57.0180 Y81.9841 F900
G01 X56.8064 Y81.1696 F900
G01 X56.7855 Y81.0785 F900
G01 X56.6118 Y80.2551 F900
G01 X56.5951 Y80.1632 F900
G01 X56.4596 Y79.3326 F900
G01 X56.4471 Y79.2400 F900
G01 X56.3502 Y78.4040 F900
G01 X56.3420 Y78.3110 F900
G01 X56.2837 Y77.4714 F900
G01 X56.2799 Y77.3781 F900
G01 X56.2604 Y76.5367 F900
G01 X56.2609 Y76.4433 F900
G01 X56.2803 Y75.6020 F900
G01 X56.2851 Y75.5086 F900
G01 X56.3434 Y74.6691 F900
G01 X56.3525 Y74.5761 F900
G01 X56.4494 Y73.7401 F900
G01 X56.4628 Y73.6477 F900
G01 X56.5983 Y72.8171 F900
G01 X56.6159 Y72.7253 F900
G01 X56.7896 Y71.9019 F900
G01 X56.8115 Y71.8110 F900
G01 X57.0230 Y70.9965 F900
G01 X57.0490 Y70.9067 F900
G01 X57.2980 Y70.1029 F900
G01 X57.3281 Y70.0144 F900
G01 X57.6139 Y69.2229 F900
G01 X57.6481 Y69.1359 F900
G01 X57.9701 Y68.3584 F900
G01 X58.0083 Y68.2731 F900
G01 X58.3659 Y67.5113 F900
G01 X58.4080 Y67.4279 F900
G01 X58.8004 Y66.6834 F900
G01 X58.8463 Y66.6020 F900
G01 X59.2726 Y65.8765 F900
G01 X59.3222 Y65.7973 F900
G01 X59.7816 Y65.0922 F900
G01 X59.8348 Y65.0153 F900
G01 X60.3263 Y64.3322 F900
G01 X60.3830 Y64.2579 F900
G01 X60.9055 Y63.5983 F900
G01 X60.9656 Y63.5267 F900
G01 X61.5180 Y62.8918 F900
G01 X61.5813 Y62.8231 F900
G01 X62.1625 Y62.2144 F900
G01 X62.2289 Y62.1487 F900
G01 X62.8375 Y61.5675 F900
G01 X62.9069 Y61.5049 F900
G01 X63.5418 Y60.9525 F900
G01 X63.6139 Y60.8931 F900
G01 X64.2736 Y60.3706 F900
G01 X64.3485 Y60.3147 F900
G01 X65.0316 Y59.8232 F900
G01 X65.1089 Y59.7707 F900
G01 X65.8140 Y59.3113 F900
G01 X65.8937 Y59.2625 F900
G01 X66.6192 Y58.8361 F900
G01 X66.7011 Y58.7911 F900
G01 X67.4456 Y58.3986 F900
G01 X67.5294 Y58.3574 F900
G01 X68.2912 Y57.9998 F900
G01 X68.3769 Y57.9625 F900
G01 X69.1544 Y57.6404 F900
G01 X69.2417 Y57.6071 F900
G01 X70.0332 Y57.3213 F900
G01 X70.1220 Y57.2920 F900
G01 X70.9259 Y57.0431 F900
G01 X71.0159 Y57.0180 F900
G01 X71.8304 Y56.8064 F900
G01 X71.9215 Y56.7855 F900
G01 X72.7449 Y56.6118 F900
G01 X72.8368 Y56.5951 F900
G01 X73.6674 Y56.4596 F900
G01 X73.7600 Y56.4471 F900
G01 X74.5960 Y56.3502 F900
G01 X74.6890 Y56.3420 F900
G01 X75.5286 Y56.2837 F900
G01 X75.6219 Y56.2799 F900
G01 X76.4633 Y56.2604 F900
G01 X76.5567 Y56.2609 F900
G01 X77.3980 Y56.2803 F900
G01 X77.4914 Y56.2851 F900
G01 X78.3309 Y56.3434 F900
G01 X78.4239 Y56.3525 F900
G01 X79.2599 Y56.4494 F900
G01 X79.3523 Y56.4628 F900
G01 X80.1829 Y56.5983 F900
G01 X80.2747 Y56.6159 F900
G01 X81.0981 Y56.7896 F900
G01 X81.1890 Y56.8115 F900
G01 X82.0035 Y57.0230 F900
G01 X82.0933 Y57.0490 F900
G01 X82.8971 Y57.2980 F900
G01 X82.9856 Y57.3281 F900
G01 X83.7771 Y57.6139 F900
G01 X83.8641 Y57.6481 F900
G01 X84.6416 Y57.9701 F900
G01 X84.7269 Y58.0083 F900
G01 X85.4887 Y58.3659 F900
G01 X85.5721 Y58.4080 F900
G01 X86.3166 Y58.8004 F900
G01 X86.3980 Y58.8463 F900
G01 X87.1235 Y59.2726 F900
G01 X87.2027 Y59.3222 F900
G01 X87.9078 Y59.7816 F900
G01 X87.9847 Y59.8348 F900
G01 X88.6678 Y60.3263 F900
G01 X88.7421 Y60.3830 F900
G01 X89.4017 Y60.9055 F900
G01 X89.4733 Y60.9656 F900
G01 X90.1082 Y61.5180 F900
G01 X90.1736 Y61.5783 F900
G01 X90.7856 Y62.1625 F900
G01 X90.8513 Y62.2289 F900
G01 X91.4325 Y62.8375 F900
G01 X91.4951 Y62.9069 F900
G01 X92.0475 Y63.5418 F900
G01 X92.1069 Y63.6139 F900
G01 X92.6294 Y64.2736 F900
G01 X92.6853 Y64.3485 F900
G01 X93.1768 Y65.0316 F900
G01 X93.2293 Y65.1089 F900
G01 X93.6887 Y65.8140 F900
G01 X93.7375 Y65.8937 F900
G01 X94.0240 Y66.3813 F900
G01 X94.1639 Y66.6192 F900
G01 X94.2089 Y66.7011 F900
G01 X94.6014 Y67.4456 F900
G01 X94.6426 Y67.5294 F900
G01 X95.0002 Y68.2912 F900
G01 X95.0375 Y68.3769 F900
G01 X95.3596 Y69.1544 F900
G01 X95.3929 Y69.2417 F900
G01 X95.6787 Y70.0332 F900
G01 X95.7080 Y70.1220 F900
G01 X95.9569 Y70.9259 F900
G01 X95.9820 Y71.0159 F900
G01 X96.1936 Y71.8304 F900
G01 X96.2145 Y71.9215 F900
G01 X96.3882 Y72.7449 F900
G01 X96.4049 Y72.8368 F900
G01 X96.5404 Y73.6674 F900
G01 X96.5529 Y73.7600 F900
G01 X96.6498 Y74.5960 F900
G01 X96.6580 Y74.6890 F900
G01 X96.7163 Y75.5286 F900
G01 X96.7201 Y75.6219 F900
G01 X96.7396 Y76.4633 F900
G01 X96.7391 Y76.5567 F900
G01 X96.7197 Y77.3980 F900
G01 X96.7149 Y77.4914 F900
G01 X96.6566 Y78.3309 F900
G01 X96.6475 Y78.4239 F900
G01 X96.5506 Y79.2599 F900
G01 X96.5372 Y79.3523 F900
G01 X96.4017 Y80.1829 F900
G01 X96.3841 Y80.2747 F900
G01 X96.2104 Y81.0981 F900
G01 X96.1885 Y81.1890 F900
G01 X95.9770 Y82.0035 F900
G01 X95.9510 Y82.0933 F900
G01 X95.7020 Y82.8971 F900
G01 X95.6719 Y82.9856 F900
G01 X95.3861 Y83.7771 F900
G01 X95.3519 Y83.8641 F900
G01 X95.0299 Y84.6416 F900
G01 X94.9917 Y84.7269 F900
G01 X94.6341 Y85.4887 F900
G01 X94.5920 Y85.5721 F900
G01 X94.1996 Y86.3166 F900
G01 X94.1537 Y86.3980 F900
G01 X93.7274 Y87.1235 F900
G01 X93.6778 Y87.2027 F900
G01 X93.2184 Y87.9078 F900
G01 X93.1652 Y87.9847 F900
G01 X92.6737 Y88.6678 F900
G01 X92.6170 Y88.7421 F900
G01 X92.0945 Y89.4017 F900
G01 X92.0344 Y89.4733 F900
G01 X91.4820 Y90.1082 F900
G01 X91.4187 Y90.1769 F900
G01 X90.8375 Y90.7856 F900
G01 X90.7711 Y90.8513 F900
G01 X90.1625 Y91.4325 F900
G01 X90.0931 Y91.4951 F900
G01 X89.4582 Y92.0475 F900
G01 X89.3861 Y92.1069 F900
G01 X88.7264 Y92.6294 F900
G01 X88.6515 Y92.6853 F900
G01 X87.9684 Y93.1768 F900
G01 X87.8911 Y93.2293 F900
G01 X87.1860 Y93.6887 F900
G01 X87.1063 Y93.7375 F900
G01 X86.3808 Y94.1639 F900
G01 X86.2989 Y94.2089 F900
G01 X85.5544 Y94.6014 F900
G01 X85.4706 Y94.6426 F900
G01 X84.7088 Y95.0002 F900
G01 X84.6231 Y95.0375 F900
G01 X83.8456 Y95.3596 F900
G01 X83.7583 Y95.3929 F900
G01 X82.9668 Y95.6787 F900
G01 X82.8780 Y95.7080 F900
G01 X82.0741 Y95.9569 F900
G01 X81.9841 Y95.9820 F900
G01 X81.1696 Y96.1936 F900
G01 X81.0785 Y96.2145 F900
G01 X80.2551 Y96.3882 F900
G01 X80.1632 Y96.4049 F900
G01 X79.3326 Y96.5404 F900
G01 X79.2400 Y96.5529 F900
G01 X78.4040 Y96.6498 F900
G01 X78.3110 Y96.6580 F900
G01 X77.4714 Y96.7163 F900
G01 X77.3781 Y96.7201 F900
G01 X76.5367 Y96.7396 F900
G01 X76.4433 Y96.7391 F900
G01 X75.6020 Y96.7197 F900
G01 X75.5086 Y96.7149 F900
G01 X74.6691 Y96.6566 F900
G01 X74.5761 Y96.6475 F900
G01 X73.7401 Y96.5506 F900
G01 X73.6477 Y96.5372 F900
G01 X72.8171 Y96.4017 F900
G01 X72.7253 Y96.3841 F900
G01 X71.9019 Y96.2104 F900
G01 X71.8110 Y96.1885 F900
G01 X70.9965 Y95.9770 F900
G01 X70.9067 Y95.9510 F900
G01 X70.1029 Y95.7020 F900
G01 X70.0144 Y95.6719 F900
G01 X69.2229 Y95.3861 F900
G01 X69.1359 Y95.3519 F900
G01 X68.3584 Y95.0299 F900
G01 X68.2731 Y94.9917 F900
G01 X67.5113 Y94.6341 F900
G01 X67.4279 Y94.5920 F900
G01 X66.6834 Y94.1996 F900
G01 X66.6020 Y94.1537 F900
G01 X65.8765 Y93.7274 F900
G01 X65.7973 Y93.6778 F900
G01 X65.0922 Y93.2184 F900
G01 X65.0153 Y93.1652 F900
G01 X64.3322 Y92.6737 F900
G01 X64.2579 Y92.6170 F900
G01 X63.5983 Y92.0945 F900
G01 X63.5267 Y92.0344 F900
G01 X63.4242 Y91.9453 F900
G01 X62.8918 Y91.4820 F900
G01 X62.8231 Y91.4187 F900
G01 X62.2144 Y90.8375 F900
G01 X62.1487 Y90.7711 F900
G01 X61.5675 Y90.1625 F900
G01 X61.5049 Y90.0931 F900
G01 X60.9525 Y89.4582 F900
G01 X60.8931 Y89.3861 F900
G01 X60.3706 Y88.7264 F900
G01 X60.3147 Y88.6515 F900
G01 X59.8232 Y87.9684 F900
G01 X59.7707 Y87.8911 F900
G01 X59.3854 Y87.2997 F900
G01 Z-6.0000 F180
G01 X59.3113 Y87.1860 F900
G01 X59.2625 Y87.1063 F900
G01 X58.8361 Y86.3808 F900
G01 X58.7911 Y86.2989 F900
G01 X58.3986 Y85.5544 F900
G01 X58.3574 Y85.4706 F900
G01 X57.9998 Y84.7088 F900
G01 X57.9625 Y84.6231 F900
G01 X57.6404 Y83.8456 F900
G01 X57.6071 Y83.7583 F900
G01 X57.3213 Y82.9668 F900
G01 X57.2920 Y82.8780 F900
G01 X57.0431 Y82.0741 F900
G01 X57.0180 Y81.9841 F900
G01 X56.8064 Y81.1696 F900
G01 X56.7855 Y81.0785 F900
G01 X56.6118 Y80.2551 F900
G01 X56.5951 Y80.1632 F900
G01 X56.4596 Y79.3326 F900
G01 X56.4471 Y79.2400 F900
G01 X56.3502 Y78.4040 F900
G01 X56.3420 Y78.3110 F900
G01 X56.2837 Y77.4714 F900
G01 X56.2799 Y77.3781 F900
G01 X56.2604 Y76.5367 F900
G01 X56.2609 Y76.4433 F900
G01 X56.2803 Y75.6020 F900
G01 X56.2851 Y75.5086 F900
G01 X56.3434 Y74.6691 F900
G01 X56.3525 Y74.5761 F900
G01 X56.4494 Y73.7401 F900
G01 X56.4628 Y73.6477 F900
G01 X56.5983 Y72.8171 F900
G01 X56.6159 Y72.7253 F900
G01 X56.7896 Y71.9019 F900
G01 X56.8115 Y71.8110 F900
G01 X57.0230 Y70.9965 F900
G01 X57.0490 Y70.9067 F900
G01 X57.2980 Y70.1029 F900
G01 X57.3281 Y70.0144 F900
G01 X57.6139 Y69.2229 F900
G01 X57.6481 Y69.1359 F900
G01 X57.9701 Y68.3584 F900
G01 X58.0083 Y68.2731 F900
G01 X58.3659 Y67.5113 F900
G01 X58.4080 Y67.4279 F900
G01 X58.8004 Y66.6834 F900
G01 X58.8463 Y66.6020 F900
G01 X59.2726 Y65.8765 F900
G01 X59.3222 Y65.7973 F900
G01 X59.7816 Y65.0922 F900
G01 X59.8348 Y65.0153 F900
G01 X60.3263 Y64.3322 F900
G01 X60.3830 Y64.2579 F900
G01 X60.9055 Y63.5983 F900
G01 X60.9656 Y63.5267 F900
G01 X61.5180 Y62.8918 F900
G01 X61.5813 Y62.8231 F900
G01 X62.1625 Y62.2144 F900
G01 X62.2289 Y62.1487 F900
G01 X62.8375 Y61.5675 F900
G01 X62.9069 Y61.5049 F900
G01 X63.5418 Y60.9525 F900
G01 X63.6139 Y60.8931 F900
G01 X64.2736 Y60.3706 F900
G01 X64.3485 Y60.3147 F900
G01 X65.0316 Y59.8232 F900
G01 X65.1089 Y59.7707 F900
G01 X65.8140 Y59.3113 F900
G01 X65.8937 Y59.2625 F900
G01 X66.6192 Y58.8361 F900
G01 X66.7011 Y58.7911 F900
G01 X67.4456 Y58.3986 F900
G01 X67.5294 Y58.3574 F900
G01 X68.2912 Y57.9998 F900
G01 X68.3769 Y57.9625 F900
G01 X69.1544 Y57.6404 F900
G01 X69.2417 Y57.6071 F900
G01 X70.0332 Y57.3213 F900
G01 X70.1220 Y57.2920 F900
G01 X70.9259 Y57.0431 F900
G01 X71.0159 Y57.0180 F900
G01 X71.8304 Y56.8064 F900
G01 X71.9215 Y56.7855 F900
G01 X72.7449 Y56.6118 F900
G01 X72.8368 Y56.5951 F900
G01 X73.6674 Y56.4596 F900
G01 X73.7600 Y56.4471 F900
G01 X74.5960 Y56.3502 F900
G01 X74.6890 Y56.3420 F900
G01 X75.5286 Y56.2837 F900
G01 X75.6219 Y56.2799 F900
G01 X76.4633 Y56.2604 F900
G01 X76.5567 Y56.2609 F900
G01 X77.3980 Y56.2803 F900
G01 X77.4914 Y56.2851 F900
G01 X78.3309 Y56.3434 F900
G01 X78.4239 Y56.3525 F900
G01 X79.2599 Y56.4494 F900
G01 X79.3523 Y56.4628 F900
G01 X80.1829 Y56.5983 F900
G01 X80.2747 Y56.6159 F900
G01 X81.0981 Y56.7896 F900
G01 X81.1890 Y56.8115 F900
G01 X82.0035 Y57.0230 F900
G01 X82.0933 Y57.0490 F900
G01 X82.8971 Y57.2980 F900
G01 X82.9856 Y57.3281 F900
G01 X83.7771 Y57.6139 F900
G01 X83.8641 Y57.6481 F900
G01 X84.6416 Y57.9701 F900
G01 X84.7269 Y58.0083 F900
G01 X85.4887 Y58.3659 F900
G01 X85.5721 Y58.4080 F900
G01 X86.3166 Y58.8004 F900
G01 X86.3980 Y58.8463 F900
G01 X87.1235 Y59.2726 F900
G01 X87.2027 Y59.3222 F900
G01 X87.9078 Y59.7816 F900
G01 X87.9847 Y59.8348 F900
G01 X88.6678 Y60.3263 F900
G01 X88.7421 Y60.3830 F900
G01 X89.4017 Y60.9055 F900
G01 X89.4733 Y60.9656 F900
G01 X90.1082 Y61.5180 F900
G01 X90.1736 Y61.5783 F900
G01 X90.7856 Y62.1625 F900
G01 X90.8513 Y62.2289 F900
G01 X91.4325 Y62.8375 F900
G01 X91.4951 Y62.9069 F900
G01 X92.0475 Y63.5418 F900
G01 X92.1069 Y63.6139 F900
G01 X92.6294 Y64.2736 F900
G01 X92.6853 Y64.3485 F900
G01 X93.1768 Y65.0316 F900
G01 X93.2293 Y65.1089 F900
G01 X93.6887 Y65.8140 F900
G01 X93.7375 Y65.8937 F900
G01 X94.0240 Y66.3813 F900
G01 X94.1639 Y66.6192 F900
G01 X94.2089 Y66.7011 F900
G01 X94.6014 Y67.4456 F900
G01 X94.6426 Y67.5294 F900
G01 X95.0002 Y68.2912 F900
G01 X95.0375 Y68.3769 F900
G01 X95.3596 Y69.1544 F900
G01 X95.3929 Y69.2417 F900
G01 X95.6787 Y70.0332 F900
G01 X95.7080 Y70.1220 F900
G01 X95.9569 Y70.9259 F900
G01 X95.9820 Y71.0159 F900
G01 X96.1936 Y71.8304 F900
G01 X96.2145 Y71.9215 F900
G01 X96.3882 Y72.7449 F900
G01 X96.4049 Y72.8368 F900
G01 X96.5404 Y73.6674 F900
G01 X96.5529 Y73.7600 F900
G01 X96.6498 Y74.5960 F900
G01 X96.6580 Y74.6890 F900
G01 X96.7163 Y75.5286 F900
G01 X96.7201 Y75.6219 F900
G01 X96.7396 Y76.4633 F900
G01 X96.7391 Y76.5567 F900
G01 X96.7197 Y77.3980 F900
G01 X96.7149 Y77.4914 F900
G01 X96.6566 Y78.3309 F900
G01 X96.6475 Y78.4239 F900
G01 X96.5506 Y79.2599 F900
G01 X96.5372 Y79.3523 F900
G01 X96.4017 Y80.1829 F900
G01 X96.3841 Y80.2747 F900
G01 X96.2104 Y81.0981 F900
G01 X96.1885 Y81.1890 F900
G01 X95.9770 Y82.0035 F900
G01 X95.9510 Y82.0933 F900
G01 X95.7020 Y82.8971 F900
G01 X95.6719 Y82.9856 F900
G01 X95.3861 Y83.7771 F900
G01 X95.3519 Y83.8641 F900
G01 X95.0299 Y84.6416 F900
G01 X94.9917 Y84.7269 F900
G01 X94.6341 Y85.4887 F900
G01 X94.5920 Y85.5721 F900
G01 X94.1996 Y86.3166 F900
G01 X94.1537 Y86.3980 F900
G01 X93.7274 Y87.1235 F900
G01 X93.6778 Y87.2027 F900
G01 X93.2184 Y87.9078 F900
G01 X93.1652 Y87.9847 F900
G01 X92.6737 Y88.6678 F900
G01 X92.6170 Y88.7421 F900
G01 X92.0945 Y89.4017 F900
G01 X92.0344 Y89.4733 F900
G01 X91.4820 Y90.1082 F900
G01 X91.4187 Y90.1769 F900
G01 X90.8375 Y90.7856 F900
G01 X90.7711 Y90.8513 F900
G01 X90.1625 Y91.4325 F900
G01 X90.0931 Y91.4951 F900
G01 X89.4582 Y92.0475 F900
G01 X89.3861 Y92.1069 F900
G01 X88.7264 Y92.6294 F900
G01 X88.6515 Y92.6853 F900
G01 X87.9684 Y93.1768 F900
G01 X87.8911 Y93.2293 F900
G01 X87.1860 Y93.6887 F900
G01 X87.1063 Y93.7375 F900
G01 X86.3808 Y94.1639 F900
G01 X86.2989 Y94.2089 F900
G01 X85.5544 Y94.6014 F900
G01 X85.4706 Y94.6426 F900
G01 X84.7088 Y95.0002 F900
G01 X84.6231 Y95.0375 F900
G01 X83.8456 Y95.3596 F900
G01 X83.7583 Y95.3929 F900
G01 X82.9668 Y95.6787 F900
G01 X82.8780 Y95.7080 F900
G01 X82.0741 Y95.9569 F900
G01 X81.9841 Y95.9820 F900
G01 X81.1696 Y96.1936 F900
G01 X81.0785 Y96.2145 F900
G01 X80.2551 Y96.3882 F900
G01 X80.1632 Y96.4049 F900
G01 X79.3326 Y96.5404 F900
G01 X79.2400 Y96.5529 F900
G01 X78.4040 Y96.6498 F900
G01 X78.3110 Y96.6580 F900
G01 X77.4714 Y96.7163 F900
G01 X77.3781 Y96.7201 F900
G01 X76.5367 Y96.7396 F900
G01 X76.4433 Y96.7391 F900
G01 X75.6020 Y96.7197 F900
G01 X75.5086 Y96.7149 F900
G01 X74.6691 Y96.6566 F900
G01 X74.5761 Y96.6475 F900
G01 X73.7401 Y96.5506 F900
G01 X73.6477 Y96.5372 F900
G01 X72.8171 Y96.4017 F900
G01 X72.7253 Y96.3841 F900
G01 X71.9019 Y96.2104 F900
G01 X71.8110 Y96.1885 F900
G01 X70.9965 Y95.9770 F900
G01 X70.9067 Y95.9510 F900
G01 X70.1029 Y95.7020 F900
G01 X70.0144 Y95.6719 F900
G01 X69.2229 Y95.3861 F900
G01 X69.1359 Y95.3519 F900
G01 X68.3584 Y95.0299 F900
G01 X68.2731 Y94.9917 F900
G01 X67.5113 Y94.6341 F900
G01 X67.4279 Y94.5920 F900
G01 X66.6834 Y94.1996 F900
G01 X66.6020 Y94.1537 F900
G01 X65.8765 Y93.7274 F900
G01 X65.7973 Y93.6778 F900
G01 X65.0922 Y93.2184 F900
G01 X65.0153 Y93.1652 F900
G01 X64.3322 Y92.6737 F900
G01 X64.2579 Y92.6170 F900
G01 X63.5983 Y92.0945 F900
G01 X63.5267 Y92.0344 F900
G01 X63.4242 Y91.9453 F900
G01 X62.8918 Y91.4820 F900
G01 X62.8231 Y91.4187 F900
G01 X62.2144 Y90.8375 F900
G01 X62.1487 Y90.7711 F900
G01 X61.5675 Y90.1625 F900
G01 X61.5049 Y90.0931 F900
G01 X60.9525 Y89.4582 F900
G01 X60.8931 Y89.3861 F900
G01 X60.3706 Y88.7264 F900
G01 X60.3147 Y88.6515 F900
G01 X59.8232 Y87.9684 F900
G01 X59.7707 Y87.8911 F900
G01 X59.3854 Y87.2997 F900
G01 Z-7.5000 F180
G01 X59.3113 Y87.1860 F900
G01 X59.2625 Y87.1063 F900
G01 X58.8361 Y86.3808 F900
G01 X58.7911 Y86.2989 F900
G01 X58.3986 Y85.5544 F900
G01 X58.3574 Y85.4706 F900
G01 X57.9998 Y84.7088 F900
G01 X57.9625 Y84.6231 F900
G01 X57.6404 Y83.8456 F900
G01 X57.6071 Y83.7583 F900
G01 X57.3213 Y82.9668 F900
G01 X57.2920 Y82.8780 F900
G01 X57.0431 Y82.0741 F900
G01 X57.0180 Y81.9841 F900
G01 X56.8064 Y81.1696 F900
G01 X56.7855 Y81.0785 F900
G01 X56.6118 Y80.2551 F900
G01 X56.5951 Y80.1632 F900
G01 X56.4596 Y79.3326 F900
G01 X56.4471 Y79.2400 F900
G01 X56.3502 Y78.4040 F900
G01 X56.3420 Y78.3110 F900
G01 X56.2837 Y77.4714 F900
G01 X56.2799 Y77.3781 F900
G01 X56.2604 Y76.5367 F900
G01 X56.2609 Y76.4433 F900
G01 X56.2803 Y75.6020 F900
G01 X56.2851 Y75.5086 F900
G01 X56.3434 Y74.6691 F900
G01 X56.3525 Y74.5761 F900
G01 X56.4494 Y73.7401 F900
G01 X56.4628 Y73.6477 F900
G01 X56.5983 Y72.8171 F900
G01 X56.6159 Y72.7253 F900
G01 X56.7896 Y71.9019 F900
G01 X56.8115 Y71.8110 F900
G01 X57.0230 Y70.9965 F900
G01 X57.0490 Y70.9067 F900
G01 X57.2980 Y70.1029 F900
G01 X57.3281 Y70.0144 F900
G01 X57.6139 Y69.2229 F900
G01 X57.6481 Y69.1359 F900
G01 X57.9701 Y68.3584 F900
G01 X58.0083 Y68.2731 F900
G01 X58.3659 Y67.5113 F900
G01 X58.4080 Y67.4279 F900
G01 X58.8004 Y66.6834 F900
G01 X58.8463 Y66.6020 F900
G01 X59.2726 Y65.8765 F900
G01 X59.3222 Y65.7973 F900
G01 X59.7816 Y65.0922 F900
G01 X59.8348 Y65.0153 F900
G01 X60.3263 Y64.3322 F900
G01 X60.3830 Y64.2579 F900
G01 X60.9055 Y63.5983 F900
G01 X60.9656 Y63.5267 F900
G01 X61.5180 Y62.8918 F900
G01 X61.5813 Y62.8231 F900
G01 X62.1625 Y62.2144 F900
G01 X62.2289 Y62.1487 F900
G01 X62.8375 Y61.5675 F900
G01 X62.9069 Y61.5049 F900
G01 X63.5418 Y60.9525 F900
G01 X63.6139 Y60.8931 F900
G01 X64.2736 Y60.3706 F900
G01 X64.3485 Y60.3147 F900
G01 X65.0316 Y59.8232 F900
G01 X65.1089 Y59.7707 F900
G01 X65.8140 Y59.3113 F900
G01 X65.8937 Y59.2625 F900
G01 X66.6192 Y58.8361 F900
G01 X66.7011 Y58.7911 F900
G01 X67.4456 Y58.3986 F900
G01 X67.5294 Y58.3574 F900
G01 X68.2912 Y57.9998 F900
G01 X68.3769 Y57.9625 F900
G01 X69.1544 Y57.6404 F900
G01 X69.2417 Y57.6071 F900
G01 X70.0332 Y57.3213 F900
G01 X70.1220 Y57.2920 F900
G01 X70.9259 Y57.0431 F900
G01 X71.0159 Y57.0180 F900
G01 X71.8304 Y56.8064 F900
G01 X71.9215 Y56.7855 F900
G01 X72.7449 Y56.6118 F900
G01 X72.8368 Y56.5951 F900
G01 X73.6674 Y56.4596 F900
G01 X73.7600 Y56.4471 F900
G01 X74.5960 Y56.3502 F900
G01 X74.6890 Y56.3420 F900
G01 X75.5286 Y56.2837 F900
G01 X75.6219 Y56.2799 F900
G01 X76.4633 Y56.2604 F900
G01 X76.5567 Y56.2609 F900
G01 X77.3980 Y56.2803 F900
G01 X77.4914 Y56.2851 F900
G01 X78.3309 Y56.3434 F900
G01 X78.4239 Y56.3525 F900
G01 X79.2599 Y56.4494 F900
G01 X79.3523 Y56.4628 F900
G01 X80.1829 Y56.5983 F900
G01 X80.2747 Y56.6159 F900
G01 X81.0981 Y56.7896 F900
G01 X81.1890 Y56.8115 F900
G01 X82.0035 Y57.0230 F900
G01 X82.0933 Y57.0490 F900
G01 X82.8971 Y57.2980 F900
G01 X82.9856 Y57.3281 F900
G01 X83.7771 Y57.6139 F900
G01 X83.8641 Y57.6481 F900
G01 X84.6416 Y57.9701 F900
G01 X84.7269 Y58.0083 F900
G01 X85.4887 Y58.3659 F900
G01 X85.5721 Y58.4080 F900
G01 X86.3166 Y58.8004 F900
G01 X86.3980 Y58.8463 F900
G01 X87.1235 Y59.2726 F900
G01 X87.2027 Y59.3222 F900
G01 X87.9078 Y59.7816 F900
G01 X87.9847 Y59.8348 F900
G01 X88.6678 Y60.3263 F900
G01 X88.7421 Y60.3830 F900
G01 X89.4017 Y60.9055 F900
G01 X89.4733 Y60.9656 F900
G01 X90.1082 Y61.5180 F900
G01 X90.1736 Y61.5783 F900
G01 X90.7856 Y62.1625 F900
G01 X90.8513 Y62.2289 F900
G01 X91.4325 Y62.8375 F900
G01 X91.4951 Y62.9069 F900
G01 X92.0475 Y63.5418 F900
G01 X92.1069 Y63.6139 F900
G01 X92.6294 Y64.2736 F900
G01 X92.6853 Y64.3485 F900
G01 X93.1768 Y65.0316 F900
G01 X93.2293 Y65.1089 F900
G01 X93.6887 Y65.8140 F900
G01 X93.7375 Y65.8937 F900
G01 X94.0240 Y66.3813 F900
G01 X94.1639 Y66.6192 F900
G01 X94.2089 Y66.7011 F900
G01 X94.6014 Y67.4456 F900
G01 X94.6426 Y67.5294 F900
G01 X95.0002 Y68.2912 F900
G01 X95.0375 Y68.3769 F900
G01 X95.3596 Y69.1544 F900
G01 X95.3929 Y69.2417 F900
G01 X95.6787 Y70.0332 F900
G01 X95.7080 Y70.1220 F900
G01 X95.9569 Y70.9259 F900
G01 X95.9820 Y71.0159 F900
G01 X96.1936 Y71.8304 F900
G01 X96.2145 Y71.9215 F900
G01 X96.3882 Y72.7449 F900
G01 X96.4049 Y72.8368 F900
G01 X96.5404 Y73.6674 F900
G01 X96.5529 Y73.7600 F900
G01 X96.6498 Y74.5960 F900
G01 X96.6580 Y74.6890 F900
G01 X96.7163 Y75.5286 F900
G01 X96.7201 Y75.6219 F900
G01 X96.7396 Y76.4633 F900
G01 X96.7391 Y76.5567 F900
G01 X96.7197 Y77.3980 F900
G01 X96.7149 Y77.4914 F900
G01 X96.6566 Y78.3309 F900
G01 X96.6475 Y78.4239 F900
G01 X96.5506 Y79.2599 F900
G01 X96.5372 Y79.3523 F900
G01 X96.4017 Y80.1829 F900
G01 X96.3841 Y80.2747 F900
G01 X96.2104 Y81.0981 F900
G01 X96.1885 Y81.1890 F900
G01 X95.9770 Y82.0035 F900
G01 X95.9510 Y82.0933 F900
G01 X95.7020 Y82.8971 F900
G01 X95.6719 Y82.9856 F900
G01 X95.3861 Y83.7771 F900
G01 X95.3519 Y83.8641 F900
G01 X95.0299 Y84.6416 F900
G01 X94.9917 Y84.7269 F900
G01 X94.6341 Y85.4887 F900
G01 X94.5920 Y85.5721 F900
G01 X94.1996 Y86.3166 F900
G01 X94.1537 Y86.3980 F900
G01 X93.7274 Y87.1235 F900
G01 X93.6778 Y87.2027 F900
G01 X93.2184 Y87.9078 F900
G01 X93.1652 Y87.9847 F900
G01 X92.6737 Y88.6678 F900
G01 X92.6170 Y88.7421 F900
G01 X92.0945 Y89.4017 F900
G01 X92.0344 Y89.4733 F900
G01 X91.4820 Y90.1082 F900
G01 X91.4187 Y90.1769 F900
G01 X90.8375 Y90.7856 F900
G01 X90.7711 Y90.8513 F900
G01 X90.1625 Y91.4325 F900
G01 X90.0931 Y91.4951 F900
G01 X89.4582 Y92.0475 F900
G01 X89.3861 Y92.1069 F900
G01 X88.7264 Y92.6294 F900
G01 X88.6515 Y92.6853 F900
G01 X87.9684 Y93.1768 F900
G01 X87.8911 Y93.2293 F900
G01 X87.1860 Y93.6887 F900
G01 X87.1063 Y93.7375 F900
G01 X86.3808 Y94.1639 F900
G01 X86.2989 Y94.2089 F900
G01 X85.5544 Y94.6014 F900
G01 X85.4706 Y94.6426 F900
G01 X84.7088 Y95.0002 F900
G01 X84.6231 Y95.0375 F900
G01 X83.8456 Y95.3596 F900
G01 X83.7583 Y95.3929 F900
G01 X82.9668 Y95.6787 F900
G01 X82.8780 Y95.7080 F900
G01 X82.0741 Y95.9569 F900
G01 X81.9841 Y95.9820 F900
G01 X81.1696 Y96.1936 F900
G01 X81.0785 Y96.2145 F900
G01 X80.2551 Y96.3882 F900
G01 X80.1632 Y96.4049 F900
G01 X79.3326 Y96.5404 F900
G01 X79.2400 Y96.5529 F900
G01 X78.4040 Y96.6498 F900
G01 X78.3110 Y96.6580 F900
G01 X77.4714 Y96.7163 F900
G01 X77.3781 Y96.7201 F900
G01 X76.5367 Y96.7396 F900
G01 X76.4433 Y96.7391 F900
G01 X75.6020 Y96.7197 F900
G01 X75.5086 Y96.7149 F900
G01 X74.6691 Y96.6566 F900
G01 X74.5761 Y96.6475 F900
G01 X73.7401 Y96.5506 F900
G01 X73.6477 Y96.5372 F900
G01 X72.8171 Y96.4017 F900
G01 X72.7253 Y96.3841 F900
G01 X71.9019 Y96.2104 F900
G01 X71.8110 Y96.1885 F900
G01 X70.9965 Y95.9770 F900
G01 X70.9067 Y95.9510 F900
G01 X70.1029 Y95.7020 F900
G01 X70.0144 Y95.6719 F900
G01 X69.2229 Y95.3861 F900
G01 X69.1359 Y95.3519 F900
G01 X68.3584 Y95.0299 F900
G01 X68.2731 Y94.9917 F900
G01 X67.5113 Y94.6341 F900
G01 X67.4279 Y94.5920 F900
G01 X66.6834 Y94.1996 F900
G01 X66.6020 Y94.1537 F900
G01 X65.8765 Y93.7274 F900
G01 X65.7973 Y93.6778 F900
G01 X65.0922 Y93.2184 F900
G01 X65.0153 Y93.1652 F900
G01 X64.3322 Y92.6737 F900
G01 X64.2579 Y92.6170 F900
G01 X63.5983 Y92.0945 F900
G01 X63.5267 Y92.0344 F900
G01 X63.4242 Y91.9453 F900
G01 X62.8918 Y91.4820 F900
G01 X62.8231 Y91.4187 F900
G01 X62.2144 Y90.8375 F900
G01 X62.1487 Y90.7711 F900
G01 X61.5675 Y90.1625 F900
G01 X61.5049 Y90.0931 F900
G01 X60.9525 Y89.4582 F900
G01 X60.8931 Y89.3861 F900
G01 X60.3706 Y88.7264 F900
G01 X60.3147 Y88.6515 F900
G01 X59.8232 Y87.9684 F900
G01 X59.7707 Y87.8911 F900
G01 X59.3854 Y87.2997 F900
G01 Z-9.0000 F180
G01 X59.3113 Y87.1860 F900
G01 X59.2625 Y87.1063 F900
G01 X58.8361 Y86.3808 F900
G01 X58.7911 Y86.2989 F900
G01 X58.3986 Y85.5544 F900
G01 X58.3574 Y85.4706 F900
G01 X57.9998 Y84.7088 F900
G01 X57.9625 Y84.6231 F900
G01 X57.6404 Y83.8456 F900
G01 X57.6071 Y83.7583 F900
G01 X57.3213 Y82.9668 F900
G01 X57.2920 Y82.8780 F900
G01 X57.0431 Y82.0741 F900
G01 X57.0180 Y81.9841 F900
G01 X56.8064 Y81.1696 F900
G01 X56.7855 Y81.0785 F900
G01 X56.6118 Y80.2551 F900
G01 X56.5951 Y80.1632 F900
G01 X56.4596 Y79.3326 F900
G01 X56.4471 Y79.2400 F900
G01 X56.3502 Y78.4040 F900
G01 X56.3420 Y78.3110 F900
G01 X56.2837 Y77.4714 F900
G01 X56.2799 Y77.3781 F900
G01 X56.2604 Y76.5367 F900
G01 X56.2609 Y76.4433 F900
G01 X56.2803 Y75.6020 F900
G01 X56.2851 Y75.5086 F900
G01 X56.3434 Y74.6691 F900
G01 X56.3525 Y74.5761 F900
G01 X56.4494 Y73.7401 F900
G01 X56.4628 Y73.6477 F900
G01 X56.5983 Y72.8171 F900
G01 X56.6159 Y72.7253 F900
G01 X56.7896 Y71.9019 F900
G01 X56.8115 Y71.8110 F900
G01 X57.0230 Y70.9965 F900
G01 X57.0490 Y70.9067 F900
G01 X57.2980 Y70.1029 F900
G01 X57.3281 Y70.0144 F900
G01 X57.6139 Y69.2229 F900
G01 X57.6481 Y69.1359 F900
G01 X57.9701 Y68.3584 F900
G01 X58.0083 Y68.2731 F900
G01 X58.3659 Y67.5113 F900
G01 X58.4080 Y67.4279 F900
G01 X58.8004 Y66.6834 F900
G01 X58.8463 Y66.6020 F900
G01 X59.2726 Y65.8765 F900
G01 X59.3222 Y65.7973 F900
G01 X59.7816 Y65.0922 F900
G01 X59.8348 Y65.0153 F900
G01 X60.3263 Y64.3322 F900
G01 X60.3830 Y64.2579 F900
G01 X60.9055 Y63.5983 F900
G01 X60.9656 Y63.5267 F900
G01 X61.5180 Y62.8918 F900
G01 X61.5813 Y62.8231 F900
G01 X62.1625 Y62.2144 F900
G01 X62.2289 Y62.1487 F900
G01 X62.8375 Y61.5675 F900
G01 X62.9069 Y61.5049 F900
G01 X63.5418 Y60.9525 F900
G01 X63.6139 Y60.8931 F900
G01 X64.2736 Y60.3706 F900
G01 X64.3485 Y60.3147 F900
G01 X65.0316 Y59.8232 F900
G01 X65.1089 Y59.7707 F900
G01 X65.8140 Y59.3113 F900
G01 X65.8937 Y59.2625 F900
G01 X66.6192 Y58.8361 F900
G01 X66.7011 Y58.7911 F900
G01 X67.4456 Y58.3986 F900
G01 X67.5294 Y58.3574 F900
G01 X68.2912 Y57.9998 F900
G01 X68.3769 Y57.9625 F900
G01 X69.1544 Y57.6404 F900
G01 X69.2417 Y57.6071 F900
G01 X70.0332 Y57.3213 F900
G01 X70.1220 Y57.2920 F900
G01 X70.9259 Y57.0431 F900
G01 X71.0159 Y57.0180 F900
G01 X71.8304 Y56.8064 F900
G01 X71.9215 Y56.7855 F900
G01 X72.7449 Y56.6118 F900
G01 X72.8368 Y56.5951 F900
G01 X73.6674 Y56.4596 F900
G01 X73.7600 Y56.4471 F900
G01 X74.5960 Y56.3502 F900
G01 X74.6890 Y56.3420 F900
G01 X75.5286 Y56.2837 F900
G01 X75.6219 Y56.2799 F900
G01 X76.4633 Y56.2604 F900
G01 X76.5567 Y56.2609 F900
G01 X77.3980 Y56.2803 F900
G01 X77.4914 Y56.2851 F900
G01 X78.3309 Y56.3434 F900
G01 X78.4239 Y56.3525 F900
G01 X79.2599 Y56.4494 F900
G01 X79.3523 Y56.4628 F900
G01 X80.1829 Y56.5983 F900
G01 X80.2747 Y56.6159 F900
G01 X81.0981 Y56.7896 F900
G01 X81.1890 Y56.8115 F900
G01 X82.0035 Y57.0230 F900
G01 X82.0933 Y57.0490 F900
G01 X82.8971 Y57.2980 F900
G01 X82.9856 Y57.3281 F900
G01 X83.7771 Y57.6139 F900
G01 X83.8641 Y57.6481 F900
G01 X84.6416 Y57.9701 F900
G01 X84.7269 Y58.0083 F900
G01 X85.4887 Y58.3659 F900
G01 X85.5721 Y58.4080 F900
G01 X86.3166 Y58.8004 F900
G01 X86.3980 Y58.8463 F900
G01 X87.1235 Y59.2726 F900
G01 X87.2027 Y59.3222 F900
G01 X87.9078 Y59.7816 F900
G01 X87.9847 Y59.8348 F900
G01 X88.6678 Y60.3263 F900
G01 X88.7421 Y60.3830 F900
G01 X89.4017 Y60.9055 F900
G01 X89.4733 Y60.9656 F900
G01 X90.1082 Y61.5180 F900
G01 X90.1736 Y61.5783 F900
G01 X90.7856 Y62.1625 F900
G01 X90.8513 Y62.2289 F900
G01 X91.4325 Y62.8375 F900
G01 X91.4951 Y62.9069 F900
G01 X92.0475 Y63.5418 F900
G01 X92.1069 Y63.6139 F900
G01 X92.6294 Y64.2736 F900
G01 X92.6853 Y64.3485 F900
G01 X93.1768 Y65.0316 F900
G01 X93.2293 Y65.1089 F900
G01 X93.6887 Y65.8140 F900
G01 X93.7375 Y65.8937 F900
G01 X94.0240 Y66.3813 F900
G01 X94.1639 Y66.6192 F900
G01 X94.2089 Y66.7011 F900
G01 X94.6014 Y67.4456 F900
G01 X94.6426 Y67.5294 F900
G01 X95.0002 Y68.2912 F900
G01 X95.0375 Y68.3769 F900
G01 X95.3596 Y69.1544 F900
G01 X95.3929 Y69.2417 F900
G01 X95.6787 Y70.0332 F900
G01 X95.7080 Y70.1220 F900
G01 X95.9569 Y70.9259 F900
G01 X95.9820 Y71.0159 F900
G01 X96.1936 Y71.8304 F900
G01 X96.2145 Y71.9215 F900
G01 X96.3882 Y72.7449 F900
G01 X96.4049 Y72.8368 F900
G01 X96.5404 Y73.6674 F900
G01 X96.5529 Y73.7600 F900
G01 X96.6498 Y74.5960 F900
G01 X96.6580 Y74.6890 F900
G01 X96.7163 Y75.5286 F900
G01 X96.7201 Y75.6219 F900
G01 X96.7396 Y76.4633 F900
G01 X96.7391 Y76.5567 F900
G01 X96.7197 Y77.3980 F900
G01 X96.7149 Y77.4914 F900
G01 X96.6566 Y78.3309 F900
G01 X96.6475 Y78.4239 F900
G01 X96.5506 Y79.2599 F900
G01 X96.5372 Y79.3523 F900
G01 X96.4017 Y80.1829 F900
G01 X96.3841 Y80.2747 F900
G01 X96.2104 Y81.0981 F900
G01 X96.1885 Y81.1890 F900
G01 X95.9770 Y82.0035 F900
G01 X95.9510 Y82.0933 F900
G01 X95.7020 Y82.8971 F900
G01 X95.6719 Y82.9856 F900
G01 X95.3861 Y83.7771 F900
G01 X95.3519 Y83.8641 F900
G01 X95.0299 Y84.6416 F900
G01 X94.9917 Y84.7269 F900
G01 X94.6341 Y85.4887 F900
G01 X94.5920 Y85.5721 F900
G01 X94.1996 Y86.3166 F900
G01 X94.1537 Y86.3980 F900
G01 X93.7274 Y87.1235 F900
G01 X93.6778 Y87.2027 F900
G01 X93.2184 Y87.9078 F900
G01 X93.1652 Y87.9847 F900
G01 X92.6737 Y88.6678 F900
G01 X92.6170 Y88.7421 F900
G01 X92.0945 Y89.4017 F900
G01 X92.0344 Y89.4733 F900
G01 X91.4820 Y90.1082 F900
G01 X91.4187 Y90.1769 F900
G01 X90.8375 Y90.7856 F900
G01 X90.7711 Y90.8513 F900
G01 X90.1625 Y91.4325 F900
G01 X90.0931 Y91.4951 F900
G01 X89.4582 Y92.0475 F900
G01 X89.3861 Y92.1069 F900
G01 X88.7264 Y92.6294 F900
G01 X88.6515 Y92.6853 F900
G01 X87.9684 Y93.1768 F900
G01 X87.8911 Y93.2293 F900
G01 X87.1860 Y93.6887 F900
G01 X87.1063 Y93.7375 F900
G01 X86.3808 Y94.1639 F900
G01 X86.2989 Y94.2089 F900
G01 X85.5544 Y94.6014 F900
G01 X85.4706 Y94.6426 F900
G01 X84.7088 Y95.0002 F900
G01 X84.6231 Y95.0375 F900
G01 X83.8456 Y95.3596 F900
G01 X83.7583 Y95.3929 F900
G01 X82.9668 Y95.6787 F900
G01 X82.8780 Y95.7080 F900
G01 X82.0741 Y95.9569 F900
G01 X81.9841 Y95.9820 F900
G01 X81.1696 Y96.1936 F900
G01 X81.0785 Y96.2145 F900
G01 X80.2551 Y96.3882 F900
G01 X80.1632 Y96.4049 F900
G01 X79.3326 Y96.5404 F900
G01 X79.2400 Y96.5529 F900
G01 X78.4040 Y96.6498 F900
G01 X78.3110 Y96.6580 F900
G01 X77.4714 Y96.7163 F900
G01 X77.3781 Y96.7201 F900
G01 X76.5367 Y96.7396 F900
G01 X76.4433 Y96.7391 F900
G01 X75.6020 Y96.7197 F900
G01 X75.5086 Y96.7149 F900
G01 X74.6691 Y96.6566 F900
G01 X74.5761 Y96.6475 F900
G01 X73.7401 Y96.5506 F900
G01 X73.6477 Y96.5372 F900
G01 X72.8171 Y96.4017 F900
G01 X72.7253 Y96.3841 F900
G01 X71.9019 Y96.2104 F900
G01 X71.8110 Y96.1885 F900
G01 X70.9965 Y95.9770 F900
G01 X70.9067 Y95.9510 F900
G01 X70.1029 Y95.7020 F900
G01 X70.0144 Y95.6719 F900
G01 X69.2229 Y95.3861 F900
G01 X69.1359 Y95.3519 F900
G01 X68.3584 Y95.0299 F900
G01 X68.2731 Y94.9917 F900
G01 X67.5113 Y94.6341 F900
G01 X67.4279 Y94.5920 F900
G01 X66.6834 Y94.1996 F900
G01 X66.6020 Y94.1537 F900
G01 X65.8765 Y93.7274 F900
G01 X65.7973 Y93.6778 F900
G01 X65.0922 Y93.2184 F900
G01 X65.0153 Y93.1652 F900
G01 X64.3322 Y92.6737 F900
G01 X64.2579 Y92.6170 F900
G01 X63.5983 Y92.0945 F900
G01 X63.5267 Y92.0344 F900
G01 X63.4242 Y91.9453 F900
G01 X62.8918 Y91.4820 F900
G01 X62.8231 Y91.4187 F900
G01 X62.2144 Y90.8375 F900
G01 X62.1487 Y90.7711 F900
G01 X61.5675 Y90.1625 F900
G01 X61.5049 Y90.0931 F900
G01 X60.9525 Y89.4582 F900
G01 X60.8931 Y89.3861 F900
G01 X60.3706 Y88.7264 F900
G01 X60.3147 Y88.6515 F900
G01 X59.8232 Y87.9684 F900
G01 X59.7707 Y87.8911 F900
G01 X59.3854 Y87.2997 F900
G01 Z-10.5000 F180
G01 X59.3113 Y87.1860 F900
G01 X59.2625 Y87.1063 F900
G01 X58.8361 Y86.3808 F900
G01 X58.7911 Y86.2989 F900
G01 X58.3986 Y85.5544 F900
G01 X58.3574 Y85.4706 F900
G01 X57.9998 Y84.7088 F900
G01 X57.9625 Y84.6231 F900
G01 X57.6404 Y83.8456 F900
G01 X57.6071 Y83.7583 F900
G01 X57.3213 Y82.9668 F900
G01 X57.2920 Y82.8780 F900
G01 X57.0431 Y82.0741 F900
G01 X57.0180 Y81.9841 F900
G01 X56.8064 Y81.1696 F900
G01 X56.7855 Y81.0785 F900
G01 X56.6118 Y80.2551 F900
G01 X56.5951 Y80.1632 F900
G01 X56.4596 Y79.3326 F900
G01 X56.4471 Y79.2400 F900
G01 X56.3502 Y78.4040 F900
G01 X56.3420 Y78.3110 F900
G01 X56.2837 Y77.4714 F900
G01 X56.2799 Y77.3781 F900
G01 X56.2604 Y76.5367 F900
G01 X56.2609 Y76.4433 F900
G01 X56.2803 Y75.6020 F900
G01 X56.2851 Y75.5086 F900
G01 X56.3434 Y74.6691 F900
G01 X56.3525 Y74.5761 F900
G01 X56.4494 Y73.7401 F900
G01 X56.4628 Y73.6477 F900
G01 X56.5983 Y72.8171 F900
G01 X56.6159 Y72.7253 F900
G01 X56.7896 Y71.9019 F900
G01 X56.8115 Y71.8110 F900
G01 X57.0230 Y70.9965 F900
G01 X57.0490 Y70.9067 F900
G01 X57.2980 Y70.1029 F900
G01 X57.3281 Y70.0144 F900
G01 X57.6139 Y69.2229 F900
G01 X57.6481 Y69.1359 F900
G01 X57.9701 Y68.3584 F900
G01 X58.0083 Y68.2731 F900
G01 X58.3659 Y67.5113 F900
G01 X58.4080 Y67.4279 F900
G01 X58.8004 Y66.6834 F900
G01 X58.8463 Y66.6020 F900
G01 X59.2726 Y65.8765 F900
G01 X59.3222 Y65.7973 F900
G01 X59.7816 Y65.0922 F900
G01 X59.8348 Y65.0153 F900
G01 X60.3263 Y64.3322 F900
G01 X60.3830 Y64.2579 F900
G01 X60.9055 Y63.5983 F900
G01 X60.9656 Y63.5267 F900
G01 X61.5180 Y62.8918 F900
G01 X61.5813 Y62.8231 F900
G01 X62.1625 Y62.2144 F900
G01 X62.2289 Y62.1487 F900
G01 X62.8375 Y61.5675 F900
G01 X62.9069 Y61.5049 F900
G01 X63.5418 Y60.9525 F900
G01 X63.6139 Y60.8931 F900
G01 X64.2736 Y60.3706 F900
G01 X64.3485 Y60.3147 F900
G01 X65.0316 Y59.8232 F900
G01 X65.1089 Y59.7707 F900
G01 X65.8140 Y59.3113 F900
G01 X65.8937 Y59.2625 F900
G01 X66.6192 Y58.8361 F900
G01 X66.7011 Y58.7911 F900
G01 X67.4456 Y58.3986 F900
G01 X67.5294 Y58.3574 F900
G01 X68.2912 Y57.9998 F900
G01 X68.3769 Y57.9625 F900
G01 X69.1544 Y57.6404 F900
G01 X69.2417 Y57.6071 F900
G01 X70.0332 Y57.3213 F900
G01 X70.1220 Y57.2920 F900
G01 X70.9259 Y57.0431 F900
G01 X71.0159 Y57.0180 F900
G01 X71.8304 Y56.8064 F900
G01 X71.9215 Y56.7855 F900
G01 X72.7449 Y56.6118 F900
G01 X72.8368 Y56.5951 F900
G01 X73.6674 Y56.4596 F900
G01 X73.7600 Y56.4471 F900
G01 X74.5960 Y56.3502 F900
G01 X74.6890 Y56.3420 F900
G01 X75.5286 Y56.2837 F900
G01 X75.6219 Y56.2799 F900
G01 X76.4633 Y56.2604 F900
G01 X76.5567 Y56.2609 F900
G01 X77.3980 Y56.2803 F900
G01 X77.4914 Y56.2851 F900
G01 X78.3309 Y56.3434 F900
G01 X78.4239 Y56.3525 F900
G01 X79.2599 Y56.4494 F900
G01 X79.3523 Y56.4628 F900
G01 X80.1829 Y56.5983 F900
G01 X80.2747 Y56.6159 F900
G01 X81.0981 Y56.7896 F900
G01 X81.1890 Y56.8115 F900
G01 X82.0035 Y57.0230 F900
G01 X82.0933 Y57.0490 F900
G01 X82.8971 Y57.2980 F900
G01 X82.9856 Y57.3281 F900
G01 X83.7771 Y57.6139 F900
G01 X83.8641 Y57.6481 F900
G01 X84.6416 Y57.9701 F900
G01 X84.7269 Y58.0083 F900
G01 X85.4887 Y58.3659 F900
G01 X85.5721 Y58.4080 F900
G01 X86.3166 Y58.8004 F900
G01 X86.3980 Y58.8463 F900
G01 X87.1235 Y59.2726 F900
G01 X87.2027 Y59.3222 F900
G01 X87.9078 Y59.7816 F900
G01 X87.9847 Y59.8348 F900
G01 X88.6678 Y60.3263 F900
G01 X88.7421 Y60.3830 F900
G01 X89.4017 Y60.9055 F900
G01 X89.4733 Y60.9656 F900
G01 X90.1082 Y61.5180 F900
G01 X90.1736 Y61.5783 F900
G01 X90.7856 Y62.1625 F900
G01 X90.8513 Y62.2289 F900
G01 X91.4325 Y62.8375 F900
G01 X91.4951 Y62.9069 F900
G01 X92.0475 Y63.5418 F900
G01 X92.1069 Y63.6139 F900
G01 X92.6294 Y64.2736 F900
G01 X92.6853 Y64.3485 F900
G01 X93.1768 Y65.0316 F900
G01 X93.2293 Y65.1089 F900
G01 X93.6887 Y65.8140 F900
G01 X93.7375 Y65.8937 F900
G01 X94.0240 Y66.3813 F900
G01 X94.1639 Y66.6192 F900
G01 X94.2089 Y66.7011 F900
G01 X94.6014 Y67.4456 F900
G01 X94.6426 Y67.5294 F900
G01 X95.0002 Y68.2912 F900
G01 X95.0375 Y68.3769 F900
G01 X95.3596 Y69.1544 F900
G01 X95.3929 Y69.2417 F900
G01 X95.6787 Y70.0332 F900
G01 X95.7080 Y70.1220 F900
G01 X95.9569 Y70.9259 F900
G01 X95.9820 Y71.0159 F900
G01 X96.1936 Y71.8304 F900
G01 X96.2145 Y71.9215 F900
G01 X96.3882 Y72.7449 F900
G01 X96.4049 Y72.8368 F900
G01 X96.5404 Y73.6674 F900
G01 X96.5529 Y73.7600 F900
G01 X96.6498 Y74.5960 F900
G01 X96.6580 Y74.6890 F900
G01 X96.7163 Y75.5286 F900
G01 X96.7201 Y75.6219 F900
G01 X96.7396 Y76.4633 F900
G01 X96.7391 Y76.5567 F900
G01 X96.7197 Y77.3980 F900
G01 X96.7149 Y77.4914 F900
G01 X96.6566 Y78.3309 F900
G01 X96.6475 Y78.4239 F900
G01 X96.5506 Y79.2599 F900
G01 X96.5372 Y79.3523 F900
G01 X96.4017 Y80.1829 F900
G01 X96.3841 Y80.2747 F900
G01 X96.2104 Y81.0981 F900
G01 X96.1885 Y81.1890 F900
G01 X95.9770 Y82.0035 F900
G01 X95.9510 Y82.0933 F900
G01 X95.7020 Y82.8971 F900
G01 X95.6719 Y82.9856 F900
G01 X95.3861 Y83.7771 F900
G01 X95.3519 Y83.8641 F900
G01 X95.0299 Y84.6416 F900
G01 X94.9917 Y84.7269 F900
G01 X94.6341 Y85.4887 F900
G01 X94.5920 Y85.5721 F900
G01 X94.1996 Y86.3166 F900
G01 X94.1537 Y86.3980 F900
G01 X93.7274 Y87.1235 F900
G01 X93.6778 Y87.2027 F900
G01 X93.2184 Y87.9078 F900
G01 X93.1652 Y87.9847 F900
G01 X92.6737 Y88.6678 F900
G01 X92.6170 Y88.7421 F900
G01 X92.0945 Y89.4017 F900
G01 X92.0344 Y89.4733 F900
G01 X91.4820 Y90.1082 F900
G01 X91.4187 Y90.1769 F900
G01 X90.8375 Y90.7856 F900
G01 X90.7711 Y90.8513 F900
G01 X90.1625 Y91.4325 F900
G01 X90.0931 Y91.4951 F900
G01 X89.4582 Y92.0475 F900
G01 X89.3861 Y92.1069 F900
G01 X88.7264 Y92.6294 F900
G01 X88.6515 Y92.6853 F900
G01 X87.9684 Y93.1768 F900
G01 X87.8911 Y93.2293 F900
G01 X87.1860 Y93.6887 F900
G01 X87.1063 Y93.7375 F900
G01 X86.3808 Y94.1639 F900
G01 X86.2989 Y94.2089 F900
G01 X85.5544 Y94.6014 F900
G01 X85.4706 Y94.6426 F900
G01 X84.7088 Y95.0002 F900
G01 X84.6231 Y95.0375 F900
G01 X83.8456 Y95.3596 F900
G01 X83.7583 Y95.3929 F900
G01 X82.9668 Y95.6787 F900
G01 X82.8780 Y95.7080 F900
G01 X82.0741 Y95.9569 F900
G01 X81.9841 Y95.9820 F900
G01 X81.1696 Y96.1936 F900
G01 X81.0785 Y96.2145 F900
G01 X80.2551 Y96.3882 F900
G01 X80.1632 Y96.4049 F900
G01 X79.3326 Y96.5404 F900
G01 X79.2400 Y96.5529 F900
G01 X78.4040 Y96.6498 F900
G01 X78.3110 Y96.6580 F900
G01 X77.4714 Y96.7163 F900
G01 X77.3781 Y96.7201 F900
G01 X76.5367 Y96.7396 F900
G01 X76.4433 Y96.7391 F900
G01 X75.6020 Y96.7197 F900
G01 X75.5086 Y96.7149 F900
G01 X74.6691 Y96.6566 F900
G01 X74.5761 Y96.6475 F900
G01 X73.7401 Y96.5506 F900
G01 X73.6477 Y96.5372 F900
G01 X72.8171 Y96.4017 F900
G01 X72.7253 Y96.3841 F900
G01 X71.9019 Y96.2104 F900
G01 X71.8110 Y96.1885 F900
G01 X70.9965 Y95.9770 F900
G01 X70.9067 Y95.9510 F900
G01 X70.1029 Y95.7020 F900
G01 X70.0144 Y95.6719 F900
G01 X69.2229 Y95.3861 F900
G01 X69.1359 Y95.3519 F900
G01 X68.3584 Y95.0299 F900
G01 X68.2731 Y94.9917 F900
G01 X67.5113 Y94.6341 F900
G01 X67.4279 Y94.5920 F900
G01 X66.6834 Y94.1996 F900
G01 X66.6020 Y94.1537 F900
G01 X65.8765 Y93.7274 F900
G01 X65.7973 Y93.6778 F900
G01 X65.0922 Y93.2184 F900
G01 X65.0153 Y93.1652 F900
G01 X64.3322 Y92.6737 F900
G01 X64.2579 Y92.6170 F900
G01 X63.5983 Y92.0945 F900
G01 X63.5267 Y92.0344 F900
G01 X63.4242 Y91.9453 F900
G01 X62.8918 Y91.4820 F900
G01 X62.8231 Y91.4187 F900
G01 X62.2144 Y90.8375 F900
G01 X62.1487 Y90.7711 F900
G01 X61.5675 Y90.1625 F900
G01 X61.5049 Y90.0931 F900
G01 X60.9525 Y89.4582 F900
G01 X60.8931 Y89.3861 F900
G01 X60.3706 Y88.7264 F900
G01 X60.3147 Y88.6515 F900
G01 X59.8232 Y87.9684 F900
G01 X59.7707 Y87.8911 F900
G01 X59.3854 Y87.2997 F900
G01 Z-12.0000 F180
G01 X59.3113 Y87.1860 F900
G01 X59.2625 Y87.1063 F900
G01 X58.8361 Y86.3808 F900
G01 X58.7911 Y86.2989 F900
G01 X58.3986 Y85.5544 F900
G01 X58.3574 Y85.4706 F900
G01 X57.9998 Y84.7088 F900
G01 X57.9625 Y84.6231 F900
G01 X57.6404 Y83.8456 F900
G01 X57.6071 Y83.7583 F900
G01 X57.3213 Y82.9668 F900
G01 X57.2920 Y82.8780 F900
G01 X57.0431 Y82.0741 F900
G01 X57.0180 Y81.9841 F900
G01 X56.8064 Y81.1696 F900
G01 X56.7855 Y81.0785 F900
G01 X56.6118 Y80.2551 F900
G01 X56.5951 Y80.1632 F900
G01 X56.4596 Y79.3326 F900
G01 X56.4471 Y79.2400 F900
G01 X56.3502 Y78.4040 F900
G01 X56.3420 Y78.3110 F900
G01 X56.2837 Y77.4714 F900
G01 X56.2799 Y77.3781 F900
G01 X56.2604 Y76.5367 F900
G01 X56.2609 Y76.4433 F900
G01 X56.2803 Y75.6020 F900
G01 X56.2851 Y75.5086 F900
G01 X56.3434 Y74.6691 F900
G01 X56.3525 Y74.5761 F900
G01 X56.4494 Y73.7401 F900
G01 X56.4628 Y73.6477 F900
G01 X56.5983 Y72.8171 F900
G01 X56.6159 Y72.7253 F900
G01 X56.7896 Y71.9019 F900
G01 X56.8115 Y71.8110 F900
G01 X57.0230 Y70.9965 F900
G01 X57.0490 Y70.9067 F900
G01 X57.2980 Y70.1029 F900
G01 X57.3281 Y70.0144 F900
G01 X57.6139 Y69.2229 F900
G01 X57.6481 Y69.1359 F900
G01 X57.9701 Y68.3584 F900
G01 X58.0083 Y68.2731 F900
G01 X58.3659 Y67.5113 F900
G01 X58.4080 Y67.4279 F900
G01 X58.8004 Y66.6834 F900
G01 X58.8463 Y66.6020 F900
G01 X59.2726 Y65.8765 F900
G01 X59.3222 Y65.7973 F900
G01 X59.7816 Y65.0922 F900
G01 X59.8348 Y65.0153 F900
G01 X60.3263 Y64.3322 F900
G01 X60.3830 Y64.2579 F900
G01 X60.9055 Y63.5983 F900
G01 X60.9656 Y63.5267 F900
G01 X61.5180 Y62.8918 F900
G01 X61.5813 Y62.8231 F900
G01 X62.1625 Y62.2144 F900
G01 X62.2289 Y62.1487 F900
G01 X62.8375 Y61.5675 F900
G01 X62.9069 Y61.5049 F900
G01 X63.5418 Y60.9525 F900
G01 X63.6139 Y60.8931 F900
G01 X64.2736 Y60.3706 F900
G01 X64.3485 Y60.3147 F900
G01 X65.0316 Y59.8232 F900
G01 X65.1089 Y59.7707 F900
G01 X65.8140 Y59.3113 F900
G01 X65.8937 Y59.2625 F900
G01 X66.6192 Y58.8361 F900
G01 X66.7011 Y58.7911 F900
G01 X67.4456 Y58.3986 F900
G01 X67.5294 Y58.3574 F900
G01 X68.2912 Y57.9998 F900
G01 X68.3769 Y57.9625 F900
G01 X69.1544 Y57.6404 F900
G01 X69.2417 Y57.6071 F900
G01 X70.0332 Y57.3213 F900
G01 X70.1220 Y57.2920 F900
G01 X70.9259 Y57.0431 F900
G01 X71.0159 Y57.0180 F900
G01 X71.8304 Y56.8064 F900
G01 X71.9215 Y56.7855 F900
G01 X72.7449 Y56.6118 F900
G01 X72.8368 Y56.5951 F900
G01 X73.6674 Y56.4596 F900
G01 X73.7600 Y56.4471 F900
G01 X74.5960 Y56.3502 F900
G01 X74.6890 Y56.3420 F900
G01 X75.5286 Y56.2837 F900
G01 X75.6219 Y56.2799 F900
G01 X76.4633 Y56.2604 F900
G01 X76.5567 Y56.2609 F900
G01 X77.3980 Y56.2803 F900
G01 X77.4914 Y56.2851 F900
G01 X78.3309 Y56.3434 F900
G01 X78.4239 Y56.3525 F900
G01 X79.2599 Y56.4494 F900
G01 X79.3523 Y56.4628 F900
G01 X80.1829 Y56.5983 F900
G01 X80.2747 Y56.6159 F900
G01 X81.0981 Y56.7896 F900
G01 X81.1890 Y56.8115 F900
G01 X82.0035 Y57.0230 F900
G01 X82.0933 Y57.0490 F900
G01 X82.8971 Y57.2980 F900
G01 X82.9856 Y57.3281 F900
G01 X83.7771 Y57.6139 F900
G01 X83.8641 Y57.6481 F900
G01 X84.6416 Y57.9701 F900
G01 X84.7269 Y58.0083 F900
G01 X85.4887 Y58.3659 F900
G01 X85.5721 Y58.4080 F900
G01 X86.3166 Y58.8004 F900
G01 X86.3980 Y58.8463 F900
G01 X87.1235 Y59.2726 F900
G01 X87.2027 Y59.3222 F900
G01 X87.9078 Y59.7816 F900
G01 X87.9847 Y59.8348 F900
G01 X88.6678 Y60.3263 F900
G01 X88.7421 Y60.3830 F900
G01 X89.4017 Y60.9055 F900
G01 X89.4733 Y60.9656 F900
G01 X90.1082 Y61.5180 F900
G01 X90.1736 Y61.5783 F900
G01 X90.7856 Y62.1625 F900
G01 X90.8513 Y62.2289 F900
G01 X91.4325 Y62.8375 F900
G01 X91.4951 Y62.9069 F900
G01 X92.0475 Y63.5418 F900
G01 X92.1069 Y63.6139 F900
G01 X92.6294 Y64.2736 F900
G01 X92.6853 Y64.3485 F900
G01 X93.1768 Y65.0316 F900
G01 X93.2293 Y65.1089 F900
G01 X93.6887 Y65.8140 F900
G01 X93.7375 Y65.8937 F900
G01 X94.0240 Y66.3813 F900
G01 X94.1639 Y66.6192 F900
G01 X94.2089 Y66.7011 F900
G01 X94.6014 Y67.4456 F900
G01 X94.6426 Y67.5294 F900
G01 X95.0002 Y68.2912 F900
G01 X95.0375 Y68.3769 F900
G01 X95.3596 Y69.1544 F900
G01 X95.3929 Y69.2417 F900
G01 X95.6787 Y70.0332 F900
G01 X95.7080 Y70.1220 F900
G01 X95.9569 Y70.9259 F900
G01 X95.9820 Y71.0159 F900
G01 X96.1936 Y71.8304 F900
G01 X96.2145 Y71.9215 F900
G01 X96.3882 Y72.7449 F900
G01 X96.4049 Y72.8368 F900
G01 X96.5404 Y73.6674 F900
G01 X96.5529 Y73.7600 F900
G01 X96.6498 Y74.5960 F900
G01 X96.6580 Y74.6890 F900
G01 X96.7163 Y75.5286 F900
G01 X96.7201 Y75.6219 F900
G01 X96.7396 Y76.4633 F900
G01 X96.7391 Y76.5567 F900
G01 X96.7197 Y77.3980 F900
G01 X96.7149 Y77.4914 F900
G01 X96.6566 Y78.3309 F900
G01 X96.6475 Y78.4239 F900
G01 X96.5506 Y79.2599 F900
G01 X96.5372 Y79.3523 F900
G01 X96.4017 Y80.1829 F900
G01 X96.3841 Y80.2747 F900
G01 X96.2104 Y81.0981 F900
G01 X96.1885 Y81.1890 F900
G01 X95.9770 Y82.0035 F900
G01 X95.9510 Y82.0933 F900
G01 X95.7020 Y82.8971 F900
G01 X95.6719 Y82.9856 F900
G01 X95.3861 Y83.7771 F900
G01 X95.3519 Y83.8641 F900
G01 X95.0299 Y84.6416 F900
G01 X94.9917 Y84.7269 F900
G01 X94.6341 Y85.4887 F900
G01 X94.5920 Y85.5721 F900
G01 X94.1996 Y86.3166 F900
G01 X94.1537 Y86.3980 F900
G01 X93.7274 Y87.1235 F900
G01 X93.6778 Y87.2027 F900
G01 X93.2184 Y87.9078 F900
G01 X93.1652 Y87.9847 F900
G01 X92.6737 Y88.6678 F900
G01 X92.6170 Y88.7421 F900
G01 X92.0945 Y89.4017 F900
G01 X92.0344 Y89.4733 F900
G01 X91.4820 Y90.1082 F900
G01 X91.4187 Y90.1769 F900
G01 X90.8375 Y90.7856 F900
G01 X90.7711 Y90.8513 F900
G01 X90.1625 Y91.4325 F900
G01 X90.0931 Y91.4951 F900
G01 X89.4582 Y92.0475 F900
G01 X89.3861 Y92.1069 F900
G01 X88.7264 Y92.6294 F900
G01 X88.6515 Y92.6853 F900
G01 X87.9684 Y93.1768 F900
G01 X87.8911 Y93.2293 F900
G01 X87.1860 Y93.6887 F900
G01 X87.1063 Y93.7375 F900
G01 X86.3808 Y94.1639 F900
G01 X86.2989 Y94.2089 F900
G01 X85.5544 Y94.6014 F900
G01 X85.4706 Y94.6426 F900
G01 X84.7088 Y95.0002 F900
G01 X84.6231 Y95.0375 F900
G01 X83.8456 Y95.3596 F900
G01 X83.7583 Y95.3929 F900
G01 X82.9668 Y95.6787 F900
G01 X82.8780 Y95.7080 F900
G01 X82.0741 Y95.9569 F900
G01 X81.9841 Y95.9820 F900
G01 X81.1696 Y96.1936 F900
G01 X81.0785 Y96.2145 F900
G01 X80.2551 Y96.3882 F900
G01 X80.1632 Y96.4049 F900
G01 X79.3326 Y96.5404 F900
G01 X79.2400 Y96.5529 F900
G01 X78.4040 Y96.6498 F900
G01 X78.3110 Y96.6580 F900
G01 X77.4714 Y96.7163 F900
G01 X77.3781 Y96.7201 F900
G01 X76.5367 Y96.7396 F900
G01 X76.4433 Y96.7391 F900
G01 X75.6020 Y96.7197 F900
G01 X75.5086 Y96.7149 F900
G01 X74.6691 Y96.6566 F900
G01 X74.5761 Y96.6475 F900
G01 X73.7401 Y96.5506 F900
G01 X73.6477 Y96.5372 F900
G01 X72.8171 Y96.4017 F900
G01 X72.7253 Y96.3841 F900
G01 X71.9019 Y96.2104 F900
G01 X71.8110 Y96.1885 F900
G01 X70.9965 Y95.9770 F900
G01 X70.9067 Y95.9510 F900
G01 X70.1029 Y95.7020 F900
G01 X70.0144 Y95.6719 F900
G01 X69.2229 Y95.3861 F900
G01 X69.1359 Y95.3519 F900
G01 X68.3584 Y95.0299 F900
G01 X68.2731 Y94.9917 F900
G01 X67.5113 Y94.6341 F900
G01 X67.4279 Y94.5920 F900
G01 X66.6834 Y94.1996 F900
G01 X66.6020 Y94.1537 F900
G01 X65.8765 Y93.7274 F900
G01 X65.7973 Y93.6778 F900
G01 X65.0922 Y93.2184 F900
G01 X65.0153 Y93.1652 F900
G01 X64.3322 Y92.6737 F900
G01 X64.2579 Y92.6170 F900
G01 X63.5983 Y92.0945 F900
G01 X63.5267 Y92.0344 F900
G01 X63.4242 Y91.9453 F900
G01 X62.8918 Y91.4820 F900
G01 X62.8231 Y91.4187 F900
G01 X62.2144 Y90.8375 F900
G01 X62.1487 Y90.7711 F900
G01 X61.5675 Y90.1625 F900
G01 X61.5049 Y90.0931 F900
G01 X60.9525 Y89.4582 F900
G01 X60.8931 Y89.3861 F900
G01 X60.3706 Y88.7264 F900
G01 X60.3147 Y88.6515 F900
G01 X59.8232 Y87.9684 F900
G01 X59.7707 Y87.8911 F900
G01 X59.3854 Y87.2997 F900
G01 Z-13.5000 F180
G01 X59.3113 Y87.1860 F900
G01 X59.2625 Y87.1063 F900
G01 X58.8361 Y86.3808 F900
G01 X58.7911 Y86.2989 F900
G01 X58.3986 Y85.5544 F900
G01 X58.3574 Y85.4706 F900
G01 X57.9998 Y84.7088 F900
G01 X57.9625 Y84.6231 F900
G01 X57.6404 Y83.8456 F900
G01 X57.6071 Y83.7583 F900
G01 X57.3213 Y82.9668 F900
G01 X57.2920 Y82.8780 F900
G01 X57.0431 Y82.0741 F900
G01 X57.0180 Y81.9841 F900
G01 X56.8064 Y81.1696 F900
G01 X56.7855 Y81.0785 F900
G01 X56.6118 Y80.2551 F900
G01 X56.5951 Y80.1632 F900
G01 X56.4596 Y79.3326 F900
G01 X56.4471 Y79.2400 F900
G01 X56.3502 Y78.4040 F900
G01 X56.3420 Y78.3110 F900
G01 X56.2837 Y77.4714 F900
G01 X56.2799 Y77.3781 F900
G01 X56.2604 Y76.5367 F900
G01 X56.2609 Y76.4433 F900
G01 X56.2803 Y75.6020 F900
G01 X56.2851 Y75.5086 F900
G01 X56.3434 Y74.6691 F900
G01 X56.3525 Y74.5761 F900
G01 X56.4494 Y73.7401 F900
G01 X56.4628 Y73.6477 F900
G01 X56.5983 Y72.8171 F900
G01 X56.6159 Y72.7253 F900
G01 X56.7896 Y71.9019 F900
G01 X56.8115 Y71.8110 F900
G01 X57.0230 Y70.9965 F900
G01 X57.0490 Y70.9067 F900
G01 X57.2980 Y70.1029 F900
G01 X57.3281 Y70.0144 F900
G01 X57.6139 Y69.2229 F900
G01 X57.6481 Y69.1359 F900
G01 X57.9701 Y68.3584 F900
G01 X58.0083 Y68.2731 F900
G01 X58.3659 Y67.5113 F900
G01 X58.4080 Y67.4279 F900
G01 X58.8004 Y66.6834 F900
G01 X58.8463 Y66.6020 F900
G01 X59.2726 Y65.8765 F900
G01 X59.3222 Y65.7973 F900
G01 X59.7816 Y65.0922 F900
G01 X59.8348 Y65.0153 F900
G01 X60.3263 Y64.3322 F900
G01 X60.3830 Y64.2579 F900
G01 X60.9055 Y63.5983 F900
G01 X60.9656 Y63.5267 F900
G01 X61.5180 Y62.8918 F900
G01 X61.5813 Y62.8231 F900
G01 X62.1625 Y62.2144 F900
G01 X62.2289 Y62.1487 F900
G01 X62.8375 Y61.5675 F900
G01 X62.9069 Y61.5049 F900
G01 X63.5418 Y60.9525 F900
G01 X63.6139 Y60.8931 F900
G01 X64.2736 Y60.3706 F900
G01 X64.3485 Y60.3147 F900
G01 X65.0316 Y59.8232 F900
G01 X65.1089 Y59.7707 F900
G01 X65.8140 Y59.3113 F900
G01 X65.8937 Y59.2625 F900
G01 X66.6192 Y58.8361 F900
G01 X66.7011 Y58.7911 F900
G01 X67.4456 Y58.3986 F900
G01 X67.5294 Y58.3574 F900
G01 X68.2912 Y57.9998 F900
G01 X68.3769 Y57.9625 F900
G01 X69.1544 Y57.6404 F900
G01 X69.2417 Y57.6071 F900
G01 X70.0332 Y57.3213 F900
G01 X70.1220 Y57.2920 F900
G01 X70.9259 Y57.0431 F900
G01 X71.0159 Y57.0180 F900
G01 X71.8304 Y56.8064 F900
G01 X71.9215 Y56.7855 F900
G01 X72.7449 Y56.6118 F900
G01 X72.8368 Y56.5951 F900
G01 X73.6674 Y56.4596 F900
G01 X73.7600 Y56.4471 F900
G01 X74.5960 Y56.3502 F900
G01 X74.6890 Y56.3420 F900
G01 X75.5286 Y56.2837 F900
G01 X75.6219 Y56.2799 F900
G01 X76.4633 Y56.2604 F900
G01 X76.5567 Y56.2609 F900
G01 X77.3980 Y56.2803 F900
G01 X77.4914 Y56.2851 F900
G01 X78.3309 Y56.3434 F900
G01 X78.4239 Y56.3525 F900
G01 X79.2599 Y56.4494 F900
G01 X79.3523 Y56.4628 F900
G01 X80.1829 Y56.5983 F900
G01 X80.2747 Y56.6159 F900
G01 X81.0981 Y56.7896 F900
G01 X81.1890 Y56.8115 F900
G01 X82.0035 Y57.0230 F900
G01 X82.0933 Y57.0490 F900
G01 X82.8971 Y57.2980 F900
G01 X82.9856 Y57.3281 F900
G01 X83.7771 Y57.6139 F900
G01 X83.8641 Y57.6481 F900
G01 X84.6416 Y57.9701 F900
G01 X84.7269 Y58.0083 F900
G01 X85.4887 Y58.3659 F900
G01 X85.5721 Y58.4080 F900
G01 X86.3166 Y58.8004 F900
G01 X86.3980 Y58.8463 F900
G01 X87.1235 Y59.2726 F900
G01 X87.2027 Y59.3222 F900
G01 X87.9078 Y59.7816 F900
G01 X87.9847 Y59.8348 F900
G01 X88.6678 Y60.3263 F900
G01 X88.7421 Y60.3830 F900
G01 X89.4017 Y60.9055 F900
G01 X89.4733 Y60.9656 F900
G01 X90.1082 Y61.5180 F900
G01 X90.1736 Y61.5783 F900
G01 X90.7856 Y62.1625 F900
G01 X90.8513 Y62.2289 F900
G01 X91.4325 Y62.8375 F900
G01 X91.4951 Y62.9069 F900
G01 X92.0475 Y63.5418 F900
G01 X92.1069 Y63.6139 F900
G01 X92.6294 Y64.2736 F900
G01 X92.6853 Y64.3485 F900
G01 X93.1768 Y65.0316 F900
G01 X93.2293 Y65.1089 F900
G01 X93.6887 Y65.8140 F900
G01 X93.7375 Y65.8937 F900
G01 X94.0240 Y66.3813 F900
G01 X94.1639 Y66.6192 F900
G01 X94.2089 Y66.7011 F900
G01 X94.6014 Y67.4456 F900
G01 X94.6426 Y67.5294 F900
G01 X95.0002 Y68.2912 F900
G01 X95.0375 Y68.3769 F900
G01 X95.3596 Y69.1544 F900
G01 X95.3929 Y69.2417 F900
G01 X95.6787 Y70.0332 F900
G01 X95.7080 Y70.1220 F900
G01 X95.9569 Y70.9259 F900
G01 X95.9820 Y71.0159 F900
G01 X96.1936 Y71.8304 F900
G01 X96.2145 Y71.9215 F900
G01 X96.3882 Y72.7449 F900
G01 X96.4049 Y72.8368 F900
G01 X96.5404 Y73.6674 F900
G01 X96.5529 Y73.7600 F900
G01 X96.6498 Y74.5960 F900
G01 X96.6580 Y74.6890 F900
G01 X96.7163 Y75.5286 F900
G01 X96.7201 Y75.6219 F900
G01 X96.7396 Y76.4633 F900
G01 X96.7391 Y76.5567 F900
G01 X96.7197 Y77.3980 F900
G01 X96.7149 Y77.4914 F900
G01 X96.6566 Y78.3309 F900
G01 X96.6475 Y78.4239 F900
G01 X96.5506 Y79.2599 F900
G01 X96.5372 Y79.3523 F900
G01 X96.4017 Y80.1829 F900
G01 X96.3841 Y80.2747 F900
G01 X96.2104 Y81.0981 F900
G01 X96.1885 Y81.1890 F900
G01 X95.9770 Y82.0035 F900
G01 X95.9510 Y82.0933 F900
G01 X95.7020 Y82.8971 F900
G01 X95.6719 Y82.9856 F900
G01 X95.3861 Y83.7771 F900
G01 X95.3519 Y83.8641 F900
G01 X95.0299 Y84.6416 F900
G01 X94.9917 Y84.7269 F900
G01 X94.6341 Y85.4887 F900
G01 X94.5920 Y85.5721 F900
G01 X94.1996 Y86.3166 F900
G01 X94.1537 Y86.3980 F900
G01 X93.7274 Y87.1235 F900
G01 X93.6778 Y87.2027 F900
G01 X93.2184 Y87.9078 F900
G01 X93.1652 Y87.9847 F900
G01 X92.6737 Y88.6678 F900
G01 X92.6170 Y88.7421 F900
G01 X92.0945 Y89.4017 F900
G01 X92.0344 Y89.4733 F900
G01 X91.4820 Y90.1082 F900
G01 X91.4187 Y90.1769 F900
G01 X90.8375 Y90.7856 F900
G01 X90.7711 Y90.8513 F900
G01 X90.1625 Y91.4325 F900
G01 X90.0931 Y91.4951 F900
G01 X89.4582 Y92.0475 F900
G01 X89.3861 Y92.1069 F900
G01 X88.7264 Y92.6294 F900
G01 X88.6515 Y92.6853 F900
G01 X87.9684 Y93.1768 F900
G01 X87.8911 Y93.2293 F900
G01 X87.1860 Y93.6887 F900
G01 X87.1063 Y93.7375 F900
G01 X86.3808 Y94.1639 F900
G01 X86.2989 Y94.2089 F900
G01 X85.5544 Y94.6014 F900
G01 X85.4706 Y94.6426 F900
G01 X84.7088 Y95.0002 F900
G01 X84.6231 Y95.0375 F900
G01 X83.8456 Y95.3596 F900
G01 X83.7583 Y95.3929 F900
G01 X82.9668 Y95.6787 F900
G01 X82.8780 Y95.7080 F900
G01 X82.0741 Y95.9569 F900
G01 X81.9841 Y95.9820 F900
G01 X81.1696 Y96.1936 F900
G01 X81.0785 Y96.2145 F900
G01 X80.2551 Y96.3882 F900
G01 X80.1632 Y96.4049 F900
G01 X79.3326 Y96.5404 F900
G01 X79.2400 Y96.5529 F900
G01 X78.4040 Y96.6498 F900
G01 X78.3110 Y96.6580 F900
G01 X77.4714 Y96.7163 F900
G01 X77.3781 Y96.7201 F900
G01 X76.5367 Y96.7396 F900
G01 X76.4433 Y96.7391 F900
G01 X75.6020 Y96.7197 F900
G01 X75.5086 Y96.7149 F900
G01 X74.6691 Y96.6566 F900
G01 X74.5761 Y96.6475 F900
G01 X73.7401 Y96.5506 F900
G01 X73.6477 Y96.5372 F900
G01 X72.8171 Y96.4017 F900
G01 X72.7253 Y96.3841 F900
G01 X71.9019 Y96.2104 F900
G01 X71.8110 Y96.1885 F900
G01 X70.9965 Y95.9770 F900
G01 X70.9067 Y95.9510 F900
G01 X70.1029 Y95.7020 F900
G01 X70.0144 Y95.6719 F900
G01 X69.2229 Y95.3861 F900
G01 X69.1359 Y95.3519 F900
G01 X68.3584 Y95.0299 F900
G01 X68.2731 Y94.9917 F900
G01 X67.5113 Y94.6341 F900
G01 X67.4279 Y94.5920 F900
G01 X66.6834 Y94.1996 F900
G01 X66.6020 Y94.1537 F900
G01 X65.8765 Y93.7274 F900
G01 X65.7973 Y93.6778 F900
G01 X65.0922 Y93.2184 F900
G01 X65.0153 Y93.1652 F900
G01 X64.3322 Y92.6737 F900
G01 X64.2579 Y92.6170 F900
G01 X63.5983 Y92.0945 F900
G01 X63.5267 Y92.0344 F900
G01 X63.4242 Y91.9453 F900
G01 X62.8918 Y91.4820 F900
G01 X62.8231 Y91.4187 F900
G01 X62.2144 Y90.8375 F900
G01 X62.1487 Y90.7711 F900
G01 X61.5675 Y90.1625 F900
G01 X61.5049 Y90.0931 F900
G01 X60.9525 Y89.4582 F900
G01 X60.8931 Y89.3861 F900
G01 X60.3706 Y88.7264 F900
G01 X60.3147 Y88.6515 F900
G01 X59.8232 Y87.9684 F900
G01 X59.7707 Y87.8911 F900
G01 X59.3854 Y87.2997 F900
G01 Z-15.0000 F180
G01 X59.3113 Y87.1860 F900
G01 X59.2625 Y87.1063 F900
G01 X58.8361 Y86.3808 F900
G01 X58.7911 Y86.2989 F900
G01 X58.3986 Y85.5544 F900
G01 X58.3574 Y85.4706 F900
G01 X57.9998 Y84.7088 F900
G01 X57.9625 Y84.6231 F900
G01 X57.6404 Y83.8456 F900
G01 X57.6071 Y83.7583 F900
G01 X57.3213 Y82.9668 F900
G01 X57.2920 Y82.8780 F900
G01 X57.0431 Y82.0741 F900
G01 X57.0180 Y81.9841 F900
G01 X56.8064 Y81.1696 F900
G01 X56.7855 Y81.0785 F900
G01 X56.6118 Y80.2551 F900
G01 X56.5951 Y80.1632 F900
G01 X56.4596 Y79.3326 F900
G01 X56.4471 Y79.2400 F900
G01 X56.3502 Y78.4040 F900
G01 X56.3420 Y78.3110 F900
G01 X56.2837 Y77.4714 F900
G01 X56.2799 Y77.3781 F900
G01 X56.2604 Y76.5367 F900
G01 X56.2609 Y76.4433 F900
G01 X56.2803 Y75.6020 F900
G01 X56.2851 Y75.5086 F900
G01 X56.3434 Y74.6691 F900
G01 X56.3525 Y74.5761 F900
G01 X56.4494 Y73.7401 F900
G01 X56.4628 Y73.6477 F900
G01 X56.5983 Y72.8171 F900
G01 X56.6159 Y72.7253 F900
G01 X56.7896 Y71.9019 F900
G01 X56.8115 Y71.8110 F900
G01 X57.0230 Y70.9965 F900
G01 X57.0490 Y70.9067 F900
G01 X57.2980 Y70.1029 F900
G01 X57.3281 Y70.0144 F900
G01 X57.6139 Y69.2229 F900
G01 X57.6481 Y69.1359 F900
G01 X57.9701 Y68.3584 F900
G01 X58.0083 Y68.2731 F900
G01 X58.3659 Y67.5113 F900
G01 X58.4080 Y67.4279 F900
G01 X58.8004 Y66.6834 F900
G01 X58.8463 Y66.6020 F900
G01 X59.2726 Y65.8765 F900
G01 X59.3222 Y65.7973 F900
G01 X59.7816 Y65.0922 F900
G01 X59.8348 Y65.0153 F900
G01 X60.3263 Y64.3322 F900
G01 X60.3830 Y64.2579 F900
G01 X60.9055 Y63.5983 F900
G01 X60.9656 Y63.5267 F900
G01 X61.5180 Y62.8918 F900
G01 X61.5813 Y62.8231 F900
G01 X62.1625 Y62.2144 F900
G01 X62.2289 Y62.1487 F900
G01 X62.8375 Y61.5675 F900
G01 X62.9069 Y61.5049 F900
G01 X63.5418 Y60.9525 F900
G01 X63.6139 Y60.8931 F900
G01 X64.2736 Y60.3706 F900
G01 X64.3485 Y60.3147 F900
G01 X65.0316 Y59.8232 F900
G01 X65.1089 Y59.7707 F900
G01 X65.8140 Y59.3113 F900
G01 X65.8937 Y59.2625 F900
G01 X66.6192 Y58.8361 F900
G01 X66.7011 Y58.7911 F900
G01 X67.4456 Y58.3986 F900
G01 X67.5294 Y58.3574 F900
G01 X68.2912 Y57.9998 F900
G01 X68.3769 Y57.9625 F900
G01 X69.1544 Y57.6404 F900
G01 X69.2417 Y57.6071 F900
G01 X70.0332 Y57.3213 F900
G01 X70.1220 Y57.2920 F900
G01 X70.9259 Y57.0431 F900
G01 X71.0159 Y57.0180 F900
G01 X71.8304 Y56.8064 F900
G01 X71.9215 Y56.7855 F900
G01 X72.7449 Y56.6118 F900
G01 X72.8368 Y56.5951 F900
G01 X73.6674 Y56.4596 F900
G01 X73.7600 Y56.4471 F900
G01 X74.5960 Y56.3502 F900
G01 X74.6890 Y56.3420 F900
G01 X75.5286 Y56.2837 F900
G01 X75.6219 Y56.2799 F900
G01 X76.4633 Y56.2604 F900
G01 X76.5567 Y56.2609 F900
G01 X77.3980 Y56.2803 F900
G01 X77.4914 Y56.2851 F900
G01 X78.3309 Y56.3434 F900
G01 X78.4239 Y56.3525 F900
G01 X79.2599 Y56.4494 F900
G01 X79.3523 Y56.4628 F900
G01 X80.1829 Y56.5983 F900
G01 X80.2747 Y56.6159 F900
G01 X81.0981 Y56.7896 F900
G01 X81.1890 Y56.8115 F900
G01 X82.0035 Y57.0230 F900
G01 X82.0933 Y57.0490 F900
G01 X82.8971 Y57.2980 F900
G01 X82.9856 Y57.3281 F900
G01 X83.7771 Y57.6139 F900
G01 X83.8641 Y57.6481 F900
G01 X84.6416 Y57.9701 F900
G01 X84.7269 Y58.0083 F900
G01 X85.4887 Y58.3659 F900
G01 X85.5721 Y58.4080 F900
G01 X86.3166 Y58.8004 F900
G01 X86.3980 Y58.8463 F900
G01 X87.1235 Y59.2726 F900
G01 X87.2027 Y59.3222 F900
G01 X87.9078 Y59.7816 F900
G01 X87.9847 Y59.8348 F900
G01 X88.6678 Y60.3263 F900
G01 X88.7421 Y60.3830 F900
G01 X89.4017 Y60.9055 F900
G01 X89.4733 Y60.9656 F900
G01 X90.1082 Y61.5180 F900
G01 X90.1736 Y61.5783 F900
G01 X90.7856 Y62.1625 F900
G01 X90.8513 Y62.2289 F900
G01 X91.4325 Y62.8375 F900
G01 X91.4951 Y62.9069 F900
G01 X92.0475 Y63.5418 F900
G01 X92.1069 Y63.6139 F900
G01 X92.6294 Y64.2736 F900
G01 X92.6853 Y64.3485 F900
G01 X93.1768 Y65.0316 F900
G01 X93.2293 Y65.1089 F900
G01 X93.6887 Y65.8140 F900
G01 X93.7375 Y65.8937 F900
G01 X94.0240 Y66.3813 F900
G01 X94.1639 Y66.6192 F900
G01 X94.2089 Y66.7011 F900
G01 X94.6014 Y67.4456 F900
G01 X94.6426 Y67.5294 F900
G01 X95.0002 Y68.2912 F900
G01 X95.0375 Y68.3769 F900
G01 X95.3596 Y69.1544 F900
G01 X95.3929 Y69.2417 F900
G01 X95.6787 Y70.0332 F900
G01 X95.7080 Y70.1220 F900
G01 X95.9569 Y70.9259 F900
G01 X95.9820 Y71.0159 F900
G01 X96.1936 Y71.8304 F900
G01 X96.2145 Y71.9215 F900
G01 X96.3882 Y72.7449 F900
G01 X96.4049 Y72.8368 F900
G01 X96.5404 Y73.6674 F900
G01 X96.5529 Y73.7600 F900
G01 X96.6498 Y74.5960 F900
G01 X96.6580 Y74.6890 F900
G01 X96.7163 Y75.5286 F900
G01 X96.7201 Y75.6219 F900
G01 X96.7396 Y76.4633 F900
G01 X96.7391 Y76.5567 F900
G01 X96.7197 Y77.3980 F900
G01 X96.7149 Y77.4914 F900
G01 X96.6566 Y78.3309 F900
G01 X96.6475 Y78.4239 F900
G01 X96.5506 Y79.2599 F900
G01 X96.5372 Y79.3523 F900
G01 X96.4017 Y80.1829 F900
G01 X96.3841 Y80.2747 F900
G01 X96.2104 Y81.0981 F900
G01 X96.1885 Y81.1890 F900
G01 X95.9770 Y82.0035 F900
G01 X95.9510 Y82.0933 F900
G01 X95.7020 Y82.8971 F900
G01 X95.6719 Y82.9856 F900
G01 X95.3861 Y83.7771 F900
G01 X95.3519 Y83.8641 F900
G01 X95.0299 Y84.6416 F900
G01 X94.9917 Y84.7269 F900
G01 X94.6341 Y85.4887 F900
G01 X94.5920 Y85.5721 F900
G01 X94.1996 Y86.3166 F900
G01 X94.1537 Y86.3980 F900
G01 X93.7274 Y87.1235 F900
G01 X93.6778 Y87.2027 F900
G01 X93.2184 Y87.9078 F900
G01 X93.1652 Y87.9847 F900
G01 X92.6737 Y88.6678 F900
G01 X92.6170 Y88.7421 F900
G01 X92.0945 Y89.4017 F900
G01 X92.0344 Y89.4733 F900
G01 X91.4820 Y90.1082 F900
G01 X91.4187 Y90.1769 F900
G01 X90.8375 Y90.7856 F900
G01 X90.7711 Y90.8513 F900
G01 X90.1625 Y91.4325 F900
G01 X90.0931 Y91.4951 F900
G01 X89.4582 Y92.0475 F900
G01 X89.3861 Y92.1069 F900
G01 X88.7264 Y92.6294 F900
G01 X88.6515 Y92.6853 F900
G01 X87.9684 Y93.1768 F900
G01 X87.8911 Y93.2293 F900
G01 X87.1860 Y93.6887 F900
G01 X87.1063 Y93.7375 F900
G01 X86.3808 Y94.1639 F900
G01 X86.2989 Y94.2089 F900
G01 X85.5544 Y94.6014 F900
G01 X85.4706 Y94.6426 F900
G01 X84.7088 Y95.0002 F900
G01 X84.6231 Y95.0375 F900
G01 X83.8456 Y95.3596 F900
G01 X83.7583 Y95.3929 F900
G01 X82.9668 Y95.6787 F900
G01 X82.8780 Y95.7080 F900
G01 X82.0741 Y95.9569 F900
G01 X81.9841 Y95.9820 F900
G01 X81.1696 Y96.1936 F900
G01 X81.0785 Y96.2145 F900
G01 X80.2551 Y96.3882 F900
G01 X80.1632 Y96.4049 F900
G01 X79.3326 Y96.5404 F900
G01 X79.2400 Y96.5529 F900
G01 X78.4040 Y96.6498 F900
G01 X78.3110 Y96.6580 F900
G01 X77.4714 Y96.7163 F900
G01 X77.3781 Y96.7201 F900
G01 X76.5367 Y96.7396 F900
G01 X76.4433 Y96.7391 F900
G01 X75.6020 Y96.7197 F900
G01 X75.5086 Y96.7149 F900
G01 X74.6691 Y96.6566 F900
G01 X74.5761 Y96.6475 F900
G01 X73.7401 Y96.5506 F900
G01 X73.6477 Y96.5372 F900
G01 X72.8171 Y96.4017 F900
G01 X72.7253 Y96.3841 F900
G01 X71.9019 Y96.2104 F900
G01 X71.8110 Y96.1885 F900
G01 X70.9965 Y95.9770 F900
G01 X70.9067 Y95.9510 F900
G01 X70.1029 Y95.7020 F900
G01 X70.0144 Y95.6719 F900
G01 X69.2229 Y95.3861 F900
G01 X69.1359 Y95.3519 F900
G01 X68.3584 Y95.0299 F900
G01 X68.2731 Y94.9917 F900
G01 X67.5113 Y94.6341 F900
G01 X67.4279 Y94.5920 F900
G01 X66.6834 Y94.1996 F900
G01 X66.6020 Y94.1537 F900
G01 X65.8765 Y93.7274 F900
G01 X65.7973 Y93.6778 F900
G01 X65.0922 Y93.2184 F900
G01 X65.0153 Y93.1652 F900
G01 X64.3322 Y92.6737 F900
G01 X64.2579 Y92.6170 F900
G01 X63.5983 Y92.0945 F900
G01 X63.5267 Y92.0344 F900
G01 X63.4242 Y91.9453 F900
G01 X62.8918 Y91.4820 F900
G01 X62.8231 Y91.4187 F900
G01 X62.2144 Y90.8375 F900
G01 X62.1487 Y90.7711 F900
G01 X61.5675 Y90.1625 F900
G01 X61.5049 Y90.0931 F900
G01 X60.9525 Y89.4582 F900
G01 X60.8931 Y89.3861 F900
G01 X60.3706 Y88.7264 F900
G01 X60.3147 Y88.6515 F900
G01 X59.8232 Y87.9684 F900
G01 X59.7707 Y87.8911 F900
G01 X59.3854 Y87.2997 F900
G01 Z-16.5000 F180
G01 X59.3113 Y87.1860 F900
G01 X59.2625 Y87.1063 F900
G01 X58.8361 Y86.3808 F900
G01 X58.7911 Y86.2989 F900
G01 X58.3986 Y85.5544 F900
G01 X58.3574 Y85.4706 F900
G01 X57.9998 Y84.7088 F900
G01 X57.9625 Y84.6231 F900
G01 X57.6404 Y83.8456 F900
G01 X57.6071 Y83.7583 F900
G01 X57.3213 Y82.9668 F900
G01 X57.2920 Y82.8780 F900
G01 X57.0431 Y82.0741 F900
G01 X57.0180 Y81.9841 F900
G01 X56.8064 Y81.1696 F900
G01 X56.7855 Y81.0785 F900
G01 X56.6118 Y80.2551 F900
G01 X56.5951 Y80.1632 F900
G01 X56.4596 Y79.3326 F900
G01 X56.4471 Y79.2400 F900
G01 X56.3502 Y78.4040 F900
G01 X56.3420 Y78.3110 F900
G01 X56.2837 Y77.4714 F900
G01 X56.2799 Y77.3781 F900
G01 X56.2604 Y76.5367 F900
G01 X56.2609 Y76.4433 F900
G01 X56.2803 Y75.6020 F900
G01 X56.2851 Y75.5086 F900
G01 X56.3434 Y74.6691 F900
G01 X56.3525 Y74.5761 F900
G01 X56.4494 Y73.7401 F900
G01 X56.4628 Y73.6477 F900
G01 X56.5983 Y72.8171 F900
G01 X56.6159 Y72.7253 F900
G01 X56.7896 Y71.9019 F900
G01 X56.8115 Y71.8110 F900
G01 X57.0230 Y70.9965 F900
G01 X57.0490 Y70.9067 F900
G01 X57.2980 Y70.1029 F900
G01 X57.3281 Y70.0144 F900
G01 X57.6139 Y69.2229 F900
G01 X57.6481 Y69.1359 F900
G01 X57.9701 Y68.3584 F900
G01 X58.0083 Y68.2731 F900
G01 X58.3659 Y67.5113 F900
G01 X58.4080 Y67.4279 F900
G01 X58.8004 Y66.6834 F900
G01 X58.8463 Y66.6020 F900
G01 X59.2726 Y65.8765 F900
G01 X59.3222 Y65.7973 F900
G01 X59.7816 Y65.0922 F900
G01 X59.8348 Y65.0153 F900
G01 X60.3263 Y64.3322 F900
G01 X60.3830 Y64.2579 F900
G01 X60.9055 Y63.5983 F900
G01 X60.9656 Y63.5267 F900
G01 X61.5180 Y62.8918 F900
G01 X61.5813 Y62.8231 F900
G01 X62.1625 Y62.2144 F900
G01 X62.2289 Y62.1487 F900
G01 X62.8375 Y61.5675 F900
G01 X62.9069 Y61.5049 F900
G01 X63.5418 Y60.9525 F900
G01 X63.6139 Y60.8931 F900
G01 X64.2736 Y60.3706 F900
G01 X64.3485 Y60.3147 F900
G01 X65.0316 Y59.8232 F900
G01 X65.1089 Y59.7707 F900
G01 X65.8140 Y59.3113 F900
G01 X65.8937 Y59.2625 F900
G01 X66.6192 Y58.8361 F900
G01 X66.7011 Y58.7911 F900
G01 X67.4456 Y58.3986 F900
G01 X67.5294 Y58.3574 F900
G01 X68.2912 Y57.9998 F900
G01 X68.3769 Y57.9625 F900
G01 X69.1544 Y57.6404 F900
G01 X69.2417 Y57.6071 F900
G01 X70.0332 Y57.3213 F900
G01 X70.1220 Y57.2920 F900
G01 X70.9259 Y57.0431 F900
G01 X71.0159 Y57.0180 F900
G01 X71.8304 Y56.8064 F900
G01 X71.9215 Y56.7855 F900
G01 X72.7449 Y56.6118 F900
G01 X72.8368 Y56.5951 F900
G01 X73.6674 Y56.4596 F900
G01 X73.7600 Y56.4471 F900
G01 X74.5960 Y56.3502 F900
G01 X74.6890 Y56.3420 F900
G01 X75.5286 Y56.2837 F900
G01 X75.6219 Y56.2799 F900
G01 X76.4633 Y56.2604 F900
G01 X76.5567 Y56.2609 F900
G01 X77.3980 Y56.2803 F900
G01 X77.4914 Y56.2851 F900
G01 X78.3309 Y56.3434 F900
G01 X78.4239 Y56.3525 F900
G01 X79.2599 Y56.4494 F900
G01 X79.3523 Y56.4628 F900
G01 X80.1829 Y56.5983 F900
G01 X80.2747 Y56.6159 F900
G01 X81.0981 Y56.7896 F900
G01 X81.1890 Y56.8115 F900
G01 X82.0035 Y57.0230 F900
G01 X82.0933 Y57.0490 F900
G01 X82.8971 Y57.2980 F900
G01 X82.9856 Y57.3281 F900
G01 X83.7771 Y57.6139 F900
G01 X83.8641 Y57.6481 F900
G01 X84.6416 Y57.9701 F900
G01 X84.7269 Y58.0083 F900
G01 X85.4887 Y58.3659 F900
G01 X85.5721 Y58.4080 F900
G01 X86.3166 Y58.8004 F900
G01 X86.3980 Y58.8463 F900
G01 X87.1235 Y59.2726 F900
G01 X87.2027 Y59.3222 F900
G01 X87.9078 Y59.7816 F900
G01 X87.9847 Y59.8348 F900
G01 X88.6678 Y60.3263 F900
G01 X88.7421 Y60.3830 F900
G01 X89.4017 Y60.9055 F900
G01 X89.4733 Y60.9656 F900
G01 X90.1082 Y61.5180 F900
G01 X90.1736 Y61.5783 F900
G01 X90.7856 Y62.1625 F900
G01 X90.8513 Y62.2289 F900
G01 X91.4325 Y62.8375 F900
G01 X91.4951 Y62.9069 F900
G01 X92.0475 Y63.5418 F900
G01 X92.1069 Y63.6139 F900
G01 X92.6294 Y64.2736 F900
G01 X92.6853 Y64.3485 F900
G01 X93.1768 Y65.0316 F900
G01 X93.2293 Y65.1089 F900
G01 X93.6887 Y65.8140 F900
G01 X93.7375 Y65.8937 F900
G01 X94.0240 Y66.3813 F900
G01 X94.1639 Y66.6192 F900
G01 X94.2089 Y66.7011 F900
G01 X94.6014 Y67.4456 F900
G01 X94.6426 Y67.5294 F900
G01 X95.0002 Y68.2912 F900
G01 X95.0375 Y68.3769 F900
G01 X95.3596 Y69.1544 F900
G01 X95.3929 Y69.2417 F900
G01 X95.6787 Y70.0332 F900
G01 X95.7080 Y70.1220 F900
G01 X95.9569 Y70.9259 F900
G01 X95.9820 Y71.0159 F900
G01 X96.1936 Y71.8304 F900
G01 X96.2145 Y71.9215 F900
G01 X96.3882 Y72.7449 F900
G01 X96.4049 Y72.8368 F900
G01 X96.5404 Y73.6674 F900
G01 X96.5529 Y73.7600 F900
G01 X96.6498 Y74.5960 F900
G01 X96.6580 Y74.6890 F900
G01 X96.7163 Y75.5286 F900
G01 X96.7201 Y75.6219 F900
G01 X96.7396 Y76.4633 F900
G01 X96.7391 Y76.5567 F900
G01 X96.7197 Y77.3980 F900
G01 X96.7149 Y77.4914 F900
G01 X96.6566 Y78.3309 F900
G01 X96.6475 Y78.4239 F900
G01 X96.5506 Y79.2599 F900
G01 X96.5372 Y79.3523 F900
G01 X96.4017 Y80.1829 F900
G01 X96.3841 Y80.2747 F900
G01 X96.2104 Y81.0981 F900
G01 X96.1885 Y81.1890 F900
G01 X95.9770 Y82.0035 F900
G01 X95.9510 Y82.0933 F900
G01 X95.7020 Y82.8971 F900
G01 X95.6719 Y82.9856 F900
G01 X95.3861 Y83.7771 F900
G01 X95.3519 Y83.8641 F900
G01 X95.0299 Y84.6416 F900
G01 X94.9917 Y84.7269 F900
G01 X94.6341 Y85.4887 F900
G01 X94.5920 Y85.5721 F900
G01 X94.1996 Y86.3166 F900
G01 X94.1537 Y86.3980 F900
G01 X93.7274 Y87.1235 F900
G01 X93.6778 Y87.2027 F900
G01 X93.2184 Y87.9078 F900
G01 X93.1652 Y87.9847 F900
G01 X92.6737 Y88.6678 F900
G01 X92.6170 Y88.7421 F900
G01 X92.0945 Y89.4017 F900
G01 X92.0344 Y89.4733 F900
G01 X91.4820 Y90.1082 F900
G01 X91.4187 Y90.1769 F900
G01 X90.8375 Y90.7856 F900
G01 X90.7711 Y90.8513 F900
G01 X90.1625 Y91.4325 F900
G01 X90.0931 Y91.4951 F900
G01 X89.4582 Y92.0475 F900
G01 X89.3861 Y92.1069 F900
G01 X88.7264 Y92.6294 F900
G01 X88.6515 Y92.6853 F900
G01 X87.9684 Y93.1768 F900
G01 X87.8911 Y93.2293 F900
G01 X87.1860 Y93.6887 F900
G01 X87.1063 Y93.7375 F900
G01 X86.3808 Y94.1639 F900
G01 X86.2989 Y94.2089 F900
G01 X85.5544 Y94.6014 F900
G01 X85.4706 Y94.6426 F900
G01 X84.7088 Y95.0002 F900
G01 X84.6231 Y95.0375 F900
G01 X83.8456 Y95.3596 F900
G01 X83.7583 Y95.3929 F900
G01 X82.9668 Y95.6787 F900
G01 X82.8780 Y95.7080 F900
G01 X82.0741 Y95.9569 F900
G01 X81.9841 Y95.9820 F900
G01 X81.1696 Y96.1936 F900
G01 X81.0785 Y96.2145 F900
G01 X80.2551 Y96.3882 F900
G01 X80.1632 Y96.4049 F900
G01 X79.3326 Y96.5404 F900
G01 X79.2400 Y96.5529 F900
G01 X78.4040 Y96.6498 F900
G01 X78.3110 Y96.6580 F900
G01 X77.4714 Y96.7163 F900
G01 X77.3781 Y96.7201 F900
G01 X76.5367 Y96.7396 F900
G01 X76.4433 Y96.7391 F900
G01 X75.6020 Y96.7197 F900
G01 X75.5086 Y96.7149 F900
G01 X74.6691 Y96.6566 F900
G01 X74.5761 Y96.6475 F900
G01 X73.7401 Y96.5506 F900
G01 X73.6477 Y96.5372 F900
G01 X72.8171 Y96.4017 F900
G01 X72.7253 Y96.3841 F900
G01 X71.9019 Y96.2104 F900
G01 X71.8110 Y96.1885 F900
G01 X70.9965 Y95.9770 F900
G01 X70.9067 Y95.9510 F900
G01 X70.1029 Y95.7020 F900
G01 X70.0144 Y95.6719 F900
G01 X69.2229 Y95.3861 F900
G01 X69.1359 Y95.3519 F900
G01 X68.3584 Y95.0299 F900
G01 X68.2731 Y94.9917 F900
G01 X67.5113 Y94.6341 F900
G01 X67.4279 Y94.5920 F900
G01 X66.6834 Y94.1996 F900
G01 X66.6020 Y94.1537 F900
G01 X65.8765 Y93.7274 F900
G01 X65.7973 Y93.6778 F900
G01 X65.0922 Y93.2184 F900
G01 X65.0153 Y93.1652 F900
G01 X64.3322 Y92.6737 F900
G01 X64.2579 Y92.6170 F900
G01 X63.5983 Y92.0945 F900
G01 X63.5267 Y92.0344 F900
G01 X63.4242 Y91.9453 F900
G01 X62.8918 Y91.4820 F900
G01 X62.8231 Y91.4187 F900
G01 X62.2144 Y90.8375 F900
G01 X62.1487 Y90.7711 F900
G01 X61.5675 Y90.1625 F900
G01 X61.5049 Y90.0931 F900
G01 X60.9525 Y89.4582 F900
G01 X60.8931 Y89.3861 F900
G01 X60.3706 Y88.7264 F900
G01 X60.3147 Y88.6515 F900
G01 X59.8232 Y87.9684 F900
G01 X59.7707 Y87.8911 F900
G01 X59.3854 Y87.2997 F900
G01 Z-18.0000 F180
G01 X59.3113 Y87.1860 F900
G01 X59.2625 Y87.1063 F900
G01 X58.8361 Y86.3808 F900
G01 X58.7911 Y86.2989 F900
G01 X58.3986 Y85.5544 F900
G01 X58.3574 Y85.4706 F900
G01 X57.9998 Y84.7088 F900
G01 X57.9625 Y84.6231 F900
G01 X57.6404 Y83.8456 F900
G01 X57.6071 Y83.7583 F900
G01 X57.3213 Y82.9668 F900
G01 X57.2920 Y82.8780 F900
G01 X57.0431 Y82.0741 F900
G01 X57.0180 Y81.9841 F900
G01 X56.8064 Y81.1696 F900
G01 X56.7855 Y81.0785 F900
G01 X56.6118 Y80.2551 F900
G01 X56.5951 Y80.1632 F900
G01 X56.4596 Y79.3326 F900
G01 X56.4471 Y79.2400 F900
G01 X56.3502 Y78.4040 F900
G01 X56.3420 Y78.3110 F900
G01 X56.2837 Y77.4714 F900
G01 X56.2799 Y77.3781 F900
G01 X56.2604 Y76.5367 F900
G01 X56.2609 Y76.4433 F900
G01 X56.2803 Y75.6020 F900
G01 X56.2851 Y75.5086 F900
G01 X56.3434 Y74.6691 F900
G01 X56.3525 Y74.5761 F900
G01 X56.4494 Y73.7401 F900
G01 X56.4628 Y73.6477 F900
G01 X56.5983 Y72.8171 F900
G01 X56.6159 Y72.7253 F900
G01 X56.7896 Y71.9019 F900
G01 X56.8115 Y71.8110 F900
G01 X57.0230 Y70.9965 F900
G01 X57.0490 Y70.9067 F900
G01 X57.2980 Y70.1029 F900
G01 X57.3281 Y70.0144 F900
G01 X57.6139 Y69.2229 F900
G01 X57.6481 Y69.1359 F900
G01 X57.9701 Y68.3584 F900
G01 X58.0083 Y68.2731 F900
G01 X58.3659 Y67.5113 F900
G01 X58.4080 Y67.4279 F900
G01 X58.8004 Y66.6834 F900
G01 X58.8463 Y66.6020 F900
G01 X59.2726 Y65.8765 F900
G01 X59.3222 Y65.7973 F900
G01 X59.7816 Y65.0922 F900
G01 X59.8348 Y65.0153 F900
G01 X60.3263 Y64.3322 F900
G01 X60.3830 Y64.2579 F900
G01 X60.9055 Y63.5983 F900
G01 X60.9656 Y63.5267 F900
G01 X61.5180 Y62.8918 F900
G01 X61.5813 Y62.8231 F900
G01 X62.1625 Y62.2144 F900
G01 X62.2289 Y62.1487 F900
G01 X62.8375 Y61.5675 F900
G01 X62.9069 Y61.5049 F900
G01 X63.5418 Y60.9525 F900
G01 X63.6139 Y60.8931 F900
G01 X64.2736 Y60.3706 F900
G01 X64.3485 Y60.3147 F900
G01 X65.0316 Y59.8232 F900
G01 X65.1089 Y59.7707 F900
G01 X65.8140 Y59.3113 F900
G01 X65.8937 Y59.2625 F900
G01 X66.6192 Y58.8361 F900
G01 X66.7011 Y58.7911 F900
G01 X67.4456 Y58.3986 F900
G01 X67.5294 Y58.3574 F900
G01 X68.2912 Y57.9998 F900
G01 X68.3769 Y57.9625 F900
G01 X69.1544 Y57.6404 F900
G01 X69.2417 Y57.6071 F900
G01 X70.0332 Y57.3213 F900
G01 X70.1220 Y57.2920 F900
G01 X70.9259 Y57.0431 F900
G01 X71.0159 Y57.0180 F900
G01 X71.8304 Y56.8064 F900
G01 X71.9215 Y56.7855 F900
G01 X72.7449 Y56.6118 F900
G01 X72.8368 Y56.5951 F900
G01 X73.6674 Y56.4596 F900
G01 X73.7600 Y56.4471 F900
G01 X74.5960 Y56.3502 F900
G01 X74.6890 Y56.3420 F900
G01 X75.5286 Y56.2837 F900
G01 X75.6219 Y56.2799 F900
G01 X76.4633 Y56.2604 F900
G01 X76.5567 Y56.2609 F900
G01 X77.3980 Y56.2803 F900
G01 X77.4914 Y56.2851 F900
G01 X78.3309 Y56.3434 F900
G01 X78.4239 Y56.3525 F900
G01 X79.2599 Y56.4494 F900
G01 X79.3523 Y56.4628 F900
G01 X80.1829 Y56.5983 F900
G01 X80.2747 Y56.6159 F900
G01 X81.0981 Y56.7896 F900
G01 X81.1890 Y56.8115 F900
G01 X82.0035 Y57.0230 F900
G01 X82.0933 Y57.0490 F900
G01 X82.8971 Y57.2980 F900
G01 X82.9856 Y57.3281 F900
G01 X83.7771 Y57.6139 F900
G01 X83.8641 Y57.6481 F900
G01 X84.6416 Y57.9701 F900
G01 X84.7269 Y58.0083 F900
G01 X85.4887 Y58.3659 F900
G01 X85.5721 Y58.4080 F900
G01 X86.3166 Y58.8004 F900
G01 X86.3980 Y58.8463 F900
G01 X87.1235 Y59.2726 F900
G01 X87.2027 Y59.3222 F900
G01 X87.9078 Y59.7816 F900
G01 X87.9847 Y59.8348 F900
G01 X88.6678 Y60.3263 F900
G01 X88.7421 Y60.3830 F900
G01 X89.4017 Y60.9055 F900
G01 X89.4733 Y60.9656 F900
G01 X90.1082 Y61.5180 F900
G01 X90.1736 Y61.5783 F900
G00 Z-16.5000 F480
G01 X90.7856 Y62.1625 F900
G01 X90.8513 Y62.2289 F900
G01 X91.4325 Y62.8375 F900
G01 X91.4951 Y62.9069 F900
G01 X92.0475 Y63.5418 F900
G01 X92.1069 Y63.6139 F900
G01 X92.6294 Y64.2736 F900
G01 X92.6853 Y64.3485 F900
G01 X93.1768 Y65.0316 F900
G01 X93.2293 Y65.1089 F900
G01 X93.6887 Y65.8140 F900
G01 X93.7375 Y65.8937 F900
G01 X94.0240 Y66.3813 F900
G01 Z-18.0000 F180
G01 X94.1639 Y66.6192 F900
G01 X94.2089 Y66.7011 F900
G01 X94.6014 Y67.4456 F900
G01 X94.6426 Y67.5294 F900
G01 X95.0002 Y68.2912 F900
G01 X95.0375 Y68.3769 F900
G01 X95.3596 Y69.1544 F900
G01 X95.3929 Y69.2417 F900
G01 X95.6787 Y70.0332 F900
G01 X95.7080 Y70.1220 F900
G01 X95.9569 Y70.9259 F900
G01 X95.9820 Y71.0159 F900
G01 X96.1936 Y71.8304 F900
G01 X96.2145 Y71.9215 F900
G01 X96.3882 Y72.7449 F900
G01 X96.4049 Y72.8368 F900
G01 X96.5404 Y73.6674 F900
G01 X96.5529 Y73.7600 F900
G01 X96.6498 Y74.5960 F900
G01 X96.6580 Y74.6890 F900
G01 X96.7163 Y75.5286 F900
G01 X96.7201 Y75.6219 F900
G01 X96.7396 Y76.4633 F900
G01 X96.7391 Y76.5567 F900
G01 X96.7197 Y77.3980 F900
G01 X96.7149 Y77.4914 F900
G01 X96.6566 Y78.3309 F900
G01 X96.6475 Y78.4239 F900
G01 X96.5506 Y79.2599 F900
G01 X96.5372 Y79.3523 F900
G01 X96.4017 Y80.1829 F900
G01 X96.3841 Y80.2747 F900
G01 X96.2104 Y81.0981 F900
G01 X96.1885 Y81.1890 F900
G01 X95.9770 Y82.0035 F900
G01 X95.9510 Y82.0933 F900
G01 X95.7020 Y82.8971 F900
G01 X95.6719 Y82.9856 F900
G01 X95.3861 Y83.7771 F900
G01 X95.3519 Y83.8641 F900
G01 X95.0299 Y84.6416 F900
G01 X94.9917 Y84.7269 F900
G01 X94.6341 Y85.4887 F900
G01 X94.5920 Y85.5721 F900
G01 X94.1996 Y86.3166 F900
G01 X94.1537 Y86.3980 F900
G01 X93.7274 Y87.1235 F900
G01 X93.6778 Y87.2027 F900
G01 X93.2184 Y87.9078 F900
G01 X93.1652 Y87.9847 F900
G01 X92.6737 Y88.6678 F900
G01 X92.6170 Y88.7421 F900
G01 X92.0945 Y89.4017 F900
G01 X92.0344 Y89.4733 F900
G01 X91.4820 Y90.1082 F900
G01 X91.4187 Y90.1769 F900
G01 X90.8375 Y90.7856 F900
G01 X90.7711 Y90.8513 F900
G01 X90.1625 Y91.4325 F900
G01 X90.0931 Y91.4951 F900
G01 X89.4582 Y92.0475 F900
G01 X89.3861 Y92.1069 F900
G01 X88.7264 Y92.6294 F900
G01 X88.6515 Y92.6853 F900
G01 X87.9684 Y93.1768 F900
G01 X87.8911 Y93.2293 F900
G01 X87.1860 Y93.6887 F900
G01 X87.1063 Y93.7375 F900
G01 X86.3808 Y94.1639 F900
G01 X86.2989 Y94.2089 F900
G01 X85.5544 Y94.6014 F900
G01 X85.4706 Y94.6426 F900
G01 X84.7088 Y95.0002 F900
G01 X84.6231 Y95.0375 F900
G01 X83.8456 Y95.3596 F900
G01 X83.7583 Y95.3929 F900
G01 X82.9668 Y95.6787 F900
G01 X82.8780 Y95.7080 F900
G01 X82.0741 Y95.9569 F900
G01 X81.9841 Y95.9820 F900
G01 X81.1696 Y96.1936 F900
G01 X81.0785 Y96.2145 F900
G01 X80.2551 Y96.3882 F900
G01 X80.1632 Y96.4049 F900
G01 X79.3326 Y96.5404 F900
G01 X79.2400 Y96.5529 F900
G01 X78.4040 Y96.6498 F900
G01 X78.3110 Y96.6580 F900
G01 X77.4714 Y96.7163 F900
G01 X77.3781 Y96.7201 F900
G01 X76.5367 Y96.7396 F900
G01 X76.4433 Y96.7391 F900
G01 X75.6020 Y96.7197 F900
G01 X75.5086 Y96.7149 F900
G01 X74.6691 Y96.6566 F900
G01 X74.5761 Y96.6475 F900
G01 X73.7401 Y96.5506 F900
G01 X73.6477 Y96.5372 F900
G01 X72.8171 Y96.4017 F900
G01 X72.7253 Y96.3841 F900
G01 X71.9019 Y96.2104 F900
G01 X71.8110 Y96.1885 F900
G01 X70.9965 Y95.9770 F900
G01 X70.9067 Y95.9510 F900
G01 X70.1029 Y95.7020 F900
G01 X70.0144 Y95.6719 F900
G01 X69.2229 Y95.3861 F900
G01 X69.1359 Y95.3519 F900
G01 X68.3584 Y95.0299 F900
G01 X68.2731 Y94.9917 F900
G01 X67.5113 Y94.6341 F900
G01 X67.4279 Y94.5920 F900
G01 X66.6834 Y94.1996 F900
G01 X66.6020 Y94.1537 F900
G01 X65.8765 Y93.7274 F900
G01 X65.7973 Y93.6778 F900
G01 X65.0922 Y93.2184 F900
G01 X65.0153 Y93.1652 F900
G01 X64.3322 Y92.6737 F900
G01 X64.2579 Y92.6170 F900
G01 X63.5983 Y92.0945 F900
G01 X63.5267 Y92.0344 F900
G01 X63.4242 Y91.9453 F900
G00 Z-16.5000 F480
G01 X62.8918 Y91.4820 F900
G01 X62.8231 Y91.4187 F900
G01 X62.2144 Y90.8375 F900
G01 X62.1487 Y90.7711 F900
G01 X61.5675 Y90.1625 F900
G01 X61.5049 Y90.0931 F900
G01 X60.9525 Y89.4582 F900
G01 X60.8931 Y89.3861 F900
G01 X60.3706 Y88.7264 F900
G01 X60.3147 Y88.6515 F900
G01 X59.8232 Y87.9684 F900
G01 X59.7707 Y87.8911 F900
G01 X59.3854 Y87.2997 F900
G00 Z2.0000 F480


;No. 4: Part 1
G00 X6.8495 Y111.7998 Z2.0000 F2100
G00 Z0.5000 F480
G01 Z-1.5000 F180
G03 X-1.5899 Y76.5181 I69.5639 J-35.2899 F900
G01 X-1.5701 Y74.7405 F900
G03 X86.4383 Y-0.9501 I78.0627 J1.7559 F900
G03 X92.5309 Y0.0751 I-9.2639 J73.6711 F900
G03 X142.3379 Y118.4912 I-16.0278 J76.4241 F900
G01 X142.2904 Y118.5673 F900
G03 X138.8088 Y123.5624 I-62.8578 J-40.1007 F900
G03 X9.8559 Y117.1972 I-62.3109 J-47.0544 F900
G01 X9.7589 Y117.0416 F900
G03 X6.8495 Y111.7998 I63.3651 J-38.5984 F900
G01 Z-3.0000 F180
G03 X-1.5899 Y76.5181 I69.5639 J-35.2899 F900
G01 X-1.5701 Y74.7405 F900
G03 X86.4383 Y-0.9501 I78.0627 J1.7559 F900
G03 X92.5309 Y0.0751 I-9.2639 J73.6711 F900
G03 X142.3379 Y118.4912 I-16.0278 J76.4241 F900
G01 X142.2904 Y118.5673 F900
G03 X138.8088 Y123.5624 I-62.8578 J-40.1007 F900
G03 X9.8559 Y117.1972 I-62.3109 J-47.0544 F900
G01 X9.7589 Y117.0416 F900
G03 X6.8495 Y111.7998 I63.3651 J-38.5984 F900
G01 Z-4.5000 F180
G03 X-1.5899 Y76.5181 I69.5639 J-35.2899 F900
G01 X-1.5701 Y74.7405 F900
G03 X86.4383 Y-0.9501 I78.0627 J1.7559 F900
G03 X92.5309 Y0.0751 I-9.2639 J73.6711 F900
G03 X142.3379 Y118.4912 I-16.0278 J76.4241 F900
G01 X142.2904 Y118.5673 F900
G03 X138.8088 Y123.5624 I-62.8578 J-40.1007 F900
G03 X9.8559 Y117.1972 I-62.3109 J-47.0544 F900
G01 X9.7589 Y117.0416 F900
G03 X6.8495 Y111.7998 I63.3651 J-38.5984 F900
G01 Z-6.0000 F180
G03 X-1.5899 Y76.5181 I69.5639 J-35.2899 F900
G01 X-1.5701 Y74.7405 F900
G03 X86.4383 Y-0.9501 I78.0627 J1.7559 F900
G03 X92.5309 Y0.0751 I-9.2639 J73.6711 F900
G03 X142.3379 Y118.4912 I-16.0278 J76.4241 F900
G01 X142.2904 Y118.5673 F900
G03 X138.8088 Y123.5624 I-62.8578 J-40.1007 F900
G03 X9.8559 Y117.1972 I-62.3109 J-47.0544 F900
G01 X9.7589 Y117.0416 F900
G03 X6.8495 Y111.7998 I63.3651 J-38.5984 F900
G01 Z-7.5000 F180
G03 X-1.5899 Y76.5181 I69.5639 J-35.2899 F900
G01 X-1.5701 Y74.7405 F900
G03 X86.4383 Y-0.9501 I78.0627 J1.7559 F900
G03 X92.5309 Y0.0751 I-9.2639 J73.6711 F900
G03 X142.3379 Y118.4912 I-16.0278 J76.4241 F900
G01 X142.2904 Y118.5673 F900
G03 X138.8088 Y123.5624 I-62.8578 J-40.1007 F900
G03 X9.8559 Y117.1972 I-62.3109 J-47.0544 F900
G01 X9.7589 Y117.0416 F900
G03 X6.8495 Y111.7998 I63.3651 J-38.5984 F900
G01 Z-9.0000 F180
G03 X-1.5899 Y76.5181 I69.5639 J-35.2899 F900
G01 X-1.5701 Y74.7405 F900
G03 X86.4383 Y-0.9501 I78.0627 J1.7559 F900
G03 X92.5309 Y0.0751 I-9.2639 J73.6711 F900
G03 X142.3379 Y118.4912 I-16.0278 J76.4241 F900
G01 X142.2904 Y118.5673 F900
G03 X138.8088 Y123.5624 I-62.8578 J-40.1007 F900
G03 X9.8559 Y117.1972 I-62.3109 J-47.0544 F900
G01 X9.7589 Y117.0416 F900
G03 X6.8495 Y111.7998 I63.3651 J-38.5984 F900
G01 Z-10.5000 F180
G03 X-1.5899 Y76.5181 I69.5639 J-35.2899 F900
G01 X-1.5701 Y74.7405 F900
G03 X86.4383 Y-0.9501 I78.0627 J1.7559 F900
G03 X92.5309 Y0.0751 I-9.2639 J73.6711 F900
G03 X142.3379 Y118.4912 I-16.0278 J76.4241 F900
G01 X142.2904 Y118.5673 F900
G03 X138.8088 Y123.5624 I-62.8578 J-40.1007 F900
